;FLAVOR:Marlin
;TIME:10141
;Filament used: 25.4626m
;Layer height: 0.4
;Generated with Cura_SteamEngine 3.2.1
M190 S60
M104 S200
M109 S200
M82 ;absolute extrusion mode
G21 ;metric values
G90 ;absolute positioning
M82 ;set extruder to absolute mode
M107 ;start with the fan off
G28 X0 Y0 ;move X/Y to min endstops
G28 Z0 ;move Z to min endstops
G1 Z15.0 F100 ;move the platform down 15mm
G92 E0 ;zero the extruded length
G1 F200 E3 ;extrude 3mm of feed stock
G92 E0 ;zero the extruded length again
G1 F100
M117 Printing...
G5
;LAYER_COUNT:113
;LAYER:0
M106 S255
M204 S3500
M205 X13 Y13
G0 F3000 X8.556 Y31.54 Z0.4
M204 S2000
;TYPE:SKIRT
G1 F2400 X9.261 Y31.417 E0.06665
G1 X10.009 Y31.373 E0.13643
G1 X199.991 Y31.374 E17.82914
G1 X200.705 Y31.414 E17.89574
G1 X201.41 Y31.533 E17.96233
G1 X202.098 Y31.731 E18.029
G1 X202.759 Y32.004 E18.0956
G1 X203.386 Y32.348 E18.1622
G1 X203.97 Y32.761 E18.22882
G1 X204.504 Y33.236 E18.29537
G1 X204.983 Y33.768 E18.36204
G1 X205.398 Y34.35 E18.42861
G1 X205.747 Y34.975 E18.49527
G1 X206.023 Y35.635 E18.5619
G1 X206.224 Y36.321 E18.62847
G1 X206.347 Y37.026 E18.69512
G1 X206.391 Y37.774 E18.7649
G1 X206.39 Y152.76 E29.47336
G1 X206.35 Y153.474 E29.53995
G1 X206.231 Y154.179 E29.60654
G1 X206.033 Y154.867 E29.67321
G1 X205.76 Y155.528 E29.73981
G1 X205.282 Y156.359 E29.82909
G1 X203.329 Y159.23 E30.15246
G1 X200.513 Y163.804 E30.65269
G1 X199.261 Y166.048 E30.89199
G1 X197.087 Y170.303 E31.33698
G1 X196.726 Y170.921 E31.40363
G1 X196.299 Y171.495 E31.47026
G1 X195.81 Y172.017 E31.53687
G1 X195.267 Y172.482 E31.60345
G1 X194.675 Y172.883 E31.67003
G1 X194.041 Y173.216 E31.73673
G1 X193.375 Y173.475 E31.80328
G1 X192.684 Y173.659 E31.86987
G1 X191.976 Y173.765 E31.93654
G1 X191.387 Y173.792 E31.99145
G1 X188.615 Y173.792 E32.2496
G1 X187.901 Y173.752 E32.3162
G1 X187.196 Y173.633 E32.38278
G1 X186.508 Y173.435 E32.44946
G1 X185.847 Y173.162 E32.51606
G1 X185.359 Y172.902 E32.56755
G1 X183.403 Y171.746 E32.77915
G1 X178.693 Y169.2 E33.27776
G1 X173.889 Y166.946 E33.77195
G1 X168.933 Y164.951 E34.26948
G1 X166.521 Y164.1 E34.50768
G1 X161.438 Y162.54 E35.00284
G1 X156.256 Y161.267 E35.49978
G1 X153.668 Y160.746 E35.74564
G1 X151.135 Y160.311 E35.98498
G1 X145.836 Y159.63 E36.48253
G1 X140.537 Y159.252 E36.97727
G1 X136.444 Y159.164 E37.35853
G1 X70.828 Y159.204 E43.46925
G1 X65.53 Y159.504 E43.96343
G1 X60.281 Y160.1 E44.4554
G1 X55.019 Y161.002 E44.95259
G1 X52.476 Y161.55 E45.19485
G1 X49.951 Y162.168 E45.43694
G1 X44.809 Y163.662 E45.93561
G1 X39.832 Y165.419 E46.42715
G1 X34.934 Y167.468 E46.92159
G1 X30.192 Y169.773 E47.41262
G1 X24.533 Y172.966 E48.01773
G1 X23.891 Y173.282 E48.08437
G1 X23.219 Y173.525 E48.15092
G1 X22.523 Y173.691 E48.21755
G1 X21.813 Y173.778 E48.28417
G1 X21.335 Y173.792 E48.3287
G1 X18.548 Y173.769 E48.58826
G1 X17.834 Y173.723 E48.65489
G1 X17.13 Y173.598 E48.72148
G1 X16.444 Y173.395 E48.78811
G1 X15.785 Y173.116 E48.85475
G1 X15.162 Y172.766 E48.9213
G1 X14.581 Y172.349 E48.9879
G1 X14.05 Y171.869 E49.05456
G1 X13.577 Y171.333 E49.12114
G1 X13.166 Y170.748 E49.18772
G1 X12.879 Y170.235 E49.24246
G1 X11.411 Y167.303 E49.54783
G1 X8.783 Y162.6 E50.04955
G1 X7.442 Y160.421 E50.28783
G1 X4.694 Y156.322 E50.74741
G1 X4.33 Y155.706 E50.81404
G1 X4.036 Y155.054 E50.88065
G1 X3.817 Y154.373 E50.94727
G1 X3.676 Y153.672 E51.01386
G1 X3.61 Y152.758 E51.0992
G1 X3.609 Y37.773 E61.80756
G1 X3.649 Y37.059 E61.87416
G1 X3.768 Y36.354 E61.94075
G1 X3.966 Y35.666 E62.00742
G1 X4.239 Y35.005 E62.07402
G1 X4.583 Y34.378 E62.14062
G1 X4.996 Y33.794 E62.20724
G1 X5.471 Y33.26 E62.27379
G1 X6.003 Y32.782 E62.3404
G1 X6.585 Y32.366 E62.40702
G1 X7.21 Y32.017 E62.47369
G1 X7.87 Y31.741 E62.54031
G1 X8.556 Y31.54 E62.60688
M204 S3500
G0 F3000 X8.377 Y32.166
M204 S2000
G1 F2400 X9.043 Y32.013 E62.67052
G1 X10.009 Y31.933 E62.76079
G1 X199.991 Y31.934 E80.45351
G1 X200.673 Y31.974 E80.51713
G1 X201.346 Y32.093 E80.58078
G1 X202 Y32.29 E80.64439
G1 X202.627 Y32.563 E80.70807
G1 X203.217 Y32.906 E80.77163
G1 X203.764 Y33.316 E80.83529
G1 X204.259 Y33.787 E80.89892
G1 X204.695 Y34.313 E80.96255
G1 X205.067 Y34.886 E81.02617
G1 X205.37 Y35.499 E81.08985
G1 X205.598 Y36.142 E81.15339
G1 X205.751 Y36.808 E81.21703
G1 X205.831 Y37.774 E81.3073
G1 X205.83 Y152.76 E92.01576
G1 X205.79 Y153.442 E92.07938
G1 X205.671 Y154.115 E92.14303
G1 X205.474 Y154.769 E92.20663
G1 X205.201 Y155.396 E92.27032
G1 X204.819 Y156.044 E92.34037
G1 X202.861 Y158.922 E92.66454
G1 X200.027 Y163.526 E93.16803
G1 X198.768 Y165.781 E93.40855
G1 X196.588 Y170.049 E93.85486
G1 X196.242 Y170.638 E93.91848
G1 X195.83 Y171.183 E93.98211
G1 X195.357 Y171.675 E94.04567
G1 X194.829 Y172.11 E94.10938
G1 X194.255 Y172.48 E94.17298
G1 X193.641 Y172.78 E94.23662
G1 X192.996 Y173.006 E94.30026
G1 X192.329 Y173.155 E94.36391
G1 X191.387 Y173.232 E94.45193
G1 X188.615 Y173.232 E94.71008
G1 X187.933 Y173.192 E94.77371
G1 X187.26 Y173.073 E94.83735
G1 X186.606 Y172.876 E94.90096
G1 X185.979 Y172.603 E94.96465
G1 X185.644 Y172.42 E95.0002
G1 X183.663 Y171.249 E95.21451
G1 X178.955 Y168.704 E95.71292
G1 X174.122 Y166.436 E96.2101
G1 X169.117 Y164.422 E96.71253
G1 X166.709 Y163.572 E96.95034
G1 X161.576 Y161.997 E97.45037
G1 X156.382 Y160.721 E97.94846
G1 X153.77 Y160.195 E98.1966
G1 X151.206 Y159.755 E98.43887
G1 X145.896 Y159.073 E98.93744
G1 X140.569 Y158.692 E99.4348
G1 X136.456 Y158.604 E99.81793
G1 X70.814 Y158.644 E105.93106
G1 X65.488 Y158.946 E106.42786
G1 X60.193 Y159.547 E106.92414
G1 X54.902 Y160.454 E107.42407
G1 X52.369 Y160.999 E107.66536
G1 X49.797 Y161.63 E107.91199
G1 X44.648 Y163.126 E108.41134
G1 X39.623 Y164.9 E108.90762
G1 X34.702 Y166.957 E109.40433
G1 X29.935 Y169.275 E109.89797
G1 X24.258 Y172.478 E110.50501
G1 X23.644 Y172.779 E110.56869
G1 X23 Y173.005 E110.63225
G1 X22.333 Y173.155 E110.69592
G1 X21.34 Y173.232 E110.78867
G1 X18.553 Y173.209 E111.04823
G1 X17.871 Y173.163 E111.11189
G1 X17.199 Y173.038 E111.17554
G1 X16.547 Y172.836 E111.23911
G1 X15.922 Y172.559 E111.30278
G1 X15.335 Y172.21 E111.36637
G1 X14.792 Y171.796 E111.42996
G1 X14.301 Y171.32 E111.49365
G1 X13.869 Y170.791 E111.55726
G1 X13.379 Y169.984 E111.64518
G1 X11.899 Y167.03 E111.95288
G1 X9.269 Y162.322 E112.4551
G1 X7.911 Y160.114 E112.69651
G1 X5.159 Y156.01 E113.15668
G1 X4.813 Y155.421 E113.2203
G1 X4.537 Y154.796 E113.28392
G1 X4.337 Y154.143 E113.34753
G1 X4.214 Y153.471 E113.41115
G1 X4.17 Y152.758 E113.47767
G1 X4.169 Y37.773 E124.18604
G1 X4.209 Y37.091 E124.24966
G1 X4.328 Y36.418 E124.31331
G1 X4.525 Y35.764 E124.37692
G1 X4.798 Y35.137 E124.44061
G1 X5.141 Y34.547 E124.50416
G1 X5.551 Y34 E124.56783
G1 X6.022 Y33.506 E124.63139
G1 X6.548 Y33.069 E124.69508
G1 X7.121 Y32.697 E124.7587
G1 X7.734 Y32.395 E124.82234
G1 X8.377 Y32.166 E124.8859
M204 S3500
G0 F3000 X8.874 Y32.616
M204 S2000
G1 F2400 X9.516 Y32.516 E124.94641
G1 X10.009 Y32.493 E124.99237
G1 X199.991 Y32.494 E142.68509
G1 X200.639 Y32.534 E142.74555
G1 X201.278 Y32.653 E142.80608
G1 X201.897 Y32.85 E142.86658
G1 X202.487 Y33.121 E142.92704
G1 X203.04 Y33.463 E142.9876
G1 X203.546 Y33.87 E143.04807
G1 X203.999 Y34.336 E143.1086
G1 X204.39 Y34.854 E143.16904
G1 X204.716 Y35.417 E143.22962
G1 X204.969 Y36.015 E143.29009
G1 X205.148 Y36.639 E143.35055
G1 X205.248 Y37.281 E143.41106
G1 X205.271 Y37.774 E143.45702
G1 X205.27 Y152.76 E154.16548
G1 X205.23 Y153.408 E154.22594
G1 X205.111 Y154.047 E154.28647
G1 X204.914 Y154.666 E154.34697
G1 X204.643 Y155.256 E154.40743
G1 X204.356 Y155.729 E154.45896
G1 X202.387 Y158.624 E154.78501
G1 X199.547 Y163.237 E155.2895
G1 X198.27 Y165.525 E155.53352
G1 X196.089 Y169.794 E155.97997
G1 X195.759 Y170.353 E156.04042
G1 X195.362 Y170.867 E156.1009
G1 X194.905 Y171.329 E156.16142
G1 X194.395 Y171.731 E156.2219
G1 X193.839 Y172.068 E156.28245
G1 X193.246 Y172.334 E156.34297
G1 X192.626 Y172.525 E156.40339
G1 X191.986 Y172.638 E156.46392
G1 X191.387 Y172.672 E156.51979
G1 X188.615 Y172.672 E156.77794
G1 X187.967 Y172.632 E156.8384
G1 X187.328 Y172.513 E156.89894
G1 X186.709 Y172.316 E156.95943
G1 X185.929 Y171.938 E157.04015
G1 X183.953 Y170.771 E157.25387
G1 X179.195 Y168.198 E157.75762
G1 X174.34 Y165.92 E158.25705
G1 X169.329 Y163.903 E158.7601
G1 X166.889 Y163.042 E159.00107
G1 X161.729 Y161.459 E159.50371
G1 X156.49 Y160.172 E160.00612
G1 X153.866 Y159.643 E160.25541
G1 X151.303 Y159.203 E160.49759
G1 X145.953 Y158.516 E160.99991
G1 X140.581 Y158.132 E161.50148
G1 X136.468 Y158.044 E161.8846
G1 X70.801 Y158.084 E168.00006
G1 X65.429 Y158.388 E168.50115
G1 X60.121 Y158.991 E168.99865
G1 X54.808 Y159.902 E169.50067
G1 X52.229 Y160.457 E169.74634
G1 X49.649 Y161.089 E169.99372
G1 X44.483 Y162.59 E170.49471
G1 X39.413 Y164.38 E170.99544
G1 X34.484 Y166.441 E171.49298
G1 X29.665 Y168.784 E171.992
G1 X23.983 Y171.99 E172.59958
G1 X23.398 Y172.274 E172.66014
G1 X22.784 Y172.484 E172.72057
G1 X22.148 Y172.617 E172.78108
G1 X21.344 Y172.672 E172.85613
G1 X18.557 Y172.649 E173.11569
G1 X17.909 Y172.604 E173.17618
G1 X17.272 Y172.479 E173.23664
G1 X16.654 Y172.277 E173.29718
G1 X16.066 Y172.001 E173.35768
G1 X15.517 Y171.655 E173.41811
G1 X15.014 Y171.243 E173.47866
G1 X14.565 Y170.774 E173.53913
G1 X14.178 Y170.252 E173.59964
G1 X13.88 Y169.733 E173.65538
G1 X12.398 Y166.774 E173.96358
G1 X9.748 Y162.033 E174.46939
G1 X8.387 Y159.819 E174.71142
G1 X5.624 Y155.698 E175.17348
G1 X5.296 Y155.137 E175.234
G1 X5.04 Y154.541 E175.2944
G1 X4.859 Y153.917 E175.35491
G1 X4.755 Y153.275 E175.41548
G1 X4.73 Y152.758 E175.46368
G1 X4.729 Y37.773 E186.17205
G1 X4.769 Y37.125 E186.23251
G1 X4.888 Y36.486 E186.29304
G1 X5.085 Y35.867 E186.35354
G1 X5.356 Y35.277 E186.414
G1 X5.698 Y34.724 E186.47456
G1 X6.105 Y34.218 E186.53503
G1 X6.571 Y33.766 E186.59549
G1 X7.089 Y33.374 E186.65599
G1 X7.652 Y33.048 E186.71658
G1 X8.25 Y32.795 E186.77705
G1 X8.874 Y32.616 E186.8375
M204 S3500
G1 F2400 E179.8375
G0 F3000 X9.339 Y152.874
G0 X19.701 Y165.737
M204 S2000
;TYPE:SUPPORT
G1 F2400 E186.8375
G1 F1800 X20.296 Y165.737 E186.89291
G1 X20.592 Y165.914 E186.92503
G1 X20.951 Y165.914 E186.95846
G1 X20.731 Y166.404 E187.00849
G1 X20.769 Y166.944 E187.0589
G1 X20.882 Y167.122 E187.07853
G1 X19.124 Y167.12 E187.24225
G1 X19.235 Y166.951 E187.26108
G1 X19.276 Y166.411 E187.31152
G1 X19.051 Y165.913 E187.36241
G1 X19.405 Y165.913 E187.39538
G1 X19.701 Y165.737 E187.42745
M204 S3500
G0 F3000 X189.05 Y165.913
M204 S2000
G1 F1800 X189.405 Y165.913 E187.46051
G1 X189.751 Y165.707 E187.49801
G1 X190.247 Y165.707 E187.5442
G1 X190.593 Y165.914 E187.58175
G1 X190.951 Y165.914 E187.61509
G1 X190.727 Y166.411 E187.66586
G1 X190.768 Y166.951 E187.71629
G1 X190.879 Y167.122 E187.73528
G1 X189.121 Y167.121 E187.899
G1 X189.232 Y166.951 E187.91791
G1 X189.274 Y166.411 E187.96835
G1 X189.05 Y165.913 E188.0192
M204 S3500
G1 F2400 E181.0192
G0 F3000 X189.05 Y153.429
G0 X189.05 Y151.904
G0 X198.6 Y151.364
M204 S2000
;TYPE:WALL-INNER
G1 F2400 E188.0192
G1 F1800 X11.4 Y151.364 E205.45283
G1 X11.4 Y39.164 E215.90184
G1 X198.6 Y39.164 E233.33547
G1 X198.6 Y151.364 E243.78447
M204 S3500
G0 F3000 X175.751 Y143.069
G0 X172.56 Y141.799
G0 X169.717 Y139.87
G0 X167.806 Y137.852
G0 X165.108 Y134.654
M204 S2000
G1 F1800 X166.939 Y137.694 E244.11497
G1 X169.377 Y140.269 E244.44521
G1 X172.314 Y142.262 E244.77575
G1 X175.61 Y143.574 E245.10613
G1 X179.111 Y144.147 E245.43651
G1 X182.655 Y143.956 E245.76704
G1 X186.074 Y143.007 E246.09748
G1 X189.208 Y141.344 E246.42789
G1 X191.912 Y139.047 E246.7583
G1 X194.06 Y136.222 E247.0888
G1 X195.55 Y133.003 E247.41914
G1 X196.312 Y129.538 E247.74954
G1 X196.312 Y125.99 E248.07996
G1 X195.55 Y122.524 E248.41045
G1 X194.06 Y119.306 E248.74071
G1 X191.912 Y116.48 E249.07128
G1 X189.208 Y114.184 E249.40163
G1 X186.074 Y112.521 E249.73204
G1 X182.655 Y111.572 E250.06249
G1 X179.111 Y111.381 E250.39301
G1 X175.61 Y111.954 E250.72339
G1 X172.314 Y113.266 E251.05377
G1 X169.377 Y115.258 E251.38426
G1 X166.939 Y117.834 E251.71457
G1 X165.108 Y120.874 E252.04507
G1 X163.976 Y124.236 E252.37544
G1 X163.592 Y127.764 E252.70593
G1 X163.976 Y131.291 E253.03634
G1 X165.108 Y134.654 E253.36679
M204 S3500
G0 F3000 X164.487 Y131.178
G0 X164.115 Y127.764
G0 X165.108 Y99.654
M204 S2000
G1 F1800 X166.939 Y102.694 E253.69729
G1 X169.377 Y105.269 E254.02753
G1 X172.314 Y107.262 E254.35808
G1 X175.61 Y108.574 E254.68845
G1 X179.111 Y109.147 E255.01883
G1 X182.655 Y108.956 E255.34936
G1 X186.074 Y108.007 E255.6798
G1 X189.208 Y106.344 E256.01021
G1 X191.912 Y104.047 E256.34062
G1 X194.06 Y101.222 E256.67113
G1 X195.55 Y98.003 E257.00146
G1 X196.312 Y94.538 E257.33186
G1 X196.312 Y90.99 E257.66228
G1 X195.55 Y87.524 E257.99277
G1 X194.06 Y84.306 E258.32303
G1 X191.912 Y81.48 E258.6536
G1 X189.208 Y79.184 E258.98396
G1 X186.074 Y77.521 E259.31437
G1 X182.655 Y76.572 E259.64481
G1 X179.111 Y76.381 E259.97534
G1 X175.61 Y76.954 E260.30572
G1 X172.314 Y78.266 E260.63609
G1 X169.377 Y80.259 E260.96664
G1 X166.939 Y82.834 E261.29688
G1 X165.108 Y85.874 E261.62737
G1 X163.976 Y89.236 E261.95774
G1 X163.592 Y92.764 E262.28824
G1 X163.976 Y96.291 E262.61864
G1 X165.108 Y99.654 E262.9491
M204 S3500
G0 F3000 X164.487 Y96.178
G0 X164.115 Y92.764
G0 X165.108 Y64.654
M204 S2000
G1 F1800 X166.939 Y67.694 E263.2796
G1 X169.377 Y70.269 E263.60984
G1 X172.314 Y72.262 E263.94038
G1 X175.61 Y73.574 E264.27076
G1 X179.111 Y74.147 E264.60114
G1 X182.655 Y73.956 E264.93166
G1 X186.074 Y73.007 E265.26211
G1 X189.208 Y71.344 E265.59252
G1 X191.912 Y69.047 E265.92293
G1 X194.06 Y66.222 E266.25343
G1 X195.55 Y63.003 E266.58377
G1 X196.312 Y59.538 E266.91417
G1 X196.312 Y55.99 E267.24459
G1 X195.55 Y52.524 E267.57508
G1 X194.06 Y49.306 E267.90533
G1 X191.912 Y46.48 E268.23591
G1 X189.208 Y44.184 E268.56626
G1 X186.074 Y42.521 E268.89667
G1 X182.655 Y41.572 E269.22712
G1 X179.111 Y41.381 E269.55764
G1 X175.61 Y41.954 E269.88802
G1 X172.314 Y43.266 E270.2184
G1 X169.377 Y45.259 E270.54894
G1 X166.939 Y47.834 E270.87918
G1 X165.108 Y50.874 E271.20968
G1 X163.976 Y54.236 E271.54005
G1 X163.592 Y57.764 E271.87055
G1 X163.976 Y61.291 E272.20095
G1 X165.108 Y64.654 E272.53141
M204 S3500
G0 F3000 X148.379 Y72.521
G0 X145.07 Y73.439
G0 X141.64 Y73.624
G0 X138.251 Y73.069
G0 X135.06 Y71.799
G0 X132.217 Y69.87
G0 X130.306 Y67.852
G0 X127.608 Y64.654
M204 S2000
G1 F1800 X129.439 Y67.694 E272.8619
G1 X131.877 Y70.269 E273.19214
G1 X134.814 Y72.262 E273.52269
G1 X138.11 Y73.574 E273.85306
G1 X141.611 Y74.147 E274.18344
G1 X145.155 Y73.956 E274.51397
G1 X148.574 Y73.007 E274.84441
G1 X151.708 Y71.344 E275.17482
G1 X154.412 Y69.047 E275.50524
G1 X156.56 Y66.222 E275.83574
G1 X158.05 Y63.003 E276.16608
G1 X158.812 Y59.538 E276.49648
G1 X158.812 Y55.99 E276.8269
G1 X158.05 Y52.524 E277.15739
G1 X156.56 Y49.306 E277.48764
G1 X154.412 Y46.48 E277.81822
G1 X151.708 Y44.184 E278.14857
G1 X148.574 Y42.521 E278.47898
G1 X145.155 Y41.572 E278.80942
G1 X141.611 Y41.381 E279.13995
G1 X138.11 Y41.954 E279.47033
G1 X134.814 Y43.266 E279.8007
G1 X131.877 Y45.259 E280.13125
G1 X129.439 Y47.834 E280.46149
G1 X127.608 Y50.874 E280.79198
G1 X126.476 Y54.236 E281.12235
G1 X126.092 Y57.764 E281.45285
G1 X126.476 Y61.291 E281.78326
G1 X127.608 Y64.654 E282.11371
M204 S3500
G0 F3000 X126.615 Y92.764
G0 X126.915 Y95.528
G0 X127.608 Y99.654
M204 S2000
G1 F1800 X129.439 Y102.694 E282.44421
G1 X131.877 Y105.269 E282.77445
G1 X134.814 Y107.262 E283.10499
G1 X138.11 Y108.574 E283.43537
G1 X141.611 Y109.147 E283.76575
G1 X145.155 Y108.956 E284.09628
G1 X148.574 Y108.007 E284.42672
G1 X151.708 Y106.344 E284.75713
G1 X154.412 Y104.047 E285.08754
G1 X156.56 Y101.222 E285.41804
G1 X158.05 Y98.003 E285.74838
G1 X158.812 Y94.538 E286.07878
G1 X158.812 Y90.99 E286.4092
G1 X158.05 Y87.524 E286.73969
G1 X156.56 Y84.306 E287.06995
G1 X154.412 Y81.48 E287.40052
G1 X151.708 Y79.184 E287.73087
G1 X148.574 Y77.521 E288.06128
G1 X145.155 Y76.572 E288.39173
G1 X141.611 Y76.381 E288.72225
G1 X138.11 Y76.954 E289.05263
G1 X134.814 Y78.266 E289.38301
G1 X131.877 Y80.259 E289.71356
G1 X129.439 Y82.834 E290.04379
G1 X127.608 Y85.874 E290.37429
