(1001)
(T1  D=5.5 CR=0. - ZMIN=-10. - FLAT END MILL)
G90 G94 G91.1 G40 G49 G17
G21

(2D POCKET1)
M5
T1 M6
S10000 M3
G54
M8
G0 X205.059 Y75.276
G43 Z15. H1
Z5.
G1 Z2.548 F1440.
X205.027 Y75.295 Z2.349
X204.933 Y75.348 Z2.176
X204.791 Y75.425 Z2.055
X204.616 Y75.512 Z2.
G3 X199.318 Y64.495 Z0.32 I-2.649 J-5.509
X204.616 Y75.512 Z-1.36 I2.649 J5.509
X199.318 Y64.495 Z-3.04 I-2.649 J-5.509
X204.616 Y75.512 Z-4.72 I2.649 J5.509
X199.318 Y64.495 Z-6.4 I-2.649 J-5.509
X204.616 Y75.512 Z-8.08 I2.649 J5.509
X199.318 Y64.495 Z-9.76 I-2.649 J-5.509
X201.967 Y63.891 Z-10. I2.649 J5.509
G1 X203.493
G3 X203.812 Y64.21 I0. J0.319
G1 Y67.262
G3 X203.493 Y67.581 I-0.319 J0.
G1 X180.841
G3 X180.522 Y67.262 I0. J-0.319
G1 Y64.21
G3 X180.841 Y63.891 I0.319 J0.
G1 X201.967
G2 X203.542 Y62.841 I0. J-1.706
G3 X205.117 Y61.791 I1.575 J0.656
G1 X205.593
G3 X205.912 Y62.11 I0. J0.319
G1 Y69.362
G3 X205.593 Y69.681 I-0.319 J0.
G1 X178.741
G3 X178.422 Y69.362 I0. J-0.319
G1 Y62.11
G3 X178.741 Y61.791 I0.319 J0.
G1 X205.117
G2 X206.428 Y60.863 I0. J-1.39
G3 X208.012 Y61.133 I0.769 J0.271
G1 Y71.462
G3 X207.693 Y71.781 I-0.319 J0.
G1 X176.641
G3 X176.322 Y71.462 I0. J-0.319
G1 Y60.01
G3 X176.641 Y59.691 I0.319 J0.
G1 X207.693
G3 X208.012 Y60.01 I0. J0.319
G1 Y61.133
G2 X209.062 Y62.708 I1.706 J0.
G3 X210.112 Y64.283 I-0.656 J1.575
G1 Y73.562
G3 X209.793 Y73.881 I-0.319 J0.
G1 X174.541
G3 X174.222 Y73.562 I0. J-0.319
G1 Y57.91
G3 X174.541 Y57.591 I0.319 J0.
G1 X209.793
G3 X210.112 Y57.91 I0. J0.319
G1 Y64.283
G2 X211.162 Y65.858 I1.706 J0.
G3 X212.212 Y67.433 I-0.656 J1.575
G1 Y75.662
G3 X211.893 Y75.981 I-0.319 J0.
G1 X172.441
G3 X172.122 Y75.662 I0. J-0.319
G1 Y55.81
G3 X172.441 Y55.491 I0.319 J0.
G1 X211.893
G3 X212.212 Y55.81 I0. J0.319
G1 Y67.433
G2 X213.262 Y69.008 I1.706 J0.
G3 X214.312 Y70.583 I-0.656 J1.575
G1 Y77.762
G3 X213.993 Y78.081 I-0.319 J0.
G1 X170.341
G3 X170.022 Y77.762 I0. J-0.319
G1 Y53.71
G3 X170.341 Y53.391 I0.319 J0.
G1 X213.993
G3 X214.312 Y53.71 I0. J0.319
G1 Y70.583
G2 X215.362 Y72.158 I1.706 J0.
G3 X216.412 Y73.733 I-0.656 J1.575
G1 Y79.862
G3 X216.093 Y80.181 I-0.319 J0.
G1 X168.241
G3 X167.922 Y79.862 I0. J-0.319
G1 Y51.61
G3 X168.241 Y51.291 I0.319 J0.
G1 X216.093
G3 X216.412 Y51.61 I0. J0.319
G1 Y73.733
G2 X217.462 Y75.308 I1.706 J0.
G3 X218.512 Y76.883 I-0.656 J1.575
G1 Y81.962
G3 X218.193 Y82.281 I-0.319 J0.
G1 X166.141
G3 X165.822 Y81.962 I0. J-0.319
G1 Y49.51
G3 X166.141 Y49.191 I0.319 J0.
G1 X218.193
G3 X218.512 Y49.51 I0. J0.319
G1 Y76.883
G2 X219.562 Y78.458 I1.706 J0.
G3 X220.612 Y80.033 I-0.656 J1.575
G1 Y84.062
G3 X220.293 Y84.381 I-0.319 J0.
G1 X164.041
G3 X163.722 Y84.062 I0. J-0.319
G1 Y47.41
G3 X164.041 Y47.091 I0.319 J0.
G1 X220.293
G3 X220.612 Y47.41 I0. J0.319
G1 Y80.033
G2 X221.662 Y81.608 I1.706 J0.
G3 X222.712 Y83.183 I-0.656 J1.575
G1 Y86.162
G3 X222.393 Y86.481 I-0.319 J0.
G1 X161.941
G3 X161.622 Y86.162 I0. J-0.319
G1 Y45.31
G3 X161.941 Y44.991 I0.319 J0.
G1 X222.393
G3 X222.712 Y45.31 I0. J0.319
G1 Y83.183
G2 X223.762 Y84.758 I1.706 J0.
G3 X224.812 Y86.333 I-0.656 J1.575
G1 Y88.262
G3 X224.493 Y88.581 I-0.319 J0.
G1 X159.841
G3 X159.522 Y88.262 I0. J-0.319
G1 Y43.21
G3 X159.841 Y42.891 I0.319 J0.
G1 X224.493
G3 X224.812 Y43.21 I0. J0.319
G1 Y86.333
G2 X225.865 Y87.912 I1.71 J0.
G3 X226.917 Y89.491 I-0.658 J1.579
G1 Y90.686
X157.417
Y40.786
X226.917
Y89.491
X226.91 Y89.575 Z-9.987
X226.891 Y89.658 Z-9.973
X226.863 Y89.729 Z-9.934
X226.825 Y89.796 Z-9.895
X226.788 Y89.844 Z-9.834
X226.747 Y89.889 Z-9.773
X226.686 Y89.938 Z-9.62
X226.664 Y89.953 Z-9.45
G0 Z5.
X266.275 Y76.526
G1 Z2.548 F1440.
X266.243 Y76.545 Z2.349
X266.149 Y76.598 Z2.176
X266.007 Y76.675 Z2.055
X265.832 Y76.762 Z2.
G3 X260.534 Y65.745 Z0.32 I-2.649 J-5.509
X265.832 Y76.762 Z-1.36 I2.649 J5.509
X260.534 Y65.745 Z-3.04 I-2.649 J-5.509
X265.832 Y76.762 Z-4.72 I2.649 J5.509
X260.534 Y65.745 Z-6.4 I-2.649 J-5.509
X265.832 Y76.762 Z-8.08 I2.649 J5.509
X260.534 Y65.745 Z-9.76 I-2.649 J-5.509
X263.183 Y65.141 Z-10. I2.649 J5.509
G1 X310.759
G3 X311.078 Y65.46 I0. J0.319
G1 Y66.012
G3 X310.759 Y66.331 I-0.319 J0.
G1 X262.907
G3 X262.588 Y66.012 I0. J-0.319
G1 Y65.46
G3 X262.907 Y65.141 I0.319 J0.
G1 X263.183
G2 X264.758 Y64.091 I0. J-1.706
G3 X266.333 Y63.041 I1.575 J0.656
G1 X312.859
G3 X313.178 Y63.36 I0. J0.319
G1 Y68.112
G3 X312.859 Y68.431 I-0.319 J0.
G1 X260.807
G3 X260.488 Y68.112 I0. J-0.319
G1 Y63.36
G3 X260.807 Y63.041 I0.319 J0.
G1 X266.333
G2 X267.908 Y61.991 I0. J-1.706
G3 X269.483 Y60.941 I1.575 J0.656
G1 X314.959
G3 X315.278 Y61.26 I0. J0.319
G1 Y70.212
G3 X314.959 Y70.531 I-0.319 J0.
G1 X258.707
G3 X258.388 Y70.212 I0. J-0.319
G1 Y61.26
G3 X258.707 Y60.941 I0.319 J0.
G1 X269.483
G2 X271.058 Y59.891 I0. J-1.706
G3 X272.633 Y58.841 I1.575 J0.656
G1 X317.059
G3 X317.378 Y59.16 I0. J0.319
G1 Y72.312
G3 X317.059 Y72.631 I-0.319 J0.
G1 X256.607
G3 X256.288 Y72.312 I0. J-0.319
G1 Y59.16
G3 X256.607 Y58.841 I0.319 J0.
G1 X272.633
G2 X274.208 Y57.791 I0. J-1.706
G3 X275.783 Y56.741 I1.575 J0.656
G1 X319.159
G3 X319.478 Y57.06 I0. J0.319
G1 Y74.412
G3 X319.159 Y74.731 I-0.319 J0.
G1 X254.507
G3 X254.188 Y74.412 I0. J-0.319
G1 Y57.06
G3 X254.507 Y56.741 I0.319 J0.
G1 X275.783
G2 X277.358 Y55.691 I0. J-1.706
G3 X278.933 Y54.641 I1.575 J0.656
G1 X321.259
G3 X321.578 Y54.96 I0. J0.319
G1 Y76.512
G3 X321.259 Y76.831 I-0.319 J0.
G1 X252.407
G3 X252.088 Y76.512 I0. J-0.319
G1 Y54.96
G3 X252.407 Y54.641 I0.319 J0.
G1 X278.933
G2 X280.508 Y53.591 I0. J-1.706
G3 X282.083 Y52.541 I1.575 J0.656
G1 X323.359
G3 X323.678 Y52.86 I0. J0.319
G1 Y78.612
G3 X323.359 Y78.931 I-0.319 J0.
G1 X250.307
G3 X249.988 Y78.612 I0. J-0.319
G1 Y52.86
G3 X250.307 Y52.541 I0.319 J0.
G1 X282.083
G2 X283.658 Y51.491 I0. J-1.706
G3 X285.233 Y50.441 I1.575 J0.656
G1 X325.459
G3 X325.778 Y50.76 I0. J0.319
G1 Y80.712
G3 X325.459 Y81.031 I-0.319 J0.
G1 X248.207
G3 X247.888 Y80.712 I0. J-0.319
G1 Y50.76
G3 X248.207 Y50.441 I0.319 J0.
G1 X285.233
G2 X286.808 Y49.391 I0. J-1.706
G3 X288.383 Y48.341 I1.575 J0.656
G1 X327.559
G3 X327.878 Y48.66 I0. J0.319
G1 Y82.812
G3 X327.559 Y83.131 I-0.319 J0.
G1 X246.107
G3 X245.788 Y82.812 I0. J-0.319
G1 Y48.66
G3 X246.107 Y48.341 I0.319 J0.
G1 X288.383
G2 X289.962 Y47.289 I0. J-1.71
G3 X291.54 Y46.236 I1.579 J0.658
G1 X329.983
Y85.236
X243.683
Y46.236
X291.54
X291.625 Y46.243 Z-9.987
X291.708 Y46.262 Z-9.973
X291.779 Y46.29 Z-9.934
X291.845 Y46.328 Z-9.895
X291.894 Y46.365 Z-9.834
X291.938 Y46.406 Z-9.773
X291.988 Y46.467 Z-9.62
X292.003 Y46.489 Z-9.45
G0 Z5.
X313.575 Y146.526
G1 Z2.548 F1440.
X313.543 Y146.545 Z2.349
X313.449 Y146.598 Z2.176
X313.307 Y146.675 Z2.055
X313.132 Y146.762 Z2.
G3 X307.834 Y135.745 Z0.32 I-2.649 J-5.509
X313.132 Y146.762 Z-1.36 I2.649 J5.509
X307.834 Y135.745 Z-3.04 I-2.649 J-5.509
X313.132 Y146.762 Z-4.72 I2.649 J5.509
X307.834 Y135.745 Z-6.4 I-2.649 J-5.509
X313.132 Y146.762 Z-8.08 I2.649 J5.509
X307.834 Y135.745 Z-9.76 I-2.649 J-5.509
X310.483 Y135.141 Z-10. I2.649 J5.509
G1 X310.759
G3 X311.078 Y135.46 I0. J0.319
G1 Y136.012
G3 X310.759 Y136.331 I-0.319 J0.
G1 X262.907
G3 X262.588 Y136.012 I0. J-0.319
G1 Y135.46
G3 X262.907 Y135.141 I0.319 J0.
G1 X310.483
G2 X311.736 Y134.354 I0. J-1.39
G3 X313.178 Y134.683 I0.684 J0.329
G1 Y138.112
G3 X312.859 Y138.431 I-0.319 J0.
G1 X260.807
G3 X260.488 Y138.112 I0. J-0.319
G1 Y133.36
G3 X260.807 Y133.041 I0.319 J0.
G1 X312.859
G3 X313.178 Y133.36 I0. J0.319
G1 Y134.683
G2 X314.228 Y136.258 I1.706 J0.
G3 X315.278 Y137.833 I-0.656 J1.575
G1 Y140.212
G3 X314.959 Y140.531 I-0.319 J0.
G1 X258.707
G3 X258.388 Y140.212 I0. J-0.319
G1 Y131.26
G3 X258.707 Y130.941 I0.319 J0.
G1 X314.959
G3 X315.278 Y131.26 I0. J0.319
G1 Y137.833
G2 X316.328 Y139.408 I1.706 J0.
G3 X317.378 Y140.983 I-0.656 J1.575
G1 Y142.312
G3 X317.059 Y142.631 I-0.319 J0.
G1 X256.607
G3 X256.288 Y142.312 I0. J-0.319
G1 Y129.16
G3 X256.607 Y128.841 I0.319 J0.
G1 X317.059
G3 X317.378 Y129.16 I0. J0.319
G1 Y140.983
G2 X318.428 Y142.558 I1.706 J0.
G3 X319.478 Y144.133 I-0.656 J1.575
G1 Y144.412
G3 X319.159 Y144.731 I-0.319 J0.
G1 X254.507
G3 X254.188 Y144.412 I0. J-0.319
G1 Y127.06
G3 X254.507 Y126.741 I0.319 J0.
G1 X319.159
G3 X319.478 Y127.06 I0. J0.319
G1 Y144.133
G2 X320.267 Y145.387 I1.39 J0.
G3 X319.939 Y146.831 I-0.328 J0.685
G1 X252.407
G3 X252.088 Y146.512 I0. J-0.319
G1 Y124.96
G3 X252.407 Y124.641 I0.319 J0.
G1 X321.259
G3 X321.578 Y124.96 I0. J0.319
G1 Y146.512
G3 X321.259 Y146.831 I-0.319 J0.
G1 X319.939
G2 X318.364 Y147.881 I0. J1.706
G3 X316.789 Y148.931 I-1.575 J-0.656
G1 X250.307
G3 X249.988 Y148.612 I0. J-0.319
G1 Y122.86
G3 X250.307 Y122.541 I0.319 J0.
G1 X323.359
G3 X323.678 Y122.86 I0. J0.319
G1 Y148.612
G3 X323.359 Y148.931 I-0.319 J0.
G1 X316.789
G2 X315.214 Y149.981 I0. J1.706
G3 X313.639 Y151.031 I-1.575 J-0.656
G1 X248.207
G3 X247.888 Y150.712 I0. J-0.319
G1 Y120.76
G3 X248.207 Y120.441 I0.319 J0.
G1 X325.459
G3 X325.778 Y120.76 I0. J0.319
G1 Y150.712
G3 X325.459 Y151.031 I-0.319 J0.
G1 X313.639
G2 X312.064 Y152.081 I0. J1.706
G3 X310.489 Y153.131 I-1.575 J-0.656
G1 X246.107
G3 X245.788 Y152.812 I0. J-0.319
G1 Y118.66
G3 X246.107 Y118.341 I0.319 J0.
G1 X327.559
G3 X327.878 Y118.66 I0. J0.319
G1 Y152.812
G3 X327.559 Y153.131 I-0.319 J0.
G1 X310.489
G2 X308.91 Y154.184 I0. J1.71
G3 X307.331 Y155.236 I-1.579 J-0.658
G1 X243.683
Y116.236
X329.983
Y155.236
X307.331
X307.247 Y155.229 Z-9.987
X307.164 Y155.21 Z-9.973
X307.093 Y155.182 Z-9.934
X307.026 Y155.144 Z-9.895
X306.978 Y155.107 Z-9.834
X306.933 Y155.066 Z-9.773
X306.884 Y155.005 Z-9.62
X306.869 Y154.983 Z-9.45
G0 Z5.
X117.196 Y121.328
G1 Z2.548 F1440.
X117.178 Y121.296 Z2.349
X117.125 Y121.202 Z2.176
X117.048 Y121.06 Z2.055
X116.961 Y120.885 Z2.
G3 X127.978 Y115.587 Z0.32 I5.509 J-2.649
X116.961 Y120.885 Z-1.36 I-5.509 J2.649
X127.978 Y115.587 Z-3.04 I5.509 J-2.649
X116.961 Y120.885 Z-4.72 I-5.509 J2.649
X127.978 Y115.587 Z-6.4 I5.509 J-2.649
X116.961 Y120.885 Z-8.08 I-5.509 J2.649
X127.978 Y115.587 Z-9.76 I5.509 J-2.649
X128.582 Y118.236 Z-10. I-5.509 J2.649
X121.2 I-3.691 J0.
X122. I0.4 J0.
X119. I-1.5 J0.
X124.2 I2.6 J0.
X116.8 I-3.7 J0.
X126.4 I4.8 J0.
X114.6 I-5.9 J0.
X128.6 I7. J0.
X112.4 I-8.1 J0.
X128.6 I8.1 J0.
G1 X128.593 Y118.321 Z-9.987
X128.574 Y118.403 Z-9.973
X128.546 Y118.474 Z-9.934
X128.508 Y118.541 Z-9.895
X128.471 Y118.59 Z-9.834
X128.43 Y118.634 Z-9.773
X128.369 Y118.684 Z-9.62
X128.347 Y118.699 Z-9.45
G0 Z5.
X117.196 Y86.328
G1 Z2.548 F1440.
X117.178 Y86.296 Z2.349
X117.125 Y86.203 Z2.176
X117.048 Y86.06 Z2.055
X116.961 Y85.885 Z2.
G3 X127.978 Y80.587 Z0.32 I5.509 J-2.649
X116.961 Y85.885 Z-1.36 I-5.509 J2.649
X127.978 Y80.587 Z-3.04 I5.509 J-2.649
X116.961 Y85.885 Z-4.72 I-5.509 J2.649
X127.978 Y80.587 Z-6.4 I5.509 J-2.649
X116.961 Y85.885 Z-8.08 I-5.509 J2.649
X127.978 Y80.587 Z-9.76 I5.509 J-2.649
X128.582 Y83.236 Z-10. I-5.509 J2.649
X121.2 I-3.691 J0.
X122. I0.4 J0.
X119. I-1.5 J0.
X124.2 I2.6 J0.
X116.8 I-3.7 J0.
X126.4 I4.8 J0.
X114.6 I-5.9 J0.
X128.6 I7. J0.
X112.4 I-8.1 J0.
X128.6 I8.1 J0.
G1 X128.593 Y83.321 Z-9.987
X128.574 Y83.403 Z-9.973
X128.546 Y83.475 Z-9.934
X128.508 Y83.541 Z-9.895
X128.471 Y83.59 Z-9.834
X128.43 Y83.634 Z-9.773
X128.369 Y83.684 Z-9.62
X128.347 Y83.699 Z-9.45
G0 Z5.
X117.196 Y51.328
G1 Z2.548 F1440.
X117.178 Y51.296 Z2.349
X117.125 Y51.203 Z2.176
X117.048 Y51.06 Z2.055
X116.961 Y50.885 Z2.
G3 X127.978 Y45.587 Z0.32 I5.509 J-2.649
X116.961 Y50.885 Z-1.36 I-5.509 J2.649
X127.978 Y45.587 Z-3.04 I5.509 J-2.649
X116.961 Y50.885 Z-4.72 I-5.509 J2.649
X127.978 Y45.587 Z-6.4 I5.509 J-2.649
X116.961 Y50.885 Z-8.08 I-5.509 J2.649
X127.978 Y45.587 Z-9.76 I5.509 J-2.649
X128.582 Y48.236 Z-10. I-5.509 J2.649
X121.2 I-3.691 J0.
X122. I0.4 J0.
X119. I-1.5 J0.
X124.2 I2.6 J0.
X116.8 I-3.7 J0.
X126.4 I4.8 J0.
X114.6 I-5.9 J0.
X128.6 I7. J0.
X112.4 I-8.1 J0.
X128.6 I8.1 J0.
G1 X128.593 Y48.321 Z-9.987
X128.574 Y48.403 Z-9.973
X128.546 Y48.475 Z-9.934
X128.508 Y48.541 Z-9.895
X128.471 Y48.59 Z-9.834
X128.43 Y48.634 Z-9.773
X128.369 Y48.684 Z-9.62
X128.347 Y48.699 Z-9.45
G0 Z5.
X81.092 Y51.904
G1 Z2.548 F1440.
X81.06 Y51.923 Z2.349
X80.966 Y51.976 Z2.176
X80.824 Y52.053 Z2.055
X80.649 Y52.14 Z2.
G3 X75.351 Y41.123 Z0.32 I-2.649 J-5.509
X80.649 Y52.14 Z-1.36 I2.649 J5.509
X75.351 Y41.123 Z-3.04 I-2.649 J-5.509
X80.649 Y52.14 Z-4.72 I2.649 J5.509
X75.351 Y41.123 Z-6.4 I-2.649 J-5.509
X80.649 Y52.14 Z-8.08 I2.649 J5.509
X75.351 Y41.123 Z-9.76 I-2.649 J-5.509
X78. Y40.519 Z-10. I2.649 J5.509
Y49.681 I0. J4.581
G1 X69.874
G3 X69.555 Y49.362 I0. J-0.319
G1 Y47.11
G3 X69.874 Y46.791 I0.319 J0.
G1 X79.126
G3 X79.445 Y47.11 I0. J0.319
G1 Y49.362
G3 X79.126 Y49.681 I-0.319 J0.
G1 X78.
G2 X76.425 Y50.731 I0. J1.706
G3 X74.85 Y51.781 I-1.575 J-0.656
G1 X67.774
G3 X67.455 Y51.462 I0. J-0.319
G1 Y45.01
G3 X67.774 Y44.691 I0.319 J0.
G1 X81.226
G3 X81.545 Y45.01 I0. J0.319
G1 Y51.462
G3 X81.226 Y51.781 I-0.319 J0.
G1 X74.85
G2 X73.275 Y52.831 I0. J1.706
G3 X71.7 Y53.881 I-1.575 J-0.656
G1 X65.674
G3 X65.355 Y53.562 I0. J-0.319
G1 Y42.91
G3 X65.674 Y42.591 I0.319 J0.
G1 X83.326
G3 X83.645 Y42.91 I0. J0.319
G1 Y53.562
G3 X83.326 Y53.881 I-0.319 J0.
G1 X71.7
G2 X70.121 Y54.934 I0. J1.71
G3 X68.543 Y55.986 I-1.579 J-0.658
G1 X63.25
Y40.486
X85.75
Y55.986
X68.543
X68.458 Y55.98 Z-9.987
X68.375 Y55.96 Z-9.973
X68.304 Y55.932 Z-9.934
X68.238 Y55.894 Z-9.895
X68.189 Y55.857 Z-9.834
X68.145 Y55.816 Z-9.773
X68.095 Y55.756 Z-9.62
X68.08 Y55.733 Z-9.45
G0 Z5.
X68.06 Y84.328
G1 Z2.548 F1440.
X68.041 Y84.296 Z2.349
X67.988 Y84.203 Z2.176
X67.911 Y84.06 Z2.055
X67.824 Y83.885 Z2.
G3 X78.841 Y78.587 Z0.32 I5.509 J-2.649
X67.824 Y83.885 Z-1.36 I-5.509 J2.649
X78.841 Y78.587 Z-3.04 I5.509 J-2.649
X67.824 Y83.885 Z-4.72 I-5.509 J2.649
X78.841 Y78.587 Z-6.4 I5.509 J-2.649
X67.824 Y83.885 Z-8.08 I-5.509 J2.649
X78.841 Y78.587 Z-9.76 I5.509 J-2.649
X79.445 Y81.236 Z-10. I-5.509 J2.649
G1 Y82.362
G3 X79.126 Y82.681 I-0.319 J0.
G1 X69.874
G3 X69.555 Y82.362 I0. J-0.319
G1 Y80.11
G3 X69.874 Y79.791 I0.319 J0.
G1 X79.126
G3 X79.445 Y80.11 I0. J0.319
G1 Y81.236
G2 X80.495 Y82.811 I1.706 J0.
G3 X81.545 Y84.386 I-0.656 J1.575
G1 Y84.462
G3 X81.226 Y84.781 I-0.319 J0.
G1 X67.774
G3 X67.455 Y84.462 I0. J-0.319
G1 Y78.01
G3 X67.774 Y77.691 I0.319 J0.
G1 X81.226
G3 X81.545 Y78.01 I0. J0.319
G1 Y84.386
G2 X82.191 Y85.58 I1.427 J0.
G3 X81.803 Y86.881 I-0.388 J0.593
G1 X65.674
G3 X65.355 Y86.562 I0. J-0.319
G1 Y75.91
G3 X65.674 Y75.591 I0.319 J0.
G1 X83.326
G3 X83.645 Y75.91 I0. J0.319
G1 Y86.562
G3 X83.326 Y86.881 I-0.319 J0.
G1 X81.803
G2 X80.224 Y87.934 I0. J1.71
G3 X78.645 Y88.986 I-1.579 J-0.658
G1 X63.25
Y73.486
X85.75
Y88.986
X78.645
X78.561 Y88.98 Z-9.987
X78.478 Y88.96 Z-9.973
X78.407 Y88.932 Z-9.934
X78.34 Y88.894 Z-9.895
X78.292 Y88.857 Z-9.834
X78.247 Y88.816 Z-9.773
X78.198 Y88.756 Z-9.62
X78.183 Y88.733 Z-9.45
G0 Z5.
X68.06 Y121.328
G1 Z2.548 F1440.
X68.041 Y121.296 Z2.349
X67.988 Y121.202 Z2.176
X67.911 Y121.06 Z2.055
X67.824 Y120.885 Z2.
G3 X78.841 Y115.587 Z0.32 I5.509 J-2.649
X67.824 Y120.885 Z-1.36 I-5.509 J2.649
X78.841 Y115.587 Z-3.04 I5.509 J-2.649
X67.824 Y120.885 Z-4.72 I-5.509 J2.649
X78.841 Y115.587 Z-6.4 I5.509 J-2.649
X67.824 Y120.885 Z-8.08 I-5.509 J2.649
X78.841 Y115.587 Z-9.76 I5.509 J-2.649
X79.445 Y118.236 Z-10. I-5.509 J2.649
G1 Y119.362
G3 X79.126 Y119.681 I-0.319 J0.
G1 X69.874
G3 X69.555 Y119.362 I0. J-0.319
G1 Y117.11
G3 X69.874 Y116.791 I0.319 J0.
G1 X79.126
G3 X79.445 Y117.11 I0. J0.319
G1 Y118.236
G2 X80.495 Y119.811 I1.706 J0.
G3 X81.545 Y121.386 I-0.656 J1.575
G1 Y121.462
G3 X81.226 Y121.781 I-0.319 J0.
G1 X67.774
G3 X67.455 Y121.462 I0. J-0.319
G1 Y115.01
G3 X67.774 Y114.691 I0.319 J0.
G1 X81.226
G3 X81.545 Y115.01 I0. J0.319
G1 Y121.386
G2 X82.191 Y122.58 I1.427 J0.
G3 X81.803 Y123.881 I-0.388 J0.593
G1 X65.674
G3 X65.355 Y123.562 I0. J-0.319
G1 Y112.91
G3 X65.674 Y112.591 I0.319 J0.
G1 X83.326
G3 X83.645 Y112.91 I0. J0.319
G1 Y123.562
G3 X83.326 Y123.881 I-0.319 J0.
G1 X81.803
G2 X80.224 Y124.934 I0. J1.71
G3 X78.645 Y125.986 I-1.579 J-0.658
G1 X63.25
Y110.486
X85.75
Y125.986
X78.645
X78.561 Y125.979 Z-9.987
X78.478 Y125.96 Z-9.973
X78.407 Y125.932 Z-9.934
X78.34 Y125.894 Z-9.895
X78.292 Y125.857 Z-9.834
X78.247 Y125.816 Z-9.773
X78.198 Y125.755 Z-9.62
X78.183 Y125.733 Z-9.45
G0 Z5.
X67.908 Y149.568
G1 Z2.548 F1440.
X67.94 Y149.549 Z2.349
X68.034 Y149.496 Z2.176
X68.176 Y149.419 Z2.055
X68.351 Y149.332 Z2.
G3 X73.649 Y160.349 Z0.32 I2.649 J5.509
X68.351 Y149.332 Z-1.36 I-2.649 J-5.509
X73.649 Y160.349 Z-3.04 I2.649 J5.509
X68.351 Y149.332 Z-4.72 I-2.649 J-5.509
X73.649 Y160.349 Z-6.4 I2.649 J5.509
X68.351 Y149.332 Z-8.08 I-2.649 J-5.509
X73.649 Y160.349 Z-9.76 I2.649 J5.509
X71. Y160.953 Z-10. I-2.649 J-5.509
Y151.791 I0. J-4.581
G1 X79.126
G3 X79.445 Y152.11 I0. J0.319
G1 Y154.362
G3 X79.126 Y154.681 I-0.319 J0.
G1 X69.874
G3 X69.555 Y154.362 I0. J-0.319
G1 Y152.11
G3 X69.874 Y151.791 I0.319 J0.
G1 X71.
G2 X72.575 Y150.741 I0. J-1.706
G3 X74.15 Y149.691 I1.575 J0.656
G1 X81.226
G3 X81.545 Y150.01 I0. J0.319
G1 Y156.462
G3 X81.226 Y156.781 I-0.319 J0.
G1 X67.774
G3 X67.455 Y156.462 I0. J-0.319
G1 Y150.01
G3 X67.774 Y149.691 I0.319 J0.
G1 X74.15
G2 X75.725 Y148.641 I0. J-1.706
G3 X77.3 Y147.591 I1.575 J0.656
G1 X83.326
G3 X83.645 Y147.91 I0. J0.319
G1 Y158.562
G3 X83.326 Y158.881 I-0.319 J0.
G1 X65.674
G3 X65.355 Y158.562 I0. J-0.319
G1 Y147.91
G3 X65.674 Y147.591 I0.319 J0.
G1 X77.3
G2 X78.879 Y146.538 I0. J-1.71
G3 X80.457 Y145.486 I1.579 J0.658
G1 X85.75
Y160.986
X63.25
Y145.486
X80.457
X80.542 Y145.493 Z-9.987
X80.625 Y145.512 Z-9.973
X80.696 Y145.54 Z-9.934
X80.762 Y145.578 Z-9.895
X80.811 Y145.615 Z-9.834
X80.855 Y145.656 Z-9.773
X80.905 Y145.717 Z-9.62
X80.92 Y145.739 Z-9.45
G0 Z15.

M9
M30
