(1001)
(T4  D=10. CR=0. - ZMIN=-12. - FLAT END MILL)
G90 G94 G91.1 G40 G49 G17
G21

(2D ADAPTIVE2)
M5
T4 M6
S9700 M3
G54
M8
G0 X-6.007 Y1.089
G43 Z15. H4
Z5.
Z-2.
G1 Z-3. F2328.
X-6.013 Y1.093 Z-3.121
X-6.031 Y1.105 Z-3.239
X-6.06 Y1.126 Z-3.355
X-6.101 Y1.154 Z-3.465
X-6.153 Y1.189 Z-3.568
X-6.214 Y1.231 Z-3.663
X-6.285 Y1.279 Z-3.749
X-6.363 Y1.333 Z-3.823
X-6.448 Y1.391 Z-3.885
X-6.539 Y1.453 Z-3.935
X-6.634 Y1.518 Z-3.971
X-6.732 Y1.585 Z-3.993
X-6.832 Y1.653 Z-4.
G3 X-11.68 Y4.251 I-14.411 J-21.073
G1 X-11.79 Y4.291
X-11.93 Y4.238
X-12.058 Y4.16
X-12.18 Y4.072
X-12.312 Y3.963
X-12.462 Y3.826
X-12.566 Y3.719
X-12.686 Y3.582
X-12.822 Y3.408
X-12.974 Y3.189
X-13.143 Y2.915
X-13.308 Y2.613
X-13.429 Y2.359
X-13.557 Y2.045
X-13.693 Y1.655
X-13.833 Y1.168
X-13.927 Y0.755
X-14.001 Y0.326
X-14.062 Y-0.208
X-14.103 Y-0.884
X-14.106 Y-1.351
X-14.078 Y-1.921
X-14.002 Y-2.641
X-13.902 Y-3.265
X-13.774 Y-3.858
X-13.568 Y-4.607
X-13.344 Y-5.275
X-13.105 Y-5.875
X-12.755 Y-6.633
X-12.423 Y-7.259
X-12.067 Y-7.85
X-11.56 Y-8.595
X-11.159 Y-9.121
X-10.679 Y-9.682
X-10.032 Y-10.36
X-9.582 Y-10.784
X-8.975 Y-11.294
X-8.27 Y-11.824
X-7.723 Y-12.19
X-6.988 Y-12.626
X-6.278 Y-12.996
X-5.636 Y-13.286
X-4.776 Y-13.621
X-4.114 Y-13.837
X-3.385 Y-14.032
X-2.454 Y-14.226
X-1.831 Y-14.321
X-1.025 Y-14.4
X-0.149 Y-14.436
X0.524 Y-14.428
X1.395 Y-14.368
X2.171 Y-14.273
X2.879 Y-14.146
X3.798 Y-13.928
X4.438 Y-13.739
X5.164 Y-13.481
X6.026 Y-13.12
X6.604 Y-12.84
X7.328 Y-12.439
X8.049 Y-11.985
X8.609 Y-11.589
X9.31 Y-11.034
X9.871 Y-10.536
X10.393 Y-10.019
X11.043 Y-9.302
X11.439 Y-8.812
X11.9 Y-8.175
X12.394 Y-7.407
X12.717 Y-6.838
X13.094 Y-6.079
X13.421 Y-5.322
X13.662 Y-4.665
X13.93 Y-3.79
X14.102 Y-3.094
X14.242 Y-2.359
X14.37 Y-1.405
X14.419 Y-0.781
X14.437 Y0.023
X14.409 Y0.911
X14.352 Y1.576
X14.23 Y2.434
X14.075 Y3.213
X13.898 Y3.905
X13.616 Y4.798
X13.376 Y5.436
X13.068 Y6.136
X12.642 Y6.975
X12.322 Y7.527
X11.872 Y8.215
X11.361 Y8.909
X10.928 Y9.435
X10.328 Y10.087
X9.782 Y10.619
X9.233 Y11.098
X8.475 Y11.688
X7.947 Y12.056
X7.282 Y12.466
X6.474 Y12.905
X5.887 Y13.184
X5.108 Y13.503
X4.32 Y13.776
X3.652 Y13.967
X2.767 Y14.169
X2.049 Y14.292
X1.31 Y14.377
X0.344 Y14.434
X-0.279 Y14.437
X-1.076 Y14.397
X-1.968 Y14.304
X-2.623 Y14.198
X-3.463 Y14.015
X-4.239 Y13.801
X-4.911 Y13.575
X-5.775 Y13.232
X-6.404 Y12.94
X-7.075 Y12.584
X-7.887 Y12.094
X-8.411 Y11.737
X-9.059 Y11.241
X-9.721 Y10.675
X-10.21 Y10.208
X-10.812 Y9.566
X-11.549 Y8.689
X-12.282 Y7.808
X-13.009 Y6.922
X-13.6 Y6.139
X-14.051 Y5.468
X-14.428 Y4.836
X-14.75 Y4.22
X-15.028 Y3.612
X-15.269 Y2.994
X-15.483 Y2.345
X-15.656 Y1.704
X-15.793 Y1.052
X-15.9 Y0.366
X-15.969 Y-0.333
X-16. Y-1.036
X-15.992 Y-1.771
X-15.943 Y-2.517
X-15.853 Y-3.261
X-15.719 Y-4.016
X-15.539 Y-4.783
X-15.316 Y-5.545
X-15.052 Y-6.294
X-14.729 Y-7.07
X-14.37 Y-7.813
X-13.969 Y-8.54
X-13.505 Y-9.283
X-13.018 Y-9.974
X-12.487 Y-10.646
X-11.901 Y-11.31
X-11.297 Y-11.924
X-10.643 Y-12.518
X-9.954 Y-13.079
X-9.248 Y-13.592
X-8.485 Y-14.084
X-7.716 Y-14.523
X-6.928 Y-14.918
X-6.084 Y-15.284
X-5.257 Y-15.59
X-4.406 Y-15.852
X-3.523 Y-16.073
X-2.655 Y-16.24
X-1.758 Y-16.362
X-0.859 Y-16.434
X0.028 Y-16.457
X0.95 Y-16.43
X1.839 Y-16.355
X2.72 Y-16.231
X3.626 Y-16.054
X4.485 Y-15.836
X5.342 Y-15.568
X6.196 Y-15.248
X7.008 Y-14.892
X7.823 Y-14.481
X8.604 Y-14.031
X9.349 Y-13.546
X10.099 Y-12.996
X10.787 Y-12.432
X11.444 Y-11.83
X12.086 Y-11.173
X12.671 Y-10.506
X13.227 Y-9.796
X13.747 Y-9.051
X14.215 Y-8.297
X14.655 Y-7.492
X15.042 Y-6.681
X15.381 Y-5.858
X15.687 Y-4.981
X15.934 Y-4.128
X16.134 Y-3.257
X16.29 Y-2.354
X16.394 Y-1.473
X16.45 Y-0.569
X16.456 Y0.337
X16.413 Y1.225
X16.319 Y2.143
X16.179 Y3.026
X15.991 Y3.897
X15.747 Y4.789
X15.466 Y5.631
X15.136 Y6.465
X14.755 Y7.295
X14.34 Y8.079
X13.871 Y8.86
X13.364 Y9.607
X12.826 Y10.315
X12.224 Y11.021
X11.61 Y11.667
X10.962 Y12.278
X10.258 Y12.872
X9.55 Y13.406
X8.802 Y13.908
X8.02 Y14.374
X7.233 Y14.785
X6.399 Y15.164
X5.562 Y15.491
X4.716 Y15.769
X3.818 Y16.01
X2.949 Y16.193
X2.067 Y16.329
X1.154 Y16.419
X0.268 Y16.458
X-0.637 Y16.447
X-1.542 Y16.387
X-2.423 Y16.28
X-3.33 Y16.119
X-4.202 Y15.914
X-5.057 Y15.663
X-5.93 Y15.354
X-6.749 Y15.012
X-7.556 Y14.623
X-8.356 Y14.18
X-9.108 Y13.71
X-9.851 Y13.185
X-10.646 Y12.557
X-11.504 Y11.798
X-12.327 Y11.001
X-13.121 Y10.174
X-13.881 Y9.317
X-14.601 Y8.425
X-15.202 Y7.592
X-15.717 Y6.789
X-16.171 Y5.989
X-16.565 Y5.194
X-16.906 Y4.4
X-17.199 Y3.602
X-17.445 Y2.797
X-17.645 Y1.985
X-17.8 Y1.162
X-17.911 Y0.328
X-17.976 Y-0.515
X-17.995 Y-1.367
X-17.967 Y-2.229
X-17.891 Y-3.096
X-17.767 Y-3.966
X-17.592 Y-4.843
X-17.367 Y-5.718
X-17.092 Y-6.587
X-16.764 Y-7.456
X-16.386 Y-8.31
X-15.959 Y-9.15
X-15.48 Y-9.975
X-14.955 Y-10.776
X-14.381 Y-11.554
X-13.761 Y-12.305
X-13.099 Y-13.023
X-12.392 Y-13.71
X-11.646 Y-14.36
X-10.865 Y-14.968
X-10.044 Y-15.538
X-9.194 Y-16.061
X-8.315 Y-16.538
X-7.407 Y-16.968
X-6.478 Y-17.347
X-5.527 Y-17.676
X-4.557 Y-17.952
X-3.575 Y-18.175
X-2.576 Y-18.345
X-1.571 Y-18.459
X-0.563 Y-18.519
X0.452 Y-18.523
X1.463 Y-18.471
X2.469 Y-18.364
X3.471 Y-18.202
X4.459 Y-17.986
X5.437 Y-17.715
X6.399 Y-17.391
X7.339 Y-17.016
X8.263 Y-16.587
X9.16 Y-16.109
X10.027 Y-15.585
X10.867 Y-15.011
X11.672 Y-14.395
X12.442 Y-13.735
X13.176 Y-13.033
X13.868 Y-12.293
X14.521 Y-11.514
X15.13 Y-10.701
X15.692 Y-9.859
X16.211 Y-8.981
X16.678 Y-8.079
X17.095 Y-7.155
X17.462 Y-6.206
X17.776 Y-5.242
X18.036 Y-4.261
X18.242 Y-3.267
X18.394 Y-2.265
X18.49 Y-1.252
X18.531 Y-0.237
X18.516 Y0.777
X18.445 Y1.793
X18.32 Y2.8
X18.139 Y3.798
X17.903 Y4.787
X17.615 Y5.759
X17.273 Y6.715
X16.879 Y7.652
X16.436 Y8.563
X15.94 Y9.453
X15.398 Y10.313
X14.811 Y11.139
X14.177 Y11.936
X13.503 Y12.694
X12.788 Y13.413
X12.034 Y14.094
X11.245 Y14.731
X10.421 Y15.325
X9.565 Y15.873
X8.684 Y16.372
X7.77 Y16.825
X6.836 Y17.225
X5.884 Y17.574
X4.911 Y17.87
X3.926 Y18.112
X2.929 Y18.3
X1.922 Y18.433
X0.912 Y18.51
X-0.105 Y18.532
X-1.121 Y18.499
X-2.13 Y18.41
X-3.139 Y18.265
X-4.134 Y18.065
X-5.116 Y17.812
X-6.086 Y17.505
X-7.033 Y17.146
X-7.962 Y16.735
X-8.885 Y16.264
X-9.799 Y15.733
X-10.757 Y15.104
X-11.679 Y14.424
X-12.566 Y13.699
X-13.421 Y12.936
X-14.241 Y12.135
X-15.024 Y11.298
X-15.766 Y10.426
X-16.463 Y9.516
X-17.096 Y8.592
X-17.651 Y7.679
X-18.139 Y6.766
X-18.567 Y5.847
X-18.939 Y4.919
X-19.257 Y3.981
X-19.521 Y3.034
X-19.731 Y2.078
X-19.889 Y1.113
X-19.939 Y0.653
X-19.949 Y0.535
X-19.956 Y0.418
X-19.958 Y0.3
X-19.957 Y-0.899
X-19.933 Y-1.199
X-19.882 Y-1.798
X-19.848 Y-2.098
X-19.778 Y-2.697
X-19.653 Y-3.597
X-19.587 Y-3.896
X-19.232 Y-5.395
X-19.18 Y-5.58
X-19.057 Y-5.994
X-18.62 Y-7.193
X-18.581 Y-7.299
X-18.259 Y-8.092
X-18.119 Y-8.392
X-17.366 Y-9.891
X-17.223 Y-10.19
X-17.086 Y-10.49
X-16.56 Y-11.508
X-16.209 Y-12.119
X-15.786 Y-12.77
X-15.291 Y-13.447
X-14.727 Y-14.136
X-14.111 Y-14.81
X-13.439 Y-15.468
X-12.7 Y-16.117
X-11.902 Y-16.743
X-11.05 Y-17.34
X-10.15 Y-17.899
X-9.207 Y-18.415
X-8.227 Y-18.884
X-7.215 Y-19.302
X-6.174 Y-19.667
X-5.109 Y-19.975
X-4.024 Y-20.226
X-2.924 Y-20.418
X-1.811 Y-20.549
X-0.692 Y-20.619
X0.432 Y-20.628
X1.555 Y-20.575
X2.675 Y-20.461
X3.789 Y-20.286
X4.891 Y-20.049
X5.98 Y-19.752
X7.052 Y-19.396
X8.102 Y-18.982
X9.13 Y-18.51
X10.129 Y-17.983
X11.098 Y-17.402
X12.034 Y-16.769
X12.934 Y-16.085
X13.795 Y-15.353
X14.615 Y-14.575
X15.391 Y-13.753
X16.121 Y-12.889
X16.161 Y-12.837
X16.378 Y-12.511
X16.555 Y-12.16
X16.69 Y-11.792
X16.78 Y-11.41
X16.783 Y-11.389
X16.959 Y-10.79
X17.086 Y-10.49
X17.223 Y-10.19
X17.366 Y-9.891
X18.119 Y-8.392
X18.259 Y-8.092
X18.581 Y-7.299
X18.62 Y-7.193
X19.057 Y-5.994
X19.18 Y-5.58
X19.232 Y-5.395
X19.587 Y-3.896
X19.653 Y-3.597
X19.778 Y-2.697
X19.848 Y-2.098
X19.882 Y-1.798
X19.933 Y-1.199
X19.957 Y-0.899
X19.958 Y0.599
X19.957 Y0.899
X19.933 Y1.199
X19.882 Y1.798
X19.848 Y2.098
X19.778 Y2.697
X19.653 Y3.597
X19.587 Y3.896
X19.232 Y5.395
X19.18 Y5.58
X19.057 Y5.994
X18.62 Y7.193
X18.581 Y7.299
X18.259 Y8.092
X18.119 Y8.392
X17.366 Y9.891
X17.223 Y10.19
X17.083 Y10.498
X16.959 Y10.79
X16.901 Y10.928
X16.623 Y11.489
X16.273 Y12.108
X15.877 Y12.726
X15.414 Y13.368
X14.874 Y14.037
X14.26 Y14.717
X13.583 Y15.39
X12.855 Y16.037
X12.073 Y16.66
X11.229 Y17.259
X10.333 Y17.824
X9.392 Y18.348
X8.41 Y18.826
X7.395 Y19.253
X6.351 Y19.626
X5.283 Y19.943
X4.196 Y20.202
X3.092 Y20.402
X1.976 Y20.541
X0.853 Y20.619
X-0.274 Y20.636
X-1.402 Y20.59
X-2.526 Y20.483
X-3.643 Y20.315
X-4.749 Y20.085
X-5.841 Y19.796
X-6.921 Y19.445
X-7.989 Y19.032
X-9.033 Y18.56
X-10.051 Y18.034
X-11.041 Y17.456
X-12.001 Y16.831
X-12.93 Y16.161
X-13.829 Y15.45
X-14.695 Y14.7
X-15.528 Y13.912
X-15.826 Y13.603
X-16.096 Y13.287
X-16.323 Y12.939
X-16.505 Y12.565
X-16.638 Y12.172
X-16.721 Y11.765
X-16.731 Y11.689
X-16.783 Y11.389
X-16.959 Y10.79
X-17.086 Y10.49
X-17.223 Y10.19
X-17.366 Y9.891
X-18.119 Y8.392
X-18.259 Y8.092
X-18.581 Y7.299
X-18.62 Y7.193
X-19.057 Y5.994
X-19.18 Y5.58
X-19.232 Y5.395
X-19.587 Y3.896
X-19.653 Y3.597
X-19.778 Y2.697
X-19.848 Y2.098
X-19.882 Y1.798
X-19.933 Y1.199
X-19.957 Y0.899
X-19.958 Y0.3
G3 X-19.704 Y-0.258 I0.8 J0.028
G2 X-17.727 Y-2.881 I-6.451 J-6.918
G1 X-17.684 Y-2.977
X-17.652 Y-3.077
X-16.741 Y-6.483
X-16.719 Y-6.585
X-16.708 Y-6.69
G2 X-17.112 Y-9.95 I-9.447 J-0.486
G3 X-17.086 Y-10.49 I0.765 J-0.235
G1 X-16.959 Y-10.79
X-16.783 Y-11.391
X-16.731 Y-11.689
X-16.69 Y-11.989
X-16.665 Y-12.289
Y-12.338
X-16.657 Y-12.515
X-16.636 Y-12.734
X-16.601 Y-12.96
X-16.546 Y-13.221
X-16.467 Y-13.516
X-16.367 Y-13.822
X-16.227 Y-14.181
X-16.063 Y-14.54
X-15.844 Y-14.961
X-15.597 Y-15.377
X-15.277 Y-15.854
X-14.918 Y-16.33
X-14.486 Y-16.843
X-13.97 Y-17.39
X-13.415 Y-17.919
X-12.769 Y-18.469
X-12.036 Y-19.028
X-11.223 Y-19.579
X-10.358 Y-20.1
X-9.439 Y-20.586
X-8.451 Y-21.041
X-7.404 Y-21.456
X-6.317 Y-21.819
X-5.212 Y-22.122
X-4.092 Y-22.366
X-2.962 Y-22.552
X-1.823 Y-22.678
X-0.679 Y-22.746
X0.467 Y-22.756
X1.612 Y-22.707
X2.753 Y-22.601
X3.887 Y-22.436
X5.011 Y-22.213
X6.122 Y-21.934
X7.218 Y-21.598
X8.295 Y-21.207
X9.351 Y-20.763
X10.384 Y-20.266
X11.39 Y-19.718
X12.368 Y-19.121
X13.315 Y-18.475
X14.228 Y-17.783
X15.105 Y-17.046
X15.807 Y-16.393
X15.882 Y-16.315
X16.164 Y-15.98
X16.4 Y-15.61
X16.584 Y-15.213
X16.714 Y-14.794
X16.787 Y-14.362
X16.803 Y-13.924
X16.76 Y-13.487
X16.734 Y-13.323
G3 X15.788 Y-12.509 I-0.983 J-0.186
G1 X-15.63 Y-11.381
G3 X-16.665 Y-12.338 I-0.036 J-0.999
G1 X-16.669 Y-12.888
X-16.714 Y-13.188
X-16.76 Y-13.487
X-16.783 Y-13.626
X-16.791 Y-13.653
X-16.828 Y-13.798
X-16.854 Y-13.946
X-16.871 Y-14.105
X-16.881 Y-14.283
X-16.882 Y-14.484
X-16.87 Y-14.7
X-16.844 Y-14.943
X-16.802 Y-15.202
X-16.738 Y-15.491
X-16.653 Y-15.796
X-16.538 Y-16.134
X-16.395 Y-16.491
X-16.218 Y-16.87
X-15.996 Y-17.285
X-15.743 Y-17.702
X-15.422 Y-18.17
X-15.065 Y-18.634
X-14.638 Y-19.13
X-14.131 Y-19.658
X-13.585 Y-20.168
X-12.957 Y-20.693
X-12.237 Y-21.23
X-11.432 Y-21.765
X-10.58 Y-22.265
X-9.653 Y-22.744
X-8.644 Y-23.197
X-7.574 Y-23.609
X-6.484 Y-23.961
X-5.377 Y-24.257
X-4.256 Y-24.496
X-3.125 Y-24.68
X-1.987 Y-24.809
X-0.843 Y-24.884
X0.302 Y-24.905
X1.448 Y-24.871
X2.59 Y-24.783
X3.727 Y-24.64
X4.856 Y-24.444
X5.975 Y-24.196
X7.081 Y-23.896
X8.172 Y-23.545
X9.246 Y-23.145
X10.3 Y-22.696
X11.333 Y-22.2
X12.342 Y-21.657
X13.325 Y-21.069
X14.28 Y-20.435
X15.083 Y-19.847
X15.627 Y-19.4
X16.072 Y-18.992
X16.438 Y-18.618
X16.734 Y-18.28
X17.011 Y-17.926
X17.246 Y-17.528
X17.417 Y-17.1
X17.522 Y-16.65
X17.557 Y-16.189
X17.523 Y-15.729
X17.418 Y-15.279
X17.247 Y-14.85
G3 X16.407 Y-14.323 I-0.882 J-0.472
G1 X-15.805 Y-12.983
G3 X-16.791 Y-13.653 I-0.042 J-0.999
G1 X-16.926 Y-14.087
X-17.026 Y-14.387
X-17.166 Y-14.686
X-17.211 Y-14.777
X-17.27 Y-14.915
X-17.32 Y-15.056
X-17.362 Y-15.2
X-17.398 Y-15.363
X-17.427 Y-15.533
X-17.45 Y-15.732
X-17.462 Y-15.941
Y-16.173
X-17.449 Y-16.426
X-17.42 Y-16.698
X-17.371 Y-16.999
X-17.303 Y-17.307
X-17.206 Y-17.656
X-17.087 Y-18.008
X-16.93 Y-18.398
X-16.74 Y-18.808
X-16.515 Y-19.229
X-16.234 Y-19.691
X-15.918 Y-20.153
X-15.544 Y-20.641
X-15.094 Y-21.164
X-14.603 Y-21.676
X-14.041 Y-22.201
X-13.392 Y-22.744
X-12.658 Y-23.293
X-11.881 Y-23.81
X-11.015 Y-24.32
X-10.058 Y-24.815
X-9.021 Y-25.281
X-7.951 Y-25.693
X-6.862 Y-26.049
X-5.756 Y-26.349
X-4.638 Y-26.597
X-3.508 Y-26.791
X-2.371 Y-26.934
X-1.229 Y-27.026
X-0.084 Y-27.065
X1.062 Y-27.052
X2.206 Y-26.989
X3.346 Y-26.875
X4.481 Y-26.713
X5.607 Y-26.501
X6.723 Y-26.242
X7.827 Y-25.936
X8.918 Y-25.583
X9.992 Y-25.185
X11.049 Y-24.742
X12.086 Y-24.255
X13.102 Y-23.724
X14.093 Y-23.15
X14.996 Y-22.564
X15.741 Y-22.021
X16.35 Y-21.523
X16.813 Y-21.101
X17.17 Y-20.738
X17.497 Y-20.365
X17.75 Y-20.044
X17.993 Y-19.698
X18.183 Y-19.394
X18.363 Y-19.065
X18.507 Y-18.765
X18.515 Y-18.747
X18.649 Y-18.328
X18.712 Y-17.892
X18.702 Y-17.453
X18.62 Y-17.02
X18.468 Y-16.608
X18.25 Y-16.226
X17.971 Y-15.885
X17.835 Y-15.72
G3 X17.121 Y-15.384 I-0.749 J-0.663
G1 X-16.295 Y-14.249
G3 X-17.211 Y-14.777 I-0.034 J-0.999
G1 X-17.314 Y-14.986
X-17.382 Y-15.099
X-17.505 Y-15.286
X-17.682 Y-15.532
X-17.724 Y-15.585
X-17.814 Y-15.706
X-17.899 Y-15.829
X-17.975 Y-15.958
X-18.042 Y-16.093
X-18.101 Y-16.231
X-18.152 Y-16.372
X-18.197 Y-16.515
X-18.234 Y-16.66
X-18.266 Y-16.807
X-18.291 Y-16.955
X-18.311 Y-17.103
X-18.325 Y-17.253
X-18.334 Y-17.402
X-18.339 Y-17.552
X-18.338 Y-17.702
X-18.334 Y-17.852
X-18.324 Y-18.002
X-18.311 Y-18.151
X-18.294 Y-18.3
X-18.273 Y-18.449
X-18.248 Y-18.597
X-18.22 Y-18.744
X-18.188 Y-18.891
X-18.153 Y-19.036
X-18.115 Y-19.182
X-18.074 Y-19.326
X-18.029 Y-19.469
X-17.982 Y-19.611
X-17.932 Y-19.753
X-17.88 Y-19.893
X-17.825 Y-20.033
X-17.767 Y-20.171
X-17.707 Y-20.309
X-17.645 Y-20.445
X-17.58 Y-20.581
X-17.513 Y-20.715
X-17.444 Y-20.848
X-17.373 Y-20.98
X-17.3 Y-21.111
X-17.225 Y-21.241
X-17.148 Y-21.37
X-17.069 Y-21.497
X-16.988 Y-21.624
X-16.906 Y-21.749
X-16.822 Y-21.873
X-16.736 Y-21.996
X-16.648 Y-22.118
X-16.559 Y-22.239
X-16.469 Y-22.358
X-16.377 Y-22.477
X-16.283 Y-22.594
X-16.189 Y-22.711
X-16.092 Y-22.826
X-15.995 Y-22.939
X-15.896 Y-23.052
X-15.795 Y-23.164
X-15.694 Y-23.274
X-15.592 Y-23.384
X-15.488 Y-23.492
X-15.383 Y-23.599
X-15.277 Y-23.705
X-15.169 Y-23.81
X-15.061 Y-23.914
X-14.952 Y-24.017
X-14.841 Y-24.118
X-14.73 Y-24.219
X-14.618 Y-24.318
X-14.504 Y-24.416
X-14.39 Y-24.513
X-14.275 Y-24.609
X-14.159 Y-24.704
X-14.042 Y-24.799
X-13.924 Y-24.891
X-13.805 Y-24.983
X-13.686 Y-25.074
X-13.566 Y-25.163
X-13.445 Y-25.252
X-13.323 Y-25.34
X-13.2 Y-25.426
X-13.077 Y-25.512
X-12.953 Y-25.596
X-12.829 Y-25.68
X-12.703 Y-25.762
X-12.577 Y-25.843
X-12.45 Y-25.923
X-12.323 Y-26.003
X-12.195 Y-26.081
X-12.067 Y-26.159
X-11.937 Y-26.235
X-11.808 Y-26.31
X-11.677 Y-26.384
X-11.546 Y-26.458
X-11.415 Y-26.53
X-11.283 Y-26.601
X-11.017 Y-26.741
X-10.884 Y-26.809
X-10.75 Y-26.877
X-10.615 Y-26.943
X-10.48 Y-27.008
X-10.345 Y-27.073
X-10.073 Y-27.199
X-9.936 Y-27.26
X-9.799 Y-27.321
X-9.661 Y-27.381
X-9.523 Y-27.44
X-9.385 Y-27.497
X-9.107 Y-27.61
X-8.827 Y-27.719
X-8.687 Y-27.772
X-8.547 Y-27.825
X-8.406 Y-27.876
X-8.123 Y-27.976
X-7.839 Y-28.072
X-7.553 Y-28.165
X-7.41 Y-28.21
X-7.123 Y-28.297
X-6.835 Y-28.381
X-6.546 Y-28.461
X-6.256 Y-28.538
X-5.965 Y-28.611
X-5.673 Y-28.681
X-5.381 Y-28.747
X-5.087 Y-28.81
X-4.793 Y-28.869
X-4.498 Y-28.925
X-4.203 Y-28.977
X-3.907 Y-29.026
X-3.611 Y-29.072
X-3.314 Y-29.114
X-3.016 Y-29.153
X-2.718 Y-29.188
X-2.42 Y-29.221
X-2.121 Y-29.249
X-1.822 Y-29.274
X-1.523 Y-29.296
X-1.223 Y-29.315
X-0.924 Y-29.33
X-0.624 Y-29.342
X-0.32 Y-29.351
X-0.021 Y-29.357
X0.279 Y-29.359
X0.579 Y-29.358
X0.884 Y-29.353
X1.184 Y-29.346
X1.484 Y-29.335
X1.783 Y-29.32
X2.091 Y-29.303
X2.39 Y-29.282
X2.689 Y-29.258
X2.988 Y-29.231
X3.299 Y-29.2
X3.597 Y-29.166
X3.895 Y-29.13
X4.192 Y-29.09
X4.505 Y-29.045
X4.802 Y-28.999
X5.098 Y-28.949
X5.393 Y-28.897
X5.706 Y-28.838
X6. Y-28.78
X6.294 Y-28.718
X6.586 Y-28.653
X6.897 Y-28.581
X7.189 Y-28.51
X7.479 Y-28.436
X7.769 Y-28.359
X8.077 Y-28.274
X8.369 Y-28.19
X8.656 Y-28.104
X8.942 Y-28.015
X9.245 Y-27.917
X9.537 Y-27.82
X9.821 Y-27.722
X10.103 Y-27.621
X10.4 Y-27.512
X10.69 Y-27.401
X10.969 Y-27.292
X11.247 Y-27.179
X11.536 Y-27.058
X11.822 Y-26.935
X12.097 Y-26.813
X12.37 Y-26.689
X12.642 Y-26.561
X12.915 Y-26.429
X13.184 Y-26.296
X13.451 Y-26.159
X13.716 Y-26.019
X13.98 Y-25.876
X14.111 Y-25.804
X14.372 Y-25.656
X14.631 Y-25.504
X14.76 Y-25.427
X14.888 Y-25.35
X15.016 Y-25.271
X15.143 Y-25.191
X15.27 Y-25.111
X15.396 Y-25.029
X15.521 Y-24.947
X15.646 Y-24.863
X15.77 Y-24.779
X15.893 Y-24.694
X16.016 Y-24.607
X16.137 Y-24.52
X16.258 Y-24.431
X16.379 Y-24.342
X16.498 Y-24.251
X16.617 Y-24.159
X16.735 Y-24.066
X16.852 Y-23.972
X16.968 Y-23.877
X17.083 Y-23.781
X17.196 Y-23.683
X17.309 Y-23.585
X17.421 Y-23.485
X17.532 Y-23.384
X17.642 Y-23.281
X17.75 Y-23.178
X17.857 Y-23.073
X17.963 Y-22.967
X18.068 Y-22.859
X18.172 Y-22.751
X18.274 Y-22.641
X18.374 Y-22.529
X18.473 Y-22.417
X18.571 Y-22.303
X18.667 Y-22.188
X18.761 Y-22.071
X18.853 Y-21.953
X18.944 Y-21.833
X19.032 Y-21.712
X19.118 Y-21.589
X19.202 Y-21.465
X19.284 Y-21.339
X19.363 Y-21.211
X19.439 Y-21.082
X19.514 Y-20.952
X19.585 Y-20.82
X19.653 Y-20.686
X19.718 Y-20.551
X19.78 Y-20.415
X19.839 Y-20.277
X19.895 Y-20.138
X19.948 Y-19.997
X19.997 Y-19.855
X20.041 Y-19.712
X20.083 Y-19.568
X20.121 Y-19.423
X20.154 Y-19.277
X20.184 Y-19.13
X20.21 Y-18.982
X20.231 Y-18.833
X20.248 Y-18.684
X20.231 Y-18.335
X20.153 Y-17.994
X20.017 Y-17.672
X19.827 Y-17.379
X19.588 Y-17.123
X19.309 Y-16.913
X19.22 Y-16.877 Z-3.994
X19.132 Y-16.842 Z-3.976
X19.048 Y-16.808 Z-3.948
X18.979 Y-16.799 Z-3.917
X18.914 Y-16.789 Z-3.88
X18.853 Y-16.781 Z-3.837
X18.776 Y-16.777 Z-3.769
X18.708 Y-16.774 Z-3.692
X18.651 Y-16.772 Z-3.607
X18.606 Y-16.77 Z-3.515
X18.573 Y-16.769 Z-3.417
X18.554 Y-16.768 Z-3.317
X18.547 Z-3.215
G0 Z5.
X35.667 Y-27.557
Z-2.
G1 Z-3. F2328.
X35.662 Y-27.552 Z-3.121
X35.647 Y-27.536 Z-3.239
X35.621 Y-27.511 Z-3.355
X35.586 Y-27.477 Z-3.465
X35.541 Y-27.433 Z-3.568
X35.488 Y-27.381 Z-3.663
X35.427 Y-27.321 Z-3.749
X35.359 Y-27.255 Z-3.823
X35.285 Y-27.182 Z-3.885
X35.206 Y-27.105 Z-3.935
X35.124 Y-27.025 Z-3.971
X35.039 Y-26.942 Z-3.993
X34.953 Y-26.857 Z-4.
G3 X30.629 Y-23.457 I-17.852 J-18.251
G1 X30.455 Y-23.357
X30.422 Y-23.34
X30.273 Y-23.357
X30.125 Y-23.384
X29.979 Y-23.419
X29.835 Y-23.459
X29.692 Y-23.505
X29.55 Y-23.554
X29.41 Y-23.607
X29.27 Y-23.662
X29.132 Y-23.72
X28.995 Y-23.78
X28.858 Y-23.843
X28.723 Y-23.907
X28.589 Y-23.974
X28.327 Y-24.09
X28.056 Y-24.183
X27.778 Y-24.254
X27.495 Y-24.3
X27.21 Y-24.323
X26.923 Y-24.322
X26.638 Y-24.296
X26.356 Y-24.247
X26.079 Y-24.174
X25.809 Y-24.078
X25.548 Y-23.96
X25.298 Y-23.82
X25.061 Y-23.659
X24.838 Y-23.479
X24.631 Y-23.281
X24.441 Y-23.066
X24.27 Y-22.837
X24.12 Y-22.593
X23.6 Y-21.572
X23.534 Y-21.264
X23.462 Y-20.942
X23.393 Y-20.65
X23.331 Y-20.4
X23.195 Y-19.981
X23.005 Y-19.585
X22.764 Y-19.217
X22.476 Y-18.885
X22.146 Y-18.593
X21.781 Y-18.349
X19.48 Y-17.02
X19.309 Y-16.913
X19.22 Y-16.877 Z-3.994
X19.132 Y-16.842 Z-3.976
X19.048 Y-16.808 Z-3.948
X18.963 Y-16.798 Z-3.909
X18.884 Y-16.789 Z-3.86
X18.81 Y-16.78 Z-3.802
X18.733 Z-3.723
X18.668 Z-3.634
X18.616 Z-3.537
X18.577 Z-3.433
X18.554 Z-3.325
X18.547 Z-3.215
G0 Z5.
X31.486 Y-24.798
Z-2.
G1 Z-3. F2328.
X31.482 Y-24.791 Z-3.121
X31.472 Y-24.772 Z-3.239
X31.454 Y-24.741 Z-3.355
X31.43 Y-24.698 Z-3.465
X31.399 Y-24.643 Z-3.568
X31.363 Y-24.578 Z-3.663
X31.321 Y-24.504 Z-3.749
X31.275 Y-24.421 Z-3.823
X31.224 Y-24.331 Z-3.885
X31.17 Y-24.235 Z-3.935
X31.114 Y-24.134 Z-3.971
X31.056 Y-24.03 Z-3.993
X30.997 Y-23.925 Z-4.
G3 X30.455 Y-23.357 I-1.381 J-0.774
G1 X21.781 Y-18.349
X21.776 Y-18.347
G2 X15.547 Y-15.241 I3.89 J15.602
X15.19 Y-14.627 I0.629 J0.777
G1 X11.916 Y5.123
G2 X12.057 Y5.819 I0.987 J0.164
X16.951 Y10.768 I13.61 J-8.564
G1 X16.959 Y10.79
X16.783 Y11.391
X16.731 Y11.689
X16.69 Y11.989
X16.665 Y12.289
Y12.379
X16.656 Y12.596
X16.636 Y12.803
X16.601 Y13.026
X16.545 Y13.293
X16.472 Y13.568
X16.369 Y13.881
X16.235 Y14.225
X16.069 Y14.59
X15.857 Y14.996
X15.606 Y15.418
X15.298 Y15.877
X14.93 Y16.366
X14.513 Y16.86
X14.006 Y17.398
X13.438 Y17.939
X12.808 Y18.476
X12.085 Y19.027
X11.278 Y19.575
X10.398 Y20.104
X9.468 Y20.596
X8.488 Y21.048
X7.445 Y21.461
X6.358 Y21.824
X5.253 Y22.127
X4.133 Y22.371
X3.002 Y22.556
X1.864 Y22.683
X0.72 Y22.751
X-0.426 Y22.761
X-1.571 Y22.714
X-2.712 Y22.608
X-3.846 Y22.445
X-4.971 Y22.225
X-6.083 Y21.948
X-7.179 Y21.614
X-8.257 Y21.226
X-9.315 Y20.786
X-10.351 Y20.296
X-11.363 Y19.757
X-12.349 Y19.174
X-13.309 Y18.548
X-14.241 Y17.881
X-15.136 Y17.182
X-15.706 Y16.684
X-15.816 Y16.576
X-16.123 Y16.232
X-16.38 Y15.85
X-16.582 Y15.436
X-16.726 Y14.998
X-16.808 Y14.545
X-16.827 Y14.085
X-16.783 Y13.626
X-16.76 Y13.487
X-16.734 Y13.323
G3 X-15.787 Y12.509 I0.983 J0.186
G1 X15.632 Y11.422
G3 X16.665 Y12.379 I0.035 J0.999
G1 X16.669 Y12.888
X16.714 Y13.188
X16.76 Y13.487
X16.783 Y13.626
X16.798 Y13.675
X16.835 Y13.82
X16.861 Y13.968
X16.88 Y14.127
X16.891 Y14.301
X16.893 Y14.499
X16.883 Y14.712
X16.858 Y14.954
X16.818 Y15.208
X16.757 Y15.495
X16.675 Y15.794
X16.564 Y16.128
X16.426 Y16.478
X16.253 Y16.857
X16.038 Y17.263
X15.789 Y17.679
X15.476 Y18.142
X15.13 Y18.597
X14.711 Y19.09
X14.216 Y19.612
X13.681 Y20.117
X13.056 Y20.646
X12.342 Y21.186
X11.555 Y21.715
X10.722 Y22.212
X9.798 Y22.696
X8.794 Y23.154
X7.727 Y23.572
X6.639 Y23.931
X5.534 Y24.233
X4.415 Y24.479
X3.285 Y24.669
X2.147 Y24.805
X1.004 Y24.886
X-0.142 Y24.912
X-1.287 Y24.884
X-2.43 Y24.802
X-3.568 Y24.666
X-4.698 Y24.477
X-5.819 Y24.236
X-6.927 Y23.944
X-8.021 Y23.603
X-9.098 Y23.212
X-10.157 Y22.774
X-11.196 Y22.292
X-12.214 Y21.765
X-13.209 Y21.196
X-14.179 Y20.587
X-14.966 Y20.041
X-15.509 Y19.618
X-15.964 Y19.222
X-16.336 Y18.861
X-16.642 Y18.529
X-16.929 Y18.183
X-17.158 Y17.872
X-17.269 Y17.703
X-17.465 Y17.344
X-17.601 Y16.958
X-17.673 Y16.556
X-17.68 Y16.146
X-17.621 Y15.742
X-17.498 Y15.351
X-17.314 Y14.986
X-17.233 Y14.821
G3 X-16.391 Y14.294 I0.882 J0.472
G1 X15.814 Y13.005
G3 X16.798 Y13.675 I0.04 J0.999
G1 X16.926 Y14.087
X17.026 Y14.387
X17.166 Y14.686
X17.211 Y14.777
X17.274 Y14.924
X17.326 Y15.065
X17.369 Y15.209
X17.406 Y15.368
X17.436 Y15.537
X17.459 Y15.731
X17.473 Y15.938
X17.475 Y16.167
X17.464 Y16.418
X17.438 Y16.684
X17.392 Y16.982
X17.328 Y17.286
X17.235 Y17.629
X17.12 Y17.979
X16.97 Y18.362
X16.784 Y18.771
X16.567 Y19.184
X16.295 Y19.641
X15.986 Y20.101
X15.621 Y20.584
X15.182 Y21.104
X14.701 Y21.614
X14.153 Y22.134
X13.518 Y22.674
X12.797 Y23.222
X12.032 Y23.74
X11.179 Y24.252
X10.235 Y24.75
X9.208 Y25.222
X8.142 Y25.642
X7.056 Y26.006
X5.952 Y26.315
X4.835 Y26.571
X3.708 Y26.774
X2.572 Y26.924
X1.43 Y27.022
X0.285 Y27.069
X-0.861 Y27.064
X-2.006 Y27.008
X-3.147 Y26.903
X-4.282 Y26.749
X-5.41 Y26.546
X-6.528 Y26.296
X-7.635 Y25.999
X-8.729 Y25.657
X-9.807 Y25.27
X-10.87 Y24.841
X-11.914 Y24.369
X-12.939 Y23.856
X-13.942 Y23.302
X-14.866 Y22.728
X-15.61 Y22.209
X-16.253 Y21.704
X-16.776 Y21.245
X-17.207 Y20.824
X-17.528 Y20.473
X-17.823 Y20.114
X-18.048 Y19.806
X-18.262 Y19.477
X-18.428 Y19.189
X-18.501 Y19.044
X-18.663 Y18.65
X-18.76 Y18.235
X-18.791 Y17.81
X-18.755 Y17.385
X-18.653 Y16.971
X-18.487 Y16.579
X-18.261 Y16.217
X-17.982 Y15.896
G3 X-17.328 Y15.616 I0.695 J0.719
G1 X-17.27 Y15.613
X16.288 Y14.249
G3 X17.211 Y14.777 I0.041 J0.999
G1 X17.314 Y14.986
X17.382 Y15.099
X17.505 Y15.286
X17.682 Y15.532
X17.724 Y15.585
X17.814 Y15.706
X17.901 Y15.828
X17.978 Y15.956
X18.047 Y16.09
X18.107 Y16.227
X18.159 Y16.368
X18.205 Y16.511
X18.244 Y16.656
X18.276 Y16.802
X18.302 Y16.95
X18.323 Y17.098
X18.338 Y17.248
X18.349 Y17.397
X18.354 Y17.547
Y17.697
X18.35 Y17.847
X18.342 Y17.997
X18.329 Y18.146
X18.312 Y18.295
X18.292 Y18.444
X18.268 Y18.592
X18.24 Y18.739
X18.209 Y18.886
X18.175 Y19.032
X18.137 Y19.177
X18.096 Y19.322
X18.052 Y19.465
X18.006 Y19.608
X17.956 Y19.749
X17.904 Y19.89
X17.85 Y20.03
X17.792 Y20.168
X17.733 Y20.306
X17.671 Y20.443
X17.607 Y20.578
X17.54 Y20.713
X17.471 Y20.846
X17.401 Y20.978
X17.328 Y21.109
X17.253 Y21.239
X17.176 Y21.368
X17.097 Y21.496
X17.017 Y21.622
X16.935 Y21.748
X16.851 Y21.872
X16.765 Y21.995
X16.678 Y22.117
X16.589 Y22.238
X16.499 Y22.358
X16.407 Y22.477
X16.314 Y22.594
X16.219 Y22.711
X16.123 Y22.826
X16.026 Y22.94
X15.927 Y23.053
X15.827 Y23.165
X15.726 Y23.275
X15.623 Y23.385
X15.519 Y23.493
X15.414 Y23.6
X15.308 Y23.706
X15.201 Y23.811
X15.093 Y23.915
X14.984 Y24.018
X14.874 Y24.12
X14.762 Y24.22
X14.65 Y24.32
X14.537 Y24.418
X14.423 Y24.515
X14.308 Y24.612
X14.192 Y24.707
X14.075 Y24.801
X13.957 Y24.894
X13.838 Y24.986
X13.719 Y25.076
X13.599 Y25.166
X13.478 Y25.255
X13.356 Y25.343
X13.234 Y25.429
X13.111 Y25.515
X12.987 Y25.599
X12.862 Y25.683
X12.737 Y25.765
X12.611 Y25.847
X12.484 Y25.927
X12.357 Y26.006
X12.229 Y26.085
X12.1 Y26.162
X11.971 Y26.239
X11.842 Y26.314
X11.711 Y26.388
X11.58 Y26.461
X11.449 Y26.534
X11.317 Y26.605
X11.185 Y26.676
X11.052 Y26.745
X10.918 Y26.813
X10.784 Y26.881
X10.65 Y26.947
X10.515 Y27.013
X10.243 Y27.141
X10.107 Y27.203
X9.97 Y27.265
X9.833 Y27.326
X9.696 Y27.386
X9.558 Y27.444
X9.28 Y27.559
X9.002 Y27.67
X8.862 Y27.725
X8.722 Y27.778
X8.581 Y27.83
X8.299 Y27.932
X8.015 Y28.03
X7.731 Y28.125
X7.588 Y28.171
X7.302 Y28.26
X7.014 Y28.345
X6.725 Y28.427
X6.436 Y28.506
X6.146 Y28.581
X5.854 Y28.652
X5.562 Y28.72
X5.269 Y28.785
X4.975 Y28.846
X4.681 Y28.904
X4.386 Y28.958
X4.09 Y29.009
X3.794 Y29.056
X3.497 Y29.1
X3.2 Y29.14
X2.902 Y29.178
X2.604 Y29.211
X2.306 Y29.242
X2.007 Y29.269
X1.708 Y29.293
X1.408 Y29.313
X1.109 Y29.33
X0.809 Y29.343
X0.506 Y29.354
X0.206 Y29.361
X-0.094 Y29.365
X-0.394 Y29.366
X-0.7 Y29.363
X-1. Y29.357
X-1.3 Y29.348
X-1.6 Y29.336
X-1.907 Y29.32
X-2.206 Y29.301
X-2.505 Y29.279
X-2.805 Y29.254
X-3.116 Y29.224
X-3.414 Y29.193
X-3.712 Y29.158
X-4.012 Y29.12
X-4.326 Y29.077
X-4.623 Y29.033
X-4.919 Y28.985
X-5.218 Y28.934
X-5.534 Y28.877
X-5.829 Y28.821
X-6.123 Y28.761
X-6.42 Y28.697
X-6.738 Y28.626
X-7.03 Y28.557
X-7.321 Y28.485
X-7.617 Y28.409
X-7.935 Y28.324
X-8.224 Y28.243
X-8.512 Y28.159
X-8.808 Y28.07
X-9.125 Y27.97
X-9.411 Y27.878
X-9.695 Y27.782
X-9.99 Y27.679
X-10.305 Y27.566
X-10.587 Y27.462
X-10.867 Y27.355
X-11.157 Y27.24
X-11.466 Y27.115
X-11.743 Y26.999
X-12.018 Y26.88
X-12.292 Y26.759
X-12.578 Y26.628
X-12.849 Y26.501
X-13.119 Y26.37
X-13.388 Y26.237
X-13.655 Y26.1
X-13.788 Y26.03
X-13.92 Y25.96
X-14.184 Y25.816
X-14.445 Y25.669
X-14.575 Y25.595
X-14.705 Y25.519
X-14.834 Y25.443
X-14.962 Y25.366
X-15.218 Y25.208
X-15.345 Y25.128
X-15.471 Y25.047
X-15.597 Y24.965
X-15.722 Y24.882
X-15.846 Y24.799
X-15.97 Y24.714
X-16.093 Y24.628
X-16.215 Y24.541
X-16.337 Y24.453
X-16.457 Y24.364
X-16.577 Y24.274
X-16.696 Y24.183
X-16.815 Y24.091
X-16.932 Y23.997
X-17.049 Y23.903
X-17.164 Y23.807
X-17.279 Y23.71
X-17.392 Y23.612
X-17.505 Y23.513
X-17.616 Y23.413
X-17.727 Y23.311
X-17.836 Y23.208
X-17.944 Y23.104
X-18.05 Y22.999
X-18.156 Y22.892
X-18.26 Y22.784
X-18.363 Y22.675
X-18.464 Y22.564
X-18.563 Y22.452
X-18.661 Y22.338
X-18.757 Y22.223
X-18.852 Y22.106
X-18.944 Y21.988
X-19.035 Y21.869
X-19.123 Y21.747
X-19.209 Y21.625
X-19.293 Y21.5
X-19.375 Y21.374
X-19.454 Y21.247
X-19.53 Y21.118
X-19.603 Y20.987
X-19.674 Y20.854
X-19.742 Y20.721
X-19.806 Y20.585
X-19.868 Y20.449
X-19.926 Y20.31
X-19.981 Y20.171
X-20.032 Y20.03
X-20.08 Y19.888
X-20.125 Y19.744
X-20.165 Y19.6
X-20.201 Y19.454
X-20.234 Y19.308
X-20.263 Y19.161
X-20.287 Y19.013
X-20.307 Y18.864
X-20.294 Y18.478
X-20.213 Y18.099
X-20.066 Y17.742
X-19.858 Y17.416
X-19.595 Y17.132
X-19.286 Y16.899
X-19.198 Y16.864 Z-3.994
X-19.11 Y16.828 Z-3.976
X-19.025 Y16.795 Z-3.948
X-18.957 Y16.785 Z-3.917
X-18.891 Y16.775 Z-3.88
X-18.83 Y16.767 Z-3.836
X-18.753 Y16.763 Z-3.769
X-18.686 Y16.761 Z-3.692
X-18.629 Y16.758 Z-3.606
X-18.584 Y16.756 Z-3.514
X-18.551 Y16.755 Z-3.417
X-18.531 Y16.754 Z-3.317
X-18.525 Z-3.215
G0 Z5.
X-35.667 Y27.557
Z-2.
G1 Z-3. F2328.
X-35.662 Y27.552 Z-3.121
X-35.647 Y27.536 Z-3.239
X-35.621 Y27.511 Z-3.355
X-35.586 Y27.477 Z-3.465
X-35.541 Y27.433 Z-3.568
X-35.488 Y27.381 Z-3.663
X-35.427 Y27.321 Z-3.749
X-35.359 Y27.255 Z-3.823
X-35.285 Y27.182 Z-3.885
X-35.206 Y27.105 Z-3.935
X-35.124 Y27.025 Z-3.971
X-35.039 Y26.942 Z-3.993
X-34.953 Y26.857 Z-4.
G3 X-30.629 Y23.457 I17.852 J18.251
G1 X-30.455 Y23.357
X-30.422 Y23.34
X-30.273 Y23.357
X-30.125 Y23.384
X-29.979 Y23.419
X-29.835 Y23.459
X-29.692 Y23.505
X-29.55 Y23.554
X-29.41 Y23.607
X-29.27 Y23.662
X-29.132 Y23.72
X-28.995 Y23.78
X-28.858 Y23.843
X-28.593 Y23.95
X-28.319 Y24.036
X-28.04 Y24.098
X-27.756 Y24.136
X-27.47 Y24.15
X-27.183 Y24.14
X-26.899 Y24.105
X-26.618 Y24.047
X-26.344 Y23.966
X-26.077 Y23.862
X-25.82 Y23.736
X-25.574 Y23.588
X-25.342 Y23.42
X-25.124 Y23.234
X-24.923 Y23.03
X-24.741 Y22.809
X-24.085 Y21.869
X-23.818 Y20.991
X-23.749 Y20.768
X-23.642 Y20.433
X-23.628 Y20.389
X-23.445 Y19.943
X-23.199 Y19.528
X-22.895 Y19.154
X-22.54 Y18.827
X-22.141 Y18.557
X-19.48 Y17.02
X-19.286 Y16.899
X-19.198 Y16.864 Z-3.994
X-19.11 Y16.828 Z-3.976
X-19.025 Y16.795 Z-3.948
X-18.941 Y16.784 Z-3.909
X-18.861 Y16.775 Z-3.86
X-18.788 Y16.766 Z-3.802
X-18.711 Z-3.723
X-18.645 Z-3.634
X-18.593 Z-3.536
X-18.555 Z-3.433
X-18.532 Z-3.325
X-18.524 Z-3.215
G0 Z5.
X-31.486 Y24.798
Z-2.
G1 Z-3. F2328.
X-31.482 Y24.791 Z-3.121
X-31.472 Y24.772 Z-3.239
X-31.454 Y24.741 Z-3.355
X-31.43 Y24.698 Z-3.465
X-31.399 Y24.643 Z-3.568
X-31.363 Y24.578 Z-3.663
X-31.321 Y24.504 Z-3.749
X-31.275 Y24.421 Z-3.823
X-31.224 Y24.331 Z-3.885
X-31.17 Y24.235 Z-3.935
X-31.114 Y24.134 Z-3.971
X-31.056 Y24.03 Z-3.993
X-30.997 Y23.925 Z-4.
G3 X-30.455 Y23.357 I1.381 J0.774
G1 X-22.141 Y18.557
X-22.051 Y18.524 Z-3.994
X-21.962 Y18.492 Z-3.976
X-21.876 Y18.461 Z-3.948
X-21.804 Y18.453 Z-3.915
X-21.736 Y18.446 Z-3.876
X-21.671 Y18.439 Z-3.829
X-21.591 Y18.451 Z-3.754
X-21.521 Y18.461 Z-3.669
X-21.464 Y18.469 Z-3.574
X-21.421 Y18.475 Z-3.472
X-21.393 Y18.479 Z-3.365
X-21.382 Y18.482 Z-3.29
X-21.379 Y18.483 Z-3.215
G0 Z5.
X-17.036 Y-15.25
Z-3.
G1 Z-4. F2328.
G3 X-17.724 Y-15.585 I0.061 J-0.998
G1 X-17.971 Y-15.885
X-18.281 Y-16.19
X-18.435 Y-16.319
X-18.545 Y-16.421
X-18.651 Y-16.528
X-18.748 Y-16.642
X-18.837 Y-16.763
X-18.918 Y-16.889
X-18.992 Y-17.019
X-19.059 Y-17.154
X-19.12 Y-17.291
X-19.174 Y-17.431
X-19.222 Y-17.573
X-19.264 Y-17.717
X-19.301 Y-17.862
X-19.333 Y-18.009
X-19.36 Y-18.156
X-19.381 Y-18.305
X-19.398 Y-18.454
X-19.411 Y-18.603
X-19.419 Y-18.753
X-19.423 Y-18.903
Y-19.053
X-19.419 Y-19.203
X-19.411 Y-19.353
X-19.399 Y-19.502
X-19.384 Y-19.651
X-19.366 Y-19.8
X-19.344 Y-19.949
X-19.319 Y-20.097
X-19.29 Y-20.244
X-19.259 Y-20.391
X-19.225 Y-20.537
X-19.188 Y-20.682
X-19.148 Y-20.827
X-19.106 Y-20.97
X-19.06 Y-21.114
X-19.013 Y-21.256
X-18.963 Y-21.397
X-18.91 Y-21.538
X-18.855 Y-21.677
X-18.798 Y-21.816
X-18.738 Y-21.954
X-18.677 Y-22.09
X-18.613 Y-22.226
X-18.548 Y-22.361
X-18.48 Y-22.495
X-18.41 Y-22.628
X-18.339 Y-22.76
X-18.265 Y-22.89
X-18.19 Y-23.02
X-18.113 Y-23.149
X-18.035 Y-23.277
X-17.954 Y-23.403
X-17.872 Y-23.529
X-17.789 Y-23.654
X-17.704 Y-23.777
X-17.617 Y-23.9
X-17.529 Y-24.021
X-17.44 Y-24.142
X-17.349 Y-24.261
X-17.257 Y-24.379
X-17.167 Y-24.491
G3 X-15.429 Y-23.635 I0.759 J0.651
G1 X-16.84 Y-16.902
G3 X-18.435 Y-16.319 I-0.979 J-0.205
G1 X-18.581 Y-16.442
X-18.633 Y-16.485
X-18.881 Y-16.646
X-19.271 Y-16.89
X-19.394 Y-16.975
X-19.515 Y-17.065
X-19.627 Y-17.164
X-19.733 Y-17.27
X-19.832 Y-17.383
X-19.924 Y-17.501
X-20.01 Y-17.624
X-20.09 Y-17.751
X-20.164 Y-17.882
X-20.232 Y-18.015
X-20.295 Y-18.151
X-20.352 Y-18.29
X-20.404 Y-18.431
X-20.451 Y-18.573
X-20.494 Y-18.717
X-20.531 Y-18.862
X-20.564 Y-19.008
X-20.593 Y-19.156
X-20.618 Y-19.304
X-20.638 Y-19.452
X-20.654 Y-19.601
X-20.667 Y-19.751
X-20.675 Y-19.901
X-20.68 Y-20.051
X-20.702 Y-20.336
X-20.748 Y-20.619
X-20.818 Y-20.897
X-20.911 Y-21.168
X-21.026 Y-21.43
X-21.163 Y-21.682
X-21.321 Y-21.921
X-21.498 Y-22.146
X-21.694 Y-22.355
X-21.906 Y-22.547
X-22.134 Y-22.721
X-22.376 Y-22.875
X-22.63 Y-23.008
X-22.894 Y-23.119
X-23.166 Y-23.207
X-23.445 Y-23.272
X-23.729 Y-23.314
X-24.015 Y-23.331
X-24.301 Y-23.324
X-24.586 Y-23.294
X-24.867 Y-23.239
X-25.143 Y-23.161
X-26.215 Y-22.756
X-26.637 Y-22.545
X-27.087 Y-22.4
X-27.553 Y-22.325
X-28.025 Y-22.321
X-28.492 Y-22.388
X-28.944 Y-22.526
X-29.37 Y-22.73
X-29.443 Y-22.792 Z-3.994
X-29.515 Y-22.852 Z-3.976
X-29.585 Y-22.911 Z-3.948
X-29.628 Y-22.976 Z-3.913
X-29.669 Y-23.037 Z-3.87
X-29.707 Y-23.093 Z-3.819
X-29.741 Y-23.145 Z-3.761
X-29.763 Y-23.207 Z-3.684
X-29.781 Y-23.258 Z-3.6
X-29.795 Y-23.299 Z-3.509
X-29.806 Y-23.329 Z-3.414
X-29.812 Y-23.347 Z-3.315
X-29.814 Y-23.353 Z-3.215
G0 Z5.
X-18.509 Y-16.757
Z-3.
G1 Z-4. F2328.
X-18.772 Y-16.756
G3 X-19.271 Y-16.89 I0. J-1.
G1 X-19.48 Y-17.02
X-26.538 Y-21.095
X-26.611 Y-21.157 Z-3.994
X-26.683 Y-21.217 Z-3.976
X-26.753 Y-21.276 Z-3.948
X-26.796 Y-21.341 Z-3.913
X-26.837 Y-21.402 Z-3.87
X-26.875 Y-21.458 Z-3.819
X-26.909 Y-21.51 Z-3.761
X-26.931 Y-21.571 Z-3.684
X-26.949 Y-21.623 Z-3.6
X-26.963 Y-21.664 Z-3.509
X-26.974 Y-21.694 Z-3.414
X-26.98 Y-21.712 Z-3.315
X-26.982 Y-21.718 Z-3.215
G0 Z5.
X17.036 Y15.25
Z-3.
G1 Z-4. F2328.
G3 X17.724 Y15.585 I-0.061 J0.998
G1 X17.971 Y15.885
X18.281 Y16.19
X18.446 Y16.328
X18.556 Y16.431
X18.662 Y16.536
X18.76 Y16.65
X18.849 Y16.771
X18.931 Y16.897
X19.005 Y17.027
X19.072 Y17.161
X19.133 Y17.298
X19.188 Y17.438
X19.236 Y17.58
X19.279 Y17.724
X19.316 Y17.869
X19.348 Y18.016
X19.375 Y18.163
X19.397 Y18.312
X19.414 Y18.461
X19.427 Y18.61
X19.436 Y18.76
X19.44 Y18.91
Y19.06
X19.436 Y19.21
X19.428 Y19.359
X19.417 Y19.509
X19.402 Y19.658
X19.384 Y19.807
X19.362 Y19.956
X19.338 Y20.104
X19.31 Y20.251
X19.278 Y20.398
X19.244 Y20.544
X19.208 Y20.689
X19.168 Y20.834
X19.126 Y20.978
X19.081 Y21.121
X19.033 Y21.263
X18.983 Y21.404
X18.931 Y21.545
X18.876 Y21.685
X18.819 Y21.823
X18.76 Y21.961
X18.698 Y22.098
X18.635 Y22.234
X18.569 Y22.369
X18.501 Y22.503
X18.432 Y22.636
X18.36 Y22.768
X18.287 Y22.898
X18.212 Y23.028
X18.135 Y23.157
X18.057 Y23.285
X17.977 Y23.412
X17.895 Y23.537
X17.811 Y23.662
X17.726 Y23.786
X17.64 Y23.908
X17.552 Y24.03
X17.463 Y24.15
X17.372 Y24.27
X17.28 Y24.388
G3 X15.532 Y23.551 I-0.767 J-0.642
G1 X16.849 Y16.921
G3 X18.446 Y16.328 I0.981 J0.195
G1 X18.581 Y16.442
X18.633 Y16.485
X18.881 Y16.646
X19.271 Y16.89
X19.394 Y16.975
X19.516 Y17.063
X19.629 Y17.161
X19.736 Y17.267
X19.836 Y17.379
X19.929 Y17.496
X20.016 Y17.618
X20.096 Y17.745
X20.171 Y17.875
X20.24 Y18.008
X20.304 Y18.144
X20.362 Y18.282
X20.415 Y18.423
X20.463 Y18.565
X20.506 Y18.709
X20.544 Y18.854
X20.578 Y19.
X20.607 Y19.147
X20.632 Y19.295
X20.653 Y19.443
X20.67 Y19.592
X20.683 Y19.742
X20.693 Y19.891
X20.703 Y20.178
X20.738 Y20.462
X20.796 Y20.742
X20.878 Y21.017
X20.983 Y21.284
X21.109 Y21.541
X21.257 Y21.786
X21.425 Y22.018
X21.612 Y22.235
X21.817 Y22.436
X22.038 Y22.618
X22.273 Y22.781
X22.521 Y22.924
X22.781 Y23.046
X23.049 Y23.145
X23.325 Y23.222
X23.607 Y23.274
X23.892 Y23.303
X24.178 Y23.308
X24.464 Y23.289
X24.747 Y23.246
X25.026 Y23.179
X26.114 Y22.818
X26.454 Y22.595
X26.823 Y22.425
X27.213 Y22.31
X27.615 Y22.254
X28.022 Y22.258
X28.423 Y22.321
X28.811 Y22.442
X29.177 Y22.619
X29.25 Y22.681 Z-3.994
X29.322 Y22.741 Z-3.976
X29.392 Y22.8 Z-3.948
X29.435 Y22.864 Z-3.913
X29.476 Y22.925 Z-3.87
X29.514 Y22.982 Z-3.819
X29.549 Y23.034 Z-3.761
X29.57 Y23.095 Z-3.684
X29.588 Y23.147 Z-3.6
X29.603 Y23.188 Z-3.509
X29.613 Y23.218 Z-3.414
X29.62 Y23.236 Z-3.315
X29.622 Y23.242 Z-3.215
G0 Z5.
X18.509 Y16.756
Z-3.
G1 Z-4. F2328.
X18.772
G3 X19.271 Y16.89 I0. J1.
G1 X19.48 Y17.02
X26.538 Y21.095
X26.611 Y21.157 Z-3.994
X26.683 Y21.217 Z-3.976
X26.753 Y21.276 Z-3.948
X26.796 Y21.341 Z-3.913
X26.837 Y21.402 Z-3.87
X26.875 Y21.458 Z-3.819
X26.909 Y21.51 Z-3.761
X26.931 Y21.571 Z-3.684
X26.949 Y21.623 Z-3.6
X26.963 Y21.664 Z-3.509
X26.974 Y21.694 Z-3.414
X26.98 Y21.712 Z-3.315
X26.982 Y21.718 Z-3.215
G0 Z5.
X-6.007 Y1.089
Z-6.
G1 Z-7. F2328.
X-6.013 Y1.093 Z-7.121
X-6.031 Y1.105 Z-7.239
X-6.06 Y1.126 Z-7.355
X-6.101 Y1.154 Z-7.465
X-6.153 Y1.189 Z-7.568
X-6.214 Y1.231 Z-7.663
X-6.285 Y1.279 Z-7.749
X-6.363 Y1.333 Z-7.823
X-6.448 Y1.391 Z-7.885
X-6.539 Y1.453 Z-7.935
X-6.634 Y1.518 Z-7.971
X-6.732 Y1.585 Z-7.993
X-6.832 Y1.653 Z-8.
G3 X-11.68 Y4.251 I-14.411 J-21.073
G1 X-11.79 Y4.291
X-11.93 Y4.238
X-12.058 Y4.16
X-12.18 Y4.072
X-12.312 Y3.963
X-12.462 Y3.826
X-12.566 Y3.719
X-12.686 Y3.582
X-12.822 Y3.408
X-12.974 Y3.189
X-13.143 Y2.915
X-13.308 Y2.613
X-13.429 Y2.359
X-13.557 Y2.045
X-13.693 Y1.655
X-13.833 Y1.168
X-13.927 Y0.755
X-14.001 Y0.326
X-14.062 Y-0.208
X-14.103 Y-0.884
X-14.106 Y-1.351
X-14.078 Y-1.921
X-14.002 Y-2.641
X-13.902 Y-3.265
X-13.774 Y-3.858
X-13.568 Y-4.607
X-13.344 Y-5.275
X-13.105 Y-5.875
X-12.755 Y-6.633
X-12.423 Y-7.259
X-12.067 Y-7.85
X-11.56 Y-8.595
X-11.159 Y-9.121
X-10.679 Y-9.682
X-10.032 Y-10.36
X-9.582 Y-10.784
X-8.975 Y-11.294
X-8.27 Y-11.824
X-7.723 Y-12.19
X-6.988 Y-12.626
X-6.278 Y-12.996
X-5.636 Y-13.286
X-4.776 Y-13.621
X-4.114 Y-13.837
X-3.385 Y-14.032
X-2.454 Y-14.226
X-1.831 Y-14.321
X-1.025 Y-14.4
X-0.149 Y-14.436
X0.524 Y-14.428
X1.395 Y-14.368
X2.171 Y-14.273
X2.879 Y-14.146
X3.798 Y-13.928
X4.438 Y-13.739
X5.164 Y-13.481
X6.026 Y-13.12
X6.604 Y-12.84
X7.328 Y-12.439
X8.049 Y-11.985
X8.609 Y-11.589
X9.31 Y-11.034
X9.871 Y-10.536
X10.393 Y-10.019
X11.043 Y-9.302
X11.439 Y-8.812
X11.9 Y-8.175
X12.394 Y-7.407
X12.717 Y-6.838
X13.094 Y-6.079
X13.421 Y-5.322
X13.662 Y-4.665
X13.93 Y-3.79
X14.102 Y-3.094
X14.242 Y-2.359
X14.37 Y-1.405
X14.419 Y-0.781
X14.437 Y0.023
X14.409 Y0.911
X14.352 Y1.576
X14.23 Y2.434
X14.075 Y3.213
X13.898 Y3.905
X13.616 Y4.798
X13.376 Y5.436
X13.068 Y6.136
X12.642 Y6.975
X12.322 Y7.527
X11.872 Y8.215
X11.361 Y8.909
X10.928 Y9.435
X10.328 Y10.087
X9.782 Y10.619
X9.233 Y11.098
X8.475 Y11.688
X7.947 Y12.056
X7.282 Y12.466
X6.474 Y12.905
X5.887 Y13.184
X5.108 Y13.503
X4.32 Y13.776
X3.652 Y13.967
X2.767 Y14.169
X2.049 Y14.292
X1.31 Y14.377
X0.344 Y14.434
X-0.279 Y14.437
X-1.076 Y14.397
X-1.968 Y14.304
X-2.623 Y14.198
X-3.463 Y14.015
X-4.239 Y13.801
X-4.911 Y13.575
X-5.775 Y13.232
X-6.404 Y12.94
X-7.075 Y12.584
X-7.887 Y12.094
X-8.411 Y11.737
X-9.059 Y11.241
X-9.721 Y10.675
X-10.21 Y10.208
X-10.812 Y9.566
X-11.549 Y8.689
X-12.282 Y7.808
X-13.009 Y6.922
X-13.6 Y6.139
X-14.051 Y5.468
X-14.428 Y4.836
X-14.75 Y4.22
X-15.028 Y3.612
X-15.269 Y2.994
X-15.483 Y2.345
X-15.656 Y1.704
X-15.793 Y1.052
X-15.9 Y0.366
X-15.969 Y-0.333
X-16. Y-1.036
X-15.992 Y-1.771
X-15.943 Y-2.517
X-15.853 Y-3.261
X-15.719 Y-4.016
X-15.539 Y-4.783
X-15.316 Y-5.545
X-15.052 Y-6.294
X-14.729 Y-7.07
X-14.37 Y-7.813
X-13.969 Y-8.54
X-13.505 Y-9.283
X-13.018 Y-9.974
X-12.487 Y-10.646
X-11.901 Y-11.31
X-11.297 Y-11.924
X-10.643 Y-12.518
X-9.954 Y-13.079
X-9.248 Y-13.592
X-8.485 Y-14.084
X-7.716 Y-14.523
X-6.928 Y-14.918
X-6.084 Y-15.284
X-5.257 Y-15.59
X-4.406 Y-15.852
X-3.523 Y-16.073
X-2.655 Y-16.24
X-1.758 Y-16.362
X-0.859 Y-16.434
X0.028 Y-16.457
X0.95 Y-16.43
X1.839 Y-16.355
X2.72 Y-16.231
X3.626 Y-16.054
X4.485 Y-15.836
X5.342 Y-15.568
X6.196 Y-15.248
X7.008 Y-14.892
X7.823 Y-14.481
X8.604 Y-14.031
X9.349 Y-13.546
X10.099 Y-12.996
X10.787 Y-12.432
X11.444 Y-11.83
X12.086 Y-11.173
X12.671 Y-10.506
X13.227 Y-9.796
X13.747 Y-9.051
X14.215 Y-8.297
X14.655 Y-7.492
X15.042 Y-6.681
X15.381 Y-5.858
X15.687 Y-4.981
X15.934 Y-4.128
X16.134 Y-3.257
X16.29 Y-2.354
X16.394 Y-1.473
X16.45 Y-0.569
X16.456 Y0.337
X16.413 Y1.225
X16.319 Y2.143
X16.179 Y3.026
X15.991 Y3.897
X15.747 Y4.789
X15.466 Y5.631
X15.136 Y6.465
X14.755 Y7.295
X14.34 Y8.079
X13.871 Y8.86
X13.364 Y9.607
X12.826 Y10.315
X12.224 Y11.021
X11.61 Y11.667
X10.962 Y12.278
X10.258 Y12.872
X9.55 Y13.406
X8.802 Y13.908
X8.02 Y14.374
X7.233 Y14.785
X6.399 Y15.164
X5.562 Y15.491
X4.716 Y15.769
X3.818 Y16.01
X2.949 Y16.193
X2.067 Y16.329
X1.154 Y16.419
X0.268 Y16.458
X-0.637 Y16.447
X-1.542 Y16.387
X-2.423 Y16.28
X-3.33 Y16.119
X-4.202 Y15.914
X-5.057 Y15.663
X-5.93 Y15.354
X-6.749 Y15.012
X-7.556 Y14.623
X-8.356 Y14.18
X-9.108 Y13.71
X-9.851 Y13.185
X-10.646 Y12.557
X-11.504 Y11.798
X-12.327 Y11.001
X-13.121 Y10.174
X-13.881 Y9.317
X-14.601 Y8.425
X-15.202 Y7.592
X-15.717 Y6.789
X-16.171 Y5.989
X-16.565 Y5.194
X-16.906 Y4.4
X-17.199 Y3.602
X-17.445 Y2.797
X-17.645 Y1.985
X-17.8 Y1.162
X-17.911 Y0.328
X-17.976 Y-0.515
X-17.995 Y-1.367
X-17.967 Y-2.229
X-17.891 Y-3.096
X-17.767 Y-3.966
X-17.592 Y-4.843
X-17.367 Y-5.718
X-17.092 Y-6.587
X-16.764 Y-7.456
X-16.386 Y-8.31
X-15.959 Y-9.15
X-15.48 Y-9.975
X-14.955 Y-10.776
X-14.381 Y-11.554
X-13.761 Y-12.305
X-13.099 Y-13.023
X-12.392 Y-13.71
X-11.646 Y-14.36
X-10.865 Y-14.968
X-10.044 Y-15.538
X-9.194 Y-16.061
X-8.315 Y-16.538
X-7.407 Y-16.968
X-6.478 Y-17.347
X-5.527 Y-17.676
X-4.557 Y-17.952
X-3.575 Y-18.175
X-2.576 Y-18.345
X-1.571 Y-18.459
X-0.563 Y-18.519
X0.452 Y-18.523
X1.463 Y-18.471
X2.469 Y-18.364
X3.471 Y-18.202
X4.459 Y-17.986
X5.437 Y-17.715
X6.399 Y-17.391
X7.339 Y-17.016
X8.263 Y-16.587
X9.16 Y-16.109
X10.027 Y-15.585
X10.867 Y-15.011
X11.672 Y-14.395
X12.442 Y-13.735
X13.176 Y-13.033
X13.868 Y-12.293
X14.521 Y-11.514
X15.13 Y-10.701
X15.692 Y-9.859
X16.211 Y-8.981
X16.678 Y-8.079
X17.095 Y-7.155
X17.462 Y-6.206
X17.776 Y-5.242
X18.036 Y-4.261
X18.242 Y-3.267
X18.394 Y-2.265
X18.49 Y-1.252
X18.531 Y-0.237
X18.516 Y0.777
X18.445 Y1.793
X18.32 Y2.8
X18.139 Y3.798
X17.903 Y4.787
X17.615 Y5.759
X17.273 Y6.715
X16.879 Y7.652
X16.436 Y8.563
X15.94 Y9.453
X15.398 Y10.313
X14.811 Y11.139
X14.177 Y11.936
X13.503 Y12.694
X12.788 Y13.413
X12.034 Y14.094
X11.245 Y14.731
X10.421 Y15.325
X9.565 Y15.873
X8.684 Y16.372
X7.77 Y16.825
X6.836 Y17.225
X5.884 Y17.574
X4.911 Y17.87
X3.926 Y18.112
X2.929 Y18.3
X1.922 Y18.433
X0.912 Y18.51
X-0.105 Y18.532
X-1.121 Y18.499
X-2.13 Y18.41
X-3.139 Y18.265
X-4.134 Y18.065
X-5.116 Y17.812
X-6.086 Y17.505
X-7.033 Y17.146
X-7.962 Y16.735
X-8.885 Y16.264
X-9.799 Y15.733
X-10.757 Y15.104
X-11.679 Y14.424
X-12.566 Y13.699
X-13.421 Y12.936
X-14.241 Y12.135
X-15.024 Y11.298
X-15.766 Y10.426
X-16.463 Y9.516
X-17.096 Y8.592
X-17.651 Y7.679
X-18.139 Y6.766
X-18.567 Y5.847
X-18.939 Y4.919
X-19.257 Y3.981
X-19.521 Y3.034
X-19.731 Y2.078
X-19.889 Y1.113
X-19.939 Y0.653
X-19.949 Y0.535
X-19.956 Y0.418
X-19.958 Y0.3
X-19.957 Y-0.899
X-19.933 Y-1.199
X-19.882 Y-1.798
X-19.848 Y-2.098
X-19.778 Y-2.697
X-19.653 Y-3.597
X-19.587 Y-3.896
X-19.232 Y-5.395
X-19.18 Y-5.58
X-19.057 Y-5.994
X-18.62 Y-7.193
X-18.581 Y-7.299
X-18.259 Y-8.092
X-18.119 Y-8.392
X-17.366 Y-9.891
X-17.223 Y-10.19
X-17.086 Y-10.49
X-16.56 Y-11.508
X-16.209 Y-12.119
X-15.786 Y-12.77
X-15.291 Y-13.447
X-14.727 Y-14.136
X-14.111 Y-14.81
X-13.439 Y-15.468
X-12.7 Y-16.117
X-11.902 Y-16.743
X-11.05 Y-17.34
X-10.15 Y-17.899
X-9.207 Y-18.415
X-8.227 Y-18.884
X-7.215 Y-19.302
X-6.174 Y-19.667
X-5.109 Y-19.975
X-4.024 Y-20.226
X-2.924 Y-20.418
X-1.811 Y-20.549
X-0.692 Y-20.619
X0.432 Y-20.628
X1.555 Y-20.575
X2.675 Y-20.461
X3.789 Y-20.286
X4.891 Y-20.049
X5.98 Y-19.752
X7.052 Y-19.396
X8.102 Y-18.982
X9.13 Y-18.51
X10.129 Y-17.983
X11.098 Y-17.402
X12.034 Y-16.769
X12.934 Y-16.085
X13.795 Y-15.353
X14.615 Y-14.575
X15.391 Y-13.753
X16.121 Y-12.889
X16.161 Y-12.837
X16.378 Y-12.511
X16.555 Y-12.16
X16.69 Y-11.792
X16.78 Y-11.41
X16.783 Y-11.389
X16.959 Y-10.79
X17.086 Y-10.49
X17.223 Y-10.19
X17.366 Y-9.891
X18.119 Y-8.392
X18.259 Y-8.092
X18.581 Y-7.299
X18.62 Y-7.193
X19.057 Y-5.994
X19.18 Y-5.58
X19.232 Y-5.395
X19.587 Y-3.896
X19.653 Y-3.597
X19.778 Y-2.697
X19.848 Y-2.098
X19.882 Y-1.798
X19.933 Y-1.199
X19.957 Y-0.899
X19.958 Y0.599
X19.957 Y0.899
X19.933 Y1.199
X19.882 Y1.798
X19.848 Y2.098
X19.778 Y2.697
X19.653 Y3.597
X19.587 Y3.896
X19.232 Y5.395
X19.18 Y5.58
X19.057 Y5.994
X18.62 Y7.193
X18.581 Y7.299
X18.259 Y8.092
X18.119 Y8.392
X17.366 Y9.891
X17.223 Y10.19
X17.083 Y10.498
X16.959 Y10.79
X16.901 Y10.928
X16.623 Y11.489
X16.273 Y12.108
X15.877 Y12.726
X15.414 Y13.368
X14.874 Y14.037
X14.26 Y14.717
X13.583 Y15.39
X12.855 Y16.037
X12.073 Y16.66
X11.229 Y17.259
X10.333 Y17.824
X9.392 Y18.348
X8.41 Y18.826
X7.395 Y19.253
X6.351 Y19.626
X5.283 Y19.943
X4.196 Y20.202
X3.092 Y20.402
X1.976 Y20.541
X0.853 Y20.619
X-0.274 Y20.636
X-1.402 Y20.59
X-2.526 Y20.483
X-3.643 Y20.315
X-4.749 Y20.085
X-5.841 Y19.796
X-6.921 Y19.445
X-7.989 Y19.032
X-9.033 Y18.56
X-10.051 Y18.034
X-11.041 Y17.456
X-12.001 Y16.831
X-12.93 Y16.161
X-13.829 Y15.45
X-14.695 Y14.7
X-15.528 Y13.912
X-15.826 Y13.603
X-16.096 Y13.287
X-16.323 Y12.939
X-16.505 Y12.565
X-16.638 Y12.172
X-16.721 Y11.765
X-16.731 Y11.689
X-16.783 Y11.389
X-16.959 Y10.79
X-17.086 Y10.49
X-17.223 Y10.19
X-17.366 Y9.891
X-18.119 Y8.392
X-18.259 Y8.092
X-18.581 Y7.299
X-18.62 Y7.193
X-19.057 Y5.994
X-19.18 Y5.58
X-19.232 Y5.395
X-19.587 Y3.896
X-19.653 Y3.597
X-19.778 Y2.697
X-19.848 Y2.098
X-19.882 Y1.798
X-19.933 Y1.199
X-19.957 Y0.899
X-19.958 Y0.3
G3 X-19.704 Y-0.258 I0.8 J0.028
G2 X-17.727 Y-2.881 I-6.451 J-6.918
G1 X-17.684 Y-2.977
X-17.652 Y-3.077
X-16.741 Y-6.483
X-16.719 Y-6.585
X-16.708 Y-6.69
G2 X-17.112 Y-9.95 I-9.447 J-0.486
G3 X-17.086 Y-10.49 I0.765 J-0.235
G1 X-16.959 Y-10.79
X-16.783 Y-11.391
X-16.731 Y-11.689
X-16.69 Y-11.989
X-16.665 Y-12.289
Y-12.338
X-16.657 Y-12.515
X-16.636 Y-12.734
X-16.601 Y-12.96
X-16.546 Y-13.221
X-16.467 Y-13.516
X-16.367 Y-13.822
X-16.227 Y-14.181
X-16.063 Y-14.54
X-15.844 Y-14.961
X-15.597 Y-15.377
X-15.277 Y-15.854
X-14.918 Y-16.33
X-14.486 Y-16.843
X-13.97 Y-17.39
X-13.415 Y-17.919
X-12.769 Y-18.469
X-12.036 Y-19.028
X-11.223 Y-19.579
X-10.358 Y-20.1
X-9.439 Y-20.586
X-8.451 Y-21.041
X-7.404 Y-21.456
X-6.317 Y-21.819
X-5.212 Y-22.122
X-4.092 Y-22.366
X-2.962 Y-22.552
X-1.823 Y-22.678
X-0.679 Y-22.746
X0.467 Y-22.756
X1.612 Y-22.707
X2.753 Y-22.601
X3.887 Y-22.436
X5.011 Y-22.213
X6.122 Y-21.934
X7.218 Y-21.598
X8.295 Y-21.207
X9.351 Y-20.763
X10.384 Y-20.266
X11.39 Y-19.718
X12.368 Y-19.121
X13.315 Y-18.475
X14.228 Y-17.783
X15.105 Y-17.046
X15.807 Y-16.393
X15.882 Y-16.315
X16.164 Y-15.98
X16.4 Y-15.61
X16.584 Y-15.213
X16.714 Y-14.794
X16.787 Y-14.362
X16.803 Y-13.924
X16.76 Y-13.487
X16.734 Y-13.323
G3 X15.788 Y-12.509 I-0.983 J-0.186
G1 X-15.63 Y-11.381
G3 X-16.665 Y-12.338 I-0.036 J-0.999
G1 X-16.669 Y-12.888
X-16.714 Y-13.188
X-16.76 Y-13.487
X-16.783 Y-13.626
X-16.791 Y-13.653
X-16.828 Y-13.798
X-16.854 Y-13.946
X-16.871 Y-14.105
X-16.881 Y-14.283
X-16.882 Y-14.484
X-16.87 Y-14.7
X-16.844 Y-14.943
X-16.802 Y-15.202
X-16.738 Y-15.491
X-16.653 Y-15.796
X-16.538 Y-16.134
X-16.395 Y-16.491
X-16.218 Y-16.87
X-15.996 Y-17.285
X-15.743 Y-17.702
X-15.422 Y-18.17
X-15.065 Y-18.634
X-14.638 Y-19.13
X-14.131 Y-19.658
X-13.585 Y-20.168
X-12.957 Y-20.693
X-12.237 Y-21.23
X-11.432 Y-21.765
X-10.58 Y-22.265
X-9.653 Y-22.744
X-8.644 Y-23.197
X-7.574 Y-23.609
X-6.484 Y-23.961
X-5.377 Y-24.257
X-4.256 Y-24.496
X-3.125 Y-24.68
X-1.987 Y-24.809
X-0.843 Y-24.884
X0.302 Y-24.905
X1.448 Y-24.871
X2.59 Y-24.783
X3.727 Y-24.64
X4.856 Y-24.444
X5.975 Y-24.196
X7.081 Y-23.896
X8.172 Y-23.545
X9.246 Y-23.145
X10.3 Y-22.696
X11.333 Y-22.2
X12.342 Y-21.657
X13.325 Y-21.069
X14.28 Y-20.435
X15.083 Y-19.847
X15.627 Y-19.4
X16.072 Y-18.992
X16.438 Y-18.618
X16.734 Y-18.28
X17.011 Y-17.926
X17.246 Y-17.528
X17.417 Y-17.1
X17.522 Y-16.65
X17.557 Y-16.189
X17.523 Y-15.729
X17.418 Y-15.279
X17.247 Y-14.85
G3 X16.407 Y-14.323 I-0.882 J-0.472
G1 X-15.805 Y-12.983
G3 X-16.791 Y-13.653 I-0.042 J-0.999
G1 X-16.926 Y-14.087
X-17.026 Y-14.387
X-17.166 Y-14.686
X-17.211 Y-14.777
X-17.27 Y-14.915
X-17.32 Y-15.056
X-17.362 Y-15.2
X-17.398 Y-15.363
X-17.427 Y-15.533
X-17.45 Y-15.732
X-17.462 Y-15.941
Y-16.173
X-17.449 Y-16.426
X-17.42 Y-16.698
X-17.371 Y-16.999
X-17.303 Y-17.307
X-17.206 Y-17.656
X-17.087 Y-18.008
X-16.93 Y-18.398
X-16.74 Y-18.808
X-16.515 Y-19.229
X-16.234 Y-19.691
X-15.918 Y-20.153
X-15.544 Y-20.641
X-15.094 Y-21.164
X-14.603 Y-21.676
X-14.041 Y-22.201
X-13.392 Y-22.744
X-12.658 Y-23.293
X-11.881 Y-23.81
X-11.015 Y-24.32
X-10.058 Y-24.815
X-9.021 Y-25.281
X-7.951 Y-25.693
X-6.862 Y-26.049
X-5.756 Y-26.349
X-4.638 Y-26.597
X-3.508 Y-26.791
X-2.371 Y-26.934
X-1.229 Y-27.026
X-0.084 Y-27.065
X1.062 Y-27.052
X2.206 Y-26.989
X3.346 Y-26.875
X4.481 Y-26.713
X5.607 Y-26.501
X6.723 Y-26.242
X7.827 Y-25.936
X8.918 Y-25.583
X9.992 Y-25.185
X11.049 Y-24.742
X12.086 Y-24.255
X13.102 Y-23.724
X14.093 Y-23.15
X14.996 Y-22.564
X15.741 Y-22.021
X16.35 Y-21.523
X16.813 Y-21.101
X17.17 Y-20.738
X17.497 Y-20.365
X17.75 Y-20.044
X17.993 Y-19.698
X18.183 Y-19.394
X18.363 Y-19.065
X18.507 Y-18.765
X18.515 Y-18.747
X18.649 Y-18.328
X18.712 Y-17.892
X18.702 Y-17.453
X18.62 Y-17.02
X18.468 Y-16.608
X18.25 Y-16.226
X17.971 Y-15.885
X17.835 Y-15.72
G3 X17.121 Y-15.384 I-0.749 J-0.663
G1 X-16.295 Y-14.249
G3 X-17.211 Y-14.777 I-0.034 J-0.999
G1 X-17.314 Y-14.986
X-17.382 Y-15.099
X-17.505 Y-15.286
X-17.682 Y-15.532
X-17.724 Y-15.585
X-17.814 Y-15.706
X-17.899 Y-15.829
X-17.975 Y-15.958
X-18.042 Y-16.093
X-18.101 Y-16.231
X-18.152 Y-16.372
X-18.197 Y-16.515
X-18.234 Y-16.66
X-18.266 Y-16.807
X-18.291 Y-16.955
X-18.311 Y-17.103
X-18.325 Y-17.253
X-18.334 Y-17.402
X-18.339 Y-17.552
X-18.338 Y-17.702
X-18.334 Y-17.852
X-18.324 Y-18.002
X-18.311 Y-18.151
X-18.294 Y-18.3
X-18.273 Y-18.449
X-18.248 Y-18.597
X-18.22 Y-18.744
X-18.188 Y-18.891
X-18.153 Y-19.036
X-18.115 Y-19.182
X-18.074 Y-19.326
X-18.029 Y-19.469
X-17.982 Y-19.611
X-17.932 Y-19.753
X-17.88 Y-19.893
X-17.825 Y-20.033
X-17.767 Y-20.171
X-17.707 Y-20.309
X-17.645 Y-20.445
X-17.58 Y-20.581
X-17.513 Y-20.715
X-17.444 Y-20.848
X-17.373 Y-20.98
X-17.3 Y-21.111
X-17.225 Y-21.241
X-17.148 Y-21.37
X-17.069 Y-21.497
X-16.988 Y-21.624
X-16.906 Y-21.749
X-16.822 Y-21.873
X-16.736 Y-21.996
X-16.648 Y-22.118
X-16.559 Y-22.239
X-16.469 Y-22.358
X-16.377 Y-22.477
X-16.283 Y-22.594
X-16.189 Y-22.711
X-16.092 Y-22.826
X-15.995 Y-22.939
X-15.896 Y-23.052
X-15.795 Y-23.164
X-15.694 Y-23.274
X-15.592 Y-23.384
X-15.488 Y-23.492
X-15.383 Y-23.599
X-15.277 Y-23.705
X-15.169 Y-23.81
X-15.061 Y-23.914
X-14.952 Y-24.017
X-14.841 Y-24.118
X-14.73 Y-24.219
X-14.618 Y-24.318
X-14.504 Y-24.416
X-14.39 Y-24.513
X-14.275 Y-24.609
X-14.159 Y-24.704
X-14.042 Y-24.799
X-13.924 Y-24.891
X-13.805 Y-24.983
X-13.686 Y-25.074
X-13.566 Y-25.163
X-13.445 Y-25.252
X-13.323 Y-25.34
X-13.2 Y-25.426
X-13.077 Y-25.512
X-12.953 Y-25.596
X-12.829 Y-25.68
X-12.703 Y-25.762
X-12.577 Y-25.843
X-12.45 Y-25.923
X-12.323 Y-26.003
X-12.195 Y-26.081
X-12.067 Y-26.159
X-11.937 Y-26.235
X-11.808 Y-26.31
X-11.677 Y-26.384
X-11.546 Y-26.458
X-11.415 Y-26.53
X-11.283 Y-26.601
X-11.017 Y-26.741
X-10.884 Y-26.809
X-10.75 Y-26.877
X-10.615 Y-26.943
X-10.48 Y-27.008
X-10.345 Y-27.073
X-10.073 Y-27.199
X-9.936 Y-27.26
X-9.799 Y-27.321
X-9.661 Y-27.381
X-9.523 Y-27.44
X-9.385 Y-27.497
X-9.107 Y-27.61
X-8.827 Y-27.719
X-8.687 Y-27.772
X-8.547 Y-27.825
X-8.406 Y-27.876
X-8.123 Y-27.976
X-7.839 Y-28.072
X-7.553 Y-28.165
X-7.41 Y-28.21
X-7.123 Y-28.297
X-6.835 Y-28.381
X-6.546 Y-28.461
X-6.256 Y-28.538
X-5.965 Y-28.611
X-5.673 Y-28.681
X-5.381 Y-28.747
X-5.087 Y-28.81
X-4.793 Y-28.869
X-4.498 Y-28.925
X-4.203 Y-28.977
X-3.907 Y-29.026
X-3.611 Y-29.072
X-3.314 Y-29.114
X-3.016 Y-29.153
X-2.718 Y-29.188
X-2.42 Y-29.221
X-2.121 Y-29.249
X-1.822 Y-29.274
X-1.523 Y-29.296
X-1.223 Y-29.315
X-0.924 Y-29.33
X-0.624 Y-29.342
X-0.32 Y-29.351
X-0.021 Y-29.357
X0.279 Y-29.359
X0.579 Y-29.358
X0.884 Y-29.353
X1.184 Y-29.346
X1.484 Y-29.335
X1.783 Y-29.32
X2.091 Y-29.303
X2.39 Y-29.282
X2.689 Y-29.258
X2.988 Y-29.231
X3.299 Y-29.2
X3.597 Y-29.166
X3.895 Y-29.13
X4.192 Y-29.09
X4.505 Y-29.045
X4.802 Y-28.999
X5.098 Y-28.949
X5.393 Y-28.897
X5.706 Y-28.838
X6. Y-28.78
X6.294 Y-28.718
X6.586 Y-28.653
X6.897 Y-28.581
X7.189 Y-28.51
X7.479 Y-28.436
X7.769 Y-28.359
X8.077 Y-28.274
X8.369 Y-28.19
X8.656 Y-28.104
X8.942 Y-28.015
X9.245 Y-27.917
X9.537 Y-27.82
X9.821 Y-27.722
X10.103 Y-27.621
X10.4 Y-27.512
X10.69 Y-27.401
X10.969 Y-27.292
X11.247 Y-27.179
X11.536 Y-27.058
X11.822 Y-26.935
X12.097 Y-26.813
X12.37 Y-26.689
X12.642 Y-26.561
X12.915 Y-26.429
X13.184 Y-26.296
X13.451 Y-26.159
X13.716 Y-26.019
X13.98 Y-25.876
X14.111 Y-25.804
X14.372 Y-25.656
X14.631 Y-25.504
X14.76 Y-25.427
X14.888 Y-25.35
X15.016 Y-25.271
X15.143 Y-25.191
X15.27 Y-25.111
X15.396 Y-25.029
X15.521 Y-24.947
X15.646 Y-24.863
X15.77 Y-24.779
X15.893 Y-24.694
X16.016 Y-24.607
X16.137 Y-24.52
X16.258 Y-24.431
X16.379 Y-24.342
X16.498 Y-24.251
X16.617 Y-24.159
X16.735 Y-24.066
X16.852 Y-23.972
X16.968 Y-23.877
X17.083 Y-23.781
X17.196 Y-23.683
X17.309 Y-23.585
X17.421 Y-23.485
X17.532 Y-23.384
X17.642 Y-23.281
X17.75 Y-23.178
X17.857 Y-23.073
X17.963 Y-22.967
X18.068 Y-22.859
X18.172 Y-22.751
X18.274 Y-22.641
X18.374 Y-22.529
X18.473 Y-22.417
X18.571 Y-22.303
X18.667 Y-22.188
X18.761 Y-22.071
X18.853 Y-21.953
X18.944 Y-21.833
X19.032 Y-21.712
X19.118 Y-21.589
X19.202 Y-21.465
X19.284 Y-21.339
X19.363 Y-21.211
X19.439 Y-21.082
X19.514 Y-20.952
X19.585 Y-20.82
X19.653 Y-20.686
X19.718 Y-20.551
X19.78 Y-20.415
X19.839 Y-20.277
X19.895 Y-20.138
X19.948 Y-19.997
X19.997 Y-19.855
X20.041 Y-19.712
X20.083 Y-19.568
X20.121 Y-19.423
X20.154 Y-19.277
X20.184 Y-19.13
X20.21 Y-18.982
X20.231 Y-18.833
X20.248 Y-18.684
X20.231 Y-18.335
X20.153 Y-17.994
X20.017 Y-17.672
X19.827 Y-17.379
X19.588 Y-17.123
X19.309 Y-16.913
X19.22 Y-16.877 Z-7.994
X19.132 Y-16.842 Z-7.976
X19.048 Y-16.808 Z-7.948
X18.979 Y-16.799 Z-7.917
X18.914 Y-16.789 Z-7.88
X18.853 Y-16.781 Z-7.837
X18.776 Y-16.777 Z-7.769
X18.708 Y-16.774 Z-7.692
X18.651 Y-16.772 Z-7.607
X18.606 Y-16.77 Z-7.515
X18.573 Y-16.769 Z-7.417
X18.554 Y-16.768 Z-7.317
X18.547 Z-7.215
G0 Z5.
X35.667 Y-27.557
Z-6.
G1 Z-7. F2328.
X35.662 Y-27.552 Z-7.121
X35.647 Y-27.536 Z-7.239
X35.621 Y-27.511 Z-7.355
X35.586 Y-27.477 Z-7.465
X35.541 Y-27.433 Z-7.568
X35.488 Y-27.381 Z-7.663
X35.427 Y-27.321 Z-7.749
X35.359 Y-27.255 Z-7.823
X35.285 Y-27.182 Z-7.885
X35.206 Y-27.105 Z-7.935
X35.124 Y-27.025 Z-7.971
X35.039 Y-26.942 Z-7.993
X34.953 Y-26.857 Z-8.
G3 X30.629 Y-23.457 I-17.852 J-18.251
G1 X30.455 Y-23.357
X30.422 Y-23.34
X30.273 Y-23.357
X30.125 Y-23.384
X29.979 Y-23.419
X29.835 Y-23.459
X29.692 Y-23.505
X29.55 Y-23.554
X29.41 Y-23.607
X29.27 Y-23.662
X29.132 Y-23.72
X28.995 Y-23.78
X28.858 Y-23.843
X28.723 Y-23.907
X28.589 Y-23.974
X28.327 Y-24.09
X28.056 Y-24.183
X27.778 Y-24.254
X27.495 Y-24.3
X27.21 Y-24.323
X26.923 Y-24.322
X26.638 Y-24.296
X26.356 Y-24.247
X26.079 Y-24.174
X25.809 Y-24.078
X25.548 Y-23.96
X25.298 Y-23.82
X25.061 Y-23.659
X24.838 Y-23.479
X24.631 Y-23.281
X24.441 Y-23.066
X24.27 Y-22.837
X24.12 Y-22.593
X23.6 Y-21.572
X23.534 Y-21.264
X23.462 Y-20.942
X23.393 Y-20.65
X23.331 Y-20.4
X23.195 Y-19.981
X23.005 Y-19.585
X22.764 Y-19.217
X22.476 Y-18.885
X22.146 Y-18.593
X21.781 Y-18.349
X19.48 Y-17.02
X19.309 Y-16.913
X19.22 Y-16.877 Z-7.994
X19.132 Y-16.842 Z-7.976
X19.048 Y-16.808 Z-7.948
X18.963 Y-16.798 Z-7.909
X18.884 Y-16.789 Z-7.86
X18.81 Y-16.78 Z-7.802
X18.733 Z-7.723
X18.668 Z-7.634
X18.616 Z-7.537
X18.577 Z-7.433
X18.554 Z-7.325
X18.547 Z-7.215
G0 Z5.
X31.486 Y-24.798
Z-6.
G1 Z-7. F2328.
X31.482 Y-24.791 Z-7.121
X31.472 Y-24.772 Z-7.239
X31.454 Y-24.741 Z-7.355
X31.43 Y-24.698 Z-7.465
X31.399 Y-24.643 Z-7.568
X31.363 Y-24.578 Z-7.663
X31.321 Y-24.504 Z-7.749
X31.275 Y-24.421 Z-7.823
X31.224 Y-24.331 Z-7.885
X31.17 Y-24.235 Z-7.935
X31.114 Y-24.134 Z-7.971
X31.056 Y-24.03 Z-7.993
X30.997 Y-23.925 Z-8.
G3 X30.455 Y-23.357 I-1.381 J-0.774
G1 X21.781 Y-18.349
X21.776 Y-18.347
G2 X15.547 Y-15.241 I3.89 J15.602
X15.19 Y-14.627 I0.629 J0.777
G1 X11.916 Y5.123
G2 X12.057 Y5.819 I0.987 J0.164
X16.951 Y10.768 I13.61 J-8.564
G1 X16.959 Y10.79
X16.783 Y11.391
X16.731 Y11.689
X16.69 Y11.989
X16.665 Y12.289
Y12.379
X16.656 Y12.596
X16.636 Y12.803
X16.601 Y13.026
X16.545 Y13.293
X16.472 Y13.568
X16.369 Y13.881
X16.235 Y14.225
X16.069 Y14.59
X15.857 Y14.996
X15.606 Y15.418
X15.298 Y15.877
X14.93 Y16.366
X14.513 Y16.86
X14.006 Y17.398
X13.438 Y17.939
X12.808 Y18.476
X12.085 Y19.027
X11.278 Y19.575
X10.398 Y20.104
X9.468 Y20.596
X8.488 Y21.048
X7.445 Y21.461
X6.358 Y21.824
X5.253 Y22.127
X4.133 Y22.371
X3.002 Y22.556
X1.864 Y22.683
X0.72 Y22.751
X-0.426 Y22.761
X-1.571 Y22.714
X-2.712 Y22.608
X-3.846 Y22.445
X-4.971 Y22.225
X-6.083 Y21.948
X-7.179 Y21.614
X-8.257 Y21.226
X-9.315 Y20.786
X-10.351 Y20.296
X-11.363 Y19.757
X-12.349 Y19.174
X-13.309 Y18.548
X-14.241 Y17.881
X-15.136 Y17.182
X-15.706 Y16.684
X-15.816 Y16.576
X-16.123 Y16.232
X-16.38 Y15.85
X-16.582 Y15.436
X-16.726 Y14.998
X-16.808 Y14.545
X-16.827 Y14.085
X-16.783 Y13.626
X-16.76 Y13.487
X-16.734 Y13.323
G3 X-15.787 Y12.509 I0.983 J0.186
G1 X15.632 Y11.422
G3 X16.665 Y12.379 I0.035 J0.999
G1 X16.669 Y12.888
X16.714 Y13.188
X16.76 Y13.487
X16.783 Y13.626
X16.798 Y13.675
X16.835 Y13.82
X16.861 Y13.968
X16.88 Y14.127
X16.891 Y14.301
X16.893 Y14.499
X16.883 Y14.712
X16.858 Y14.954
X16.818 Y15.208
X16.757 Y15.495
X16.675 Y15.794
X16.564 Y16.128
X16.426 Y16.478
X16.253 Y16.857
X16.038 Y17.263
X15.789 Y17.679
X15.476 Y18.142
X15.13 Y18.597
X14.711 Y19.09
X14.216 Y19.612
X13.681 Y20.117
X13.056 Y20.646
X12.342 Y21.186
X11.555 Y21.715
X10.722 Y22.212
X9.798 Y22.696
X8.794 Y23.154
X7.727 Y23.572
X6.639 Y23.931
X5.534 Y24.233
X4.415 Y24.479
X3.285 Y24.669
X2.147 Y24.805
X1.004 Y24.886
X-0.142 Y24.912
X-1.287 Y24.884
X-2.43 Y24.802
X-3.568 Y24.666
X-4.698 Y24.477
X-5.819 Y24.236
X-6.927 Y23.944
X-8.021 Y23.603
X-9.098 Y23.212
X-10.157 Y22.774
X-11.196 Y22.292
X-12.214 Y21.765
X-13.209 Y21.196
X-14.179 Y20.587
X-14.966 Y20.041
X-15.509 Y19.618
X-15.964 Y19.222
X-16.336 Y18.861
X-16.642 Y18.529
X-16.929 Y18.183
X-17.158 Y17.872
X-17.269 Y17.703
X-17.465 Y17.344
X-17.601 Y16.958
X-17.673 Y16.556
X-17.68 Y16.146
X-17.621 Y15.742
X-17.498 Y15.351
X-17.314 Y14.986
X-17.233 Y14.821
G3 X-16.391 Y14.294 I0.882 J0.472
G1 X15.814 Y13.005
G3 X16.798 Y13.675 I0.04 J0.999
G1 X16.926 Y14.087
X17.026 Y14.387
X17.166 Y14.686
X17.211 Y14.777
X17.274 Y14.924
X17.326 Y15.065
X17.369 Y15.209
X17.406 Y15.368
X17.436 Y15.537
X17.459 Y15.731
X17.473 Y15.938
X17.475 Y16.167
X17.464 Y16.418
X17.438 Y16.684
X17.392 Y16.982
X17.328 Y17.286
X17.235 Y17.629
X17.12 Y17.979
X16.97 Y18.362
X16.784 Y18.771
X16.567 Y19.184
X16.295 Y19.641
X15.986 Y20.101
X15.621 Y20.584
X15.182 Y21.104
X14.701 Y21.614
X14.153 Y22.134
X13.518 Y22.674
X12.797 Y23.222
X12.032 Y23.74
X11.179 Y24.252
X10.235 Y24.75
X9.208 Y25.222
X8.142 Y25.642
X7.056 Y26.006
X5.952 Y26.315
X4.835 Y26.571
X3.708 Y26.774
X2.572 Y26.924
X1.43 Y27.022
X0.285 Y27.069
X-0.861 Y27.064
X-2.006 Y27.008
X-3.147 Y26.903
X-4.282 Y26.749
X-5.41 Y26.546
X-6.528 Y26.296
X-7.635 Y25.999
X-8.729 Y25.657
X-9.807 Y25.27
X-10.87 Y24.841
X-11.914 Y24.369
X-12.939 Y23.856
X-13.942 Y23.302
X-14.866 Y22.728
X-15.61 Y22.209
X-16.253 Y21.704
X-16.776 Y21.245
X-17.207 Y20.824
X-17.528 Y20.473
X-17.823 Y20.114
X-18.048 Y19.806
X-18.262 Y19.477
X-18.428 Y19.189
X-18.501 Y19.044
X-18.663 Y18.65
X-18.76 Y18.235
X-18.791 Y17.81
X-18.755 Y17.385
X-18.653 Y16.971
X-18.487 Y16.579
X-18.261 Y16.217
X-17.982 Y15.896
G3 X-17.328 Y15.616 I0.695 J0.719
G1 X-17.27 Y15.613
X16.288 Y14.249
G3 X17.211 Y14.777 I0.041 J0.999
G1 X17.314 Y14.986
X17.382 Y15.099
X17.505 Y15.286
X17.682 Y15.532
X17.724 Y15.585
X17.814 Y15.706
X17.901 Y15.828
X17.978 Y15.956
X18.047 Y16.09
X18.107 Y16.227
X18.159 Y16.368
X18.205 Y16.511
X18.244 Y16.656
X18.276 Y16.802
X18.302 Y16.95
X18.323 Y17.098
X18.338 Y17.248
X18.349 Y17.397
X18.354 Y17.547
Y17.697
X18.35 Y17.847
X18.342 Y17.997
X18.329 Y18.146
X18.312 Y18.295
X18.292 Y18.444
X18.268 Y18.592
X18.24 Y18.739
X18.209 Y18.886
X18.175 Y19.032
X18.137 Y19.177
X18.096 Y19.322
X18.052 Y19.465
X18.006 Y19.608
X17.956 Y19.749
X17.904 Y19.89
X17.85 Y20.03
X17.792 Y20.168
X17.733 Y20.306
X17.671 Y20.443
X17.607 Y20.578
X17.54 Y20.713
X17.471 Y20.846
X17.401 Y20.978
X17.328 Y21.109
X17.253 Y21.239
X17.176 Y21.368
X17.097 Y21.496
X17.017 Y21.622
X16.935 Y21.748
X16.851 Y21.872
X16.765 Y21.995
X16.678 Y22.117
X16.589 Y22.238
X16.499 Y22.358
X16.407 Y22.477
X16.314 Y22.594
X16.219 Y22.711
X16.123 Y22.826
X16.026 Y22.94
X15.927 Y23.053
X15.827 Y23.165
X15.726 Y23.275
X15.623 Y23.385
X15.519 Y23.493
X15.414 Y23.6
X15.308 Y23.706
X15.201 Y23.811
X15.093 Y23.915
X14.984 Y24.018
X14.874 Y24.12
X14.762 Y24.22
X14.65 Y24.32
X14.537 Y24.418
X14.423 Y24.515
X14.308 Y24.612
X14.192 Y24.707
X14.075 Y24.801
X13.957 Y24.894
X13.838 Y24.986
X13.719 Y25.076
X13.599 Y25.166
X13.478 Y25.255
X13.356 Y25.343
X13.234 Y25.429
X13.111 Y25.515
X12.987 Y25.599
X12.862 Y25.683
X12.737 Y25.765
X12.611 Y25.847
X12.484 Y25.927
X12.357 Y26.006
X12.229 Y26.085
X12.1 Y26.162
X11.971 Y26.239
X11.842 Y26.314
X11.711 Y26.388
X11.58 Y26.461
X11.449 Y26.534
X11.317 Y26.605
X11.185 Y26.676
X11.052 Y26.745
X10.918 Y26.813
X10.784 Y26.881
X10.65 Y26.947
X10.515 Y27.013
X10.243 Y27.141
X10.107 Y27.203
X9.97 Y27.265
X9.833 Y27.326
X9.696 Y27.386
X9.558 Y27.444
X9.28 Y27.559
X9.002 Y27.67
X8.862 Y27.725
X8.722 Y27.778
X8.581 Y27.83
X8.299 Y27.932
X8.015 Y28.03
X7.731 Y28.125
X7.588 Y28.171
X7.302 Y28.26
X7.014 Y28.345
X6.725 Y28.427
X6.436 Y28.506
X6.146 Y28.581
X5.854 Y28.652
X5.562 Y28.72
X5.269 Y28.785
X4.975 Y28.846
X4.681 Y28.904
X4.386 Y28.958
X4.09 Y29.009
X3.794 Y29.056
X3.497 Y29.1
X3.2 Y29.14
X2.902 Y29.178
X2.604 Y29.211
X2.306 Y29.242
X2.007 Y29.269
X1.708 Y29.293
X1.408 Y29.313
X1.109 Y29.33
X0.809 Y29.343
X0.506 Y29.354
X0.206 Y29.361
X-0.094 Y29.365
X-0.394 Y29.366
X-0.7 Y29.363
X-1. Y29.357
X-1.3 Y29.348
X-1.6 Y29.336
X-1.907 Y29.32
X-2.206 Y29.301
X-2.505 Y29.279
X-2.805 Y29.254
X-3.116 Y29.224
X-3.414 Y29.193
X-3.712 Y29.158
X-4.012 Y29.12
X-4.326 Y29.077
X-4.623 Y29.033
X-4.919 Y28.985
X-5.218 Y28.934
X-5.534 Y28.877
X-5.829 Y28.821
X-6.123 Y28.761
X-6.42 Y28.697
X-6.738 Y28.626
X-7.03 Y28.557
X-7.321 Y28.485
X-7.617 Y28.409
X-7.935 Y28.324
X-8.224 Y28.243
X-8.512 Y28.159
X-8.808 Y28.07
X-9.125 Y27.97
X-9.411 Y27.878
X-9.695 Y27.782
X-9.99 Y27.679
X-10.305 Y27.566
X-10.587 Y27.462
X-10.867 Y27.355
X-11.157 Y27.24
X-11.466 Y27.115
X-11.743 Y26.999
X-12.018 Y26.88
X-12.292 Y26.759
X-12.578 Y26.628
X-12.849 Y26.501
X-13.119 Y26.37
X-13.388 Y26.237
X-13.655 Y26.1
X-13.788 Y26.03
X-13.92 Y25.96
X-14.184 Y25.816
X-14.445 Y25.669
X-14.575 Y25.595
X-14.705 Y25.519
X-14.834 Y25.443
X-14.962 Y25.366
X-15.218 Y25.208
X-15.345 Y25.128
X-15.471 Y25.047
X-15.597 Y24.965
X-15.722 Y24.882
X-15.846 Y24.799
X-15.97 Y24.714
X-16.093 Y24.628
X-16.215 Y24.541
X-16.337 Y24.453
X-16.457 Y24.364
X-16.577 Y24.274
X-16.696 Y24.183
X-16.815 Y24.091
X-16.932 Y23.997
X-17.049 Y23.903
X-17.164 Y23.807
X-17.279 Y23.71
X-17.392 Y23.612
X-17.505 Y23.513
X-17.616 Y23.413
X-17.727 Y23.311
X-17.836 Y23.208
X-17.944 Y23.104
X-18.05 Y22.999
X-18.156 Y22.892
X-18.26 Y22.784
X-18.363 Y22.675
X-18.464 Y22.564
X-18.563 Y22.452
X-18.661 Y22.338
X-18.757 Y22.223
X-18.852 Y22.106
X-18.944 Y21.988
X-19.035 Y21.869
X-19.123 Y21.747
X-19.209 Y21.625
X-19.293 Y21.5
X-19.375 Y21.374
X-19.454 Y21.247
X-19.53 Y21.118
X-19.603 Y20.987
X-19.674 Y20.854
X-19.742 Y20.721
X-19.806 Y20.585
X-19.868 Y20.449
X-19.926 Y20.31
X-19.981 Y20.171
X-20.032 Y20.03
X-20.08 Y19.888
X-20.125 Y19.744
X-20.165 Y19.6
X-20.201 Y19.454
X-20.234 Y19.308
X-20.263 Y19.161
X-20.287 Y19.013
X-20.307 Y18.864
X-20.294 Y18.478
X-20.213 Y18.099
X-20.066 Y17.742
X-19.858 Y17.416
X-19.595 Y17.132
X-19.286 Y16.899
X-19.198 Y16.864 Z-7.994
X-19.11 Y16.828 Z-7.976
X-19.025 Y16.795 Z-7.948
X-18.957 Y16.785 Z-7.917
X-18.891 Y16.775 Z-7.88
X-18.83 Y16.767 Z-7.836
X-18.753 Y16.763 Z-7.769
X-18.686 Y16.761 Z-7.692
X-18.629 Y16.758 Z-7.606
X-18.584 Y16.756 Z-7.514
X-18.551 Y16.755 Z-7.417
X-18.531 Y16.754 Z-7.317
X-18.525 Z-7.215
G0 Z5.
X-35.667 Y27.557
Z-6.
G1 Z-7. F2328.
X-35.662 Y27.552 Z-7.121
X-35.647 Y27.536 Z-7.239
X-35.621 Y27.511 Z-7.355
X-35.586 Y27.477 Z-7.465
X-35.541 Y27.433 Z-7.568
X-35.488 Y27.381 Z-7.663
X-35.427 Y27.321 Z-7.749
X-35.359 Y27.255 Z-7.823
X-35.285 Y27.182 Z-7.885
X-35.206 Y27.105 Z-7.935
X-35.124 Y27.025 Z-7.971
X-35.039 Y26.942 Z-7.993
X-34.953 Y26.857 Z-8.
G3 X-30.629 Y23.457 I17.852 J18.251
G1 X-30.455 Y23.357
X-30.422 Y23.34
X-30.273 Y23.357
X-30.125 Y23.384
X-29.979 Y23.419
X-29.835 Y23.459
X-29.692 Y23.505
X-29.55 Y23.554
X-29.41 Y23.607
X-29.27 Y23.662
X-29.132 Y23.72
X-28.995 Y23.78
X-28.858 Y23.843
X-28.593 Y23.95
X-28.319 Y24.036
X-28.04 Y24.098
X-27.756 Y24.136
X-27.47 Y24.15
X-27.183 Y24.14
X-26.899 Y24.105
X-26.618 Y24.047
X-26.344 Y23.966
X-26.077 Y23.862
X-25.82 Y23.736
X-25.574 Y23.588
X-25.342 Y23.42
X-25.124 Y23.234
X-24.923 Y23.03
X-24.741 Y22.809
X-24.085 Y21.869
X-23.818 Y20.991
X-23.749 Y20.768
X-23.642 Y20.433
X-23.628 Y20.389
X-23.445 Y19.943
X-23.199 Y19.528
X-22.895 Y19.154
X-22.54 Y18.827
X-22.141 Y18.557
X-19.48 Y17.02
X-19.286 Y16.899
X-19.198 Y16.864 Z-7.994
X-19.11 Y16.828 Z-7.976
X-19.025 Y16.795 Z-7.948
X-18.941 Y16.784 Z-7.909
X-18.861 Y16.775 Z-7.86
X-18.788 Y16.766 Z-7.802
X-18.711 Z-7.723
X-18.645 Z-7.634
X-18.593 Z-7.536
X-18.555 Z-7.433
X-18.532 Z-7.325
X-18.524 Z-7.215
G0 Z5.
X-31.486 Y24.798
Z-6.
G1 Z-7. F2328.
X-31.482 Y24.791 Z-7.121
X-31.472 Y24.772 Z-7.239
X-31.454 Y24.741 Z-7.355
X-31.43 Y24.698 Z-7.465
X-31.399 Y24.643 Z-7.568
X-31.363 Y24.578 Z-7.663
X-31.321 Y24.504 Z-7.749
X-31.275 Y24.421 Z-7.823
X-31.224 Y24.331 Z-7.885
X-31.17 Y24.235 Z-7.935
X-31.114 Y24.134 Z-7.971
X-31.056 Y24.03 Z-7.993
X-30.997 Y23.925 Z-8.
G3 X-30.455 Y23.357 I1.381 J0.774
G1 X-22.141 Y18.557
X-22.051 Y18.524 Z-7.994
X-21.962 Y18.492 Z-7.976
X-21.876 Y18.461 Z-7.948
X-21.804 Y18.453 Z-7.915
X-21.736 Y18.446 Z-7.876
X-21.671 Y18.439 Z-7.829
X-21.591 Y18.451 Z-7.754
X-21.521 Y18.461 Z-7.669
X-21.464 Y18.469 Z-7.574
X-21.421 Y18.475 Z-7.472
X-21.393 Y18.479 Z-7.365
X-21.382 Y18.482 Z-7.29
X-21.379 Y18.483 Z-7.215
G0 Z5.
X-17.036 Y-15.25
Z-7.
G1 Z-8. F2328.
G3 X-17.724 Y-15.585 I0.061 J-0.998
G1 X-17.971 Y-15.885
X-18.281 Y-16.19
X-18.435 Y-16.319
X-18.545 Y-16.421
X-18.651 Y-16.528
X-18.748 Y-16.642
X-18.837 Y-16.763
X-18.918 Y-16.889
X-18.992 Y-17.019
X-19.059 Y-17.154
X-19.12 Y-17.291
X-19.174 Y-17.431
X-19.222 Y-17.573
X-19.264 Y-17.717
X-19.301 Y-17.862
X-19.333 Y-18.009
X-19.36 Y-18.156
X-19.381 Y-18.305
X-19.398 Y-18.454
X-19.411 Y-18.603
X-19.419 Y-18.753
X-19.423 Y-18.903
Y-19.053
X-19.419 Y-19.203
X-19.411 Y-19.353
X-19.399 Y-19.502
X-19.384 Y-19.651
X-19.366 Y-19.8
X-19.344 Y-19.949
X-19.319 Y-20.097
X-19.29 Y-20.244
X-19.259 Y-20.391
X-19.225 Y-20.537
X-19.188 Y-20.682
X-19.148 Y-20.827
X-19.106 Y-20.97
X-19.06 Y-21.114
X-19.013 Y-21.256
X-18.963 Y-21.397
X-18.91 Y-21.538
X-18.855 Y-21.677
X-18.798 Y-21.816
X-18.738 Y-21.954
X-18.677 Y-22.09
X-18.613 Y-22.226
X-18.548 Y-22.361
X-18.48 Y-22.495
X-18.41 Y-22.628
X-18.339 Y-22.76
X-18.265 Y-22.89
X-18.19 Y-23.02
X-18.113 Y-23.149
X-18.035 Y-23.277
X-17.954 Y-23.403
X-17.872 Y-23.529
X-17.789 Y-23.654
X-17.704 Y-23.777
X-17.617 Y-23.9
X-17.529 Y-24.021
X-17.44 Y-24.142
X-17.349 Y-24.261
X-17.257 Y-24.379
X-17.167 Y-24.491
G3 X-15.429 Y-23.635 I0.759 J0.651
G1 X-16.84 Y-16.902
G3 X-18.435 Y-16.319 I-0.979 J-0.205
G1 X-18.581 Y-16.442
X-18.633 Y-16.485
X-18.881 Y-16.646
X-19.271 Y-16.89
X-19.394 Y-16.975
X-19.515 Y-17.065
X-19.627 Y-17.164
X-19.733 Y-17.27
X-19.832 Y-17.383
X-19.924 Y-17.501
X-20.01 Y-17.624
X-20.09 Y-17.751
X-20.164 Y-17.882
X-20.232 Y-18.015
X-20.295 Y-18.151
X-20.352 Y-18.29
X-20.404 Y-18.431
X-20.451 Y-18.573
X-20.494 Y-18.717
X-20.531 Y-18.862
X-20.564 Y-19.008
X-20.593 Y-19.156
X-20.618 Y-19.304
X-20.638 Y-19.452
X-20.654 Y-19.601
X-20.667 Y-19.751
X-20.675 Y-19.901
X-20.68 Y-20.051
X-20.702 Y-20.336
X-20.748 Y-20.619
X-20.818 Y-20.897
X-20.911 Y-21.168
X-21.026 Y-21.43
X-21.163 Y-21.682
X-21.321 Y-21.921
X-21.498 Y-22.146
X-21.694 Y-22.355
X-21.906 Y-22.547
X-22.134 Y-22.721
X-22.376 Y-22.875
X-22.63 Y-23.008
X-22.894 Y-23.119
X-23.166 Y-23.207
X-23.445 Y-23.272
X-23.729 Y-23.314
X-24.015 Y-23.331
X-24.301 Y-23.324
X-24.586 Y-23.294
X-24.867 Y-23.239
X-25.143 Y-23.161
X-26.215 Y-22.756
X-26.637 Y-22.545
X-27.087 Y-22.4
X-27.553 Y-22.325
X-28.025 Y-22.321
X-28.492 Y-22.388
X-28.944 Y-22.526
X-29.37 Y-22.73
X-29.443 Y-22.792 Z-7.994
X-29.515 Y-22.852 Z-7.976
X-29.585 Y-22.911 Z-7.948
X-29.628 Y-22.976 Z-7.913
X-29.669 Y-23.037 Z-7.87
X-29.707 Y-23.093 Z-7.819
X-29.741 Y-23.145 Z-7.761
X-29.763 Y-23.207 Z-7.684
X-29.781 Y-23.258 Z-7.6
X-29.795 Y-23.299 Z-7.509
X-29.806 Y-23.329 Z-7.414
X-29.812 Y-23.347 Z-7.315
X-29.814 Y-23.353 Z-7.215
G0 Z5.
X-18.509 Y-16.757
Z-7.
G1 Z-8. F2328.
X-18.772 Y-16.756
G3 X-19.271 Y-16.89 I0. J-1.
G1 X-19.48 Y-17.02
X-26.538 Y-21.095
X-26.611 Y-21.157 Z-7.994
X-26.683 Y-21.217 Z-7.976
X-26.753 Y-21.276 Z-7.948
X-26.796 Y-21.341 Z-7.913
X-26.837 Y-21.402 Z-7.87
X-26.875 Y-21.458 Z-7.819
X-26.909 Y-21.51 Z-7.761
X-26.931 Y-21.571 Z-7.684
X-26.949 Y-21.623 Z-7.6
X-26.963 Y-21.664 Z-7.509
X-26.974 Y-21.694 Z-7.414
X-26.98 Y-21.712 Z-7.315
X-26.982 Y-21.718 Z-7.215
G0 Z5.
X17.036 Y15.25
Z-7.
G1 Z-8. F2328.
G3 X17.724 Y15.585 I-0.061 J0.998
G1 X17.971 Y15.885
X18.281 Y16.19
X18.446 Y16.328
X18.556 Y16.431
X18.662 Y16.536
X18.76 Y16.65
X18.849 Y16.771
X18.931 Y16.897
X19.005 Y17.027
X19.072 Y17.161
X19.133 Y17.298
X19.188 Y17.438
X19.236 Y17.58
X19.279 Y17.724
X19.316 Y17.869
X19.348 Y18.016
X19.375 Y18.163
X19.397 Y18.312
X19.414 Y18.461
X19.427 Y18.61
X19.436 Y18.76
X19.44 Y18.91
Y19.06
X19.436 Y19.21
X19.428 Y19.359
X19.417 Y19.509
X19.402 Y19.658
X19.384 Y19.807
X19.362 Y19.956
X19.338 Y20.104
X19.31 Y20.251
X19.278 Y20.398
X19.244 Y20.544
X19.208 Y20.689
X19.168 Y20.834
X19.126 Y20.978
X19.081 Y21.121
X19.033 Y21.263
X18.983 Y21.404
X18.931 Y21.545
X18.876 Y21.685
X18.819 Y21.823
X18.76 Y21.961
X18.698 Y22.098
X18.635 Y22.234
X18.569 Y22.369
X18.501 Y22.503
X18.432 Y22.636
X18.36 Y22.768
X18.287 Y22.898
X18.212 Y23.028
X18.135 Y23.157
X18.057 Y23.285
X17.977 Y23.412
X17.895 Y23.537
X17.811 Y23.662
X17.726 Y23.786
X17.64 Y23.908
X17.552 Y24.03
X17.463 Y24.15
X17.372 Y24.27
X17.28 Y24.388
G3 X15.532 Y23.551 I-0.767 J-0.642
G1 X16.849 Y16.921
G3 X18.446 Y16.328 I0.981 J0.195
G1 X18.581 Y16.442
X18.633 Y16.485
X18.881 Y16.646
X19.271 Y16.89
X19.394 Y16.975
X19.516 Y17.063
X19.629 Y17.161
X19.736 Y17.267
X19.836 Y17.379
X19.929 Y17.496
X20.016 Y17.618
X20.096 Y17.745
X20.171 Y17.875
X20.24 Y18.008
X20.304 Y18.144
X20.362 Y18.282
X20.415 Y18.423
X20.463 Y18.565
X20.506 Y18.709
X20.544 Y18.854
X20.578 Y19.
X20.607 Y19.147
X20.632 Y19.295
X20.653 Y19.443
X20.67 Y19.592
X20.683 Y19.742
X20.693 Y19.891
X20.703 Y20.178
X20.738 Y20.462
X20.796 Y20.742
X20.878 Y21.017
X20.983 Y21.284
X21.109 Y21.541
X21.257 Y21.786
X21.425 Y22.018
X21.612 Y22.235
X21.817 Y22.436
X22.038 Y22.618
X22.273 Y22.781
X22.521 Y22.924
X22.781 Y23.046
X23.049 Y23.145
X23.325 Y23.222
X23.607 Y23.274
X23.892 Y23.303
X24.178 Y23.308
X24.464 Y23.289
X24.747 Y23.246
X25.026 Y23.179
X26.114 Y22.818
X26.454 Y22.595
X26.823 Y22.425
X27.213 Y22.31
X27.615 Y22.254
X28.022 Y22.258
X28.423 Y22.321
X28.811 Y22.442
X29.177 Y22.619
X29.25 Y22.681 Z-7.994
X29.322 Y22.741 Z-7.976
X29.392 Y22.8 Z-7.948
X29.435 Y22.864 Z-7.913
X29.476 Y22.925 Z-7.87
X29.514 Y22.982 Z-7.819
X29.549 Y23.034 Z-7.761
X29.57 Y23.095 Z-7.684
X29.588 Y23.147 Z-7.6
X29.603 Y23.188 Z-7.509
X29.613 Y23.218 Z-7.414
X29.62 Y23.236 Z-7.315
X29.622 Y23.242 Z-7.215
G0 Z5.
X18.509 Y16.756
Z-7.
G1 Z-8. F2328.
X18.772
G3 X19.271 Y16.89 I0. J1.
G1 X19.48 Y17.02
X26.538 Y21.095
X26.611 Y21.157 Z-7.994
X26.683 Y21.217 Z-7.976
X26.753 Y21.276 Z-7.948
X26.796 Y21.341 Z-7.913
X26.837 Y21.402 Z-7.87
X26.875 Y21.458 Z-7.819
X26.909 Y21.51 Z-7.761
X26.931 Y21.571 Z-7.684
X26.949 Y21.623 Z-7.6
X26.963 Y21.664 Z-7.509
X26.974 Y21.694 Z-7.414
X26.98 Y21.712 Z-7.315
X26.982 Y21.718 Z-7.215
G0 Z5.
X-6.007 Y1.089
Z-10.
G1 Z-11. F2328.
X-6.013 Y1.093 Z-11.121
X-6.031 Y1.105 Z-11.239
X-6.06 Y1.126 Z-11.355
X-6.101 Y1.154 Z-11.465
X-6.153 Y1.189 Z-11.568
X-6.214 Y1.231 Z-11.663
X-6.285 Y1.279 Z-11.749
X-6.363 Y1.333 Z-11.823
X-6.448 Y1.391 Z-11.885
X-6.539 Y1.453 Z-11.935
X-6.634 Y1.518 Z-11.971
X-6.732 Y1.585 Z-11.993
X-6.832 Y1.653 Z-12.
G3 X-11.68 Y4.251 I-14.411 J-21.073
G1 X-11.79 Y4.291
X-11.93 Y4.238
X-12.058 Y4.16
X-12.18 Y4.072
X-12.312 Y3.963
X-12.462 Y3.826
X-12.566 Y3.719
X-12.686 Y3.582
X-12.822 Y3.408
X-12.974 Y3.189
X-13.143 Y2.915
X-13.308 Y2.613
X-13.429 Y2.359
X-13.557 Y2.045
X-13.693 Y1.655
X-13.833 Y1.168
X-13.927 Y0.755
X-14.001 Y0.326
X-14.062 Y-0.208
X-14.103 Y-0.884
X-14.106 Y-1.351
X-14.078 Y-1.921
X-14.002 Y-2.641
X-13.902 Y-3.265
X-13.774 Y-3.858
X-13.568 Y-4.607
X-13.344 Y-5.275
X-13.105 Y-5.875
X-12.755 Y-6.633
X-12.423 Y-7.259
X-12.067 Y-7.85
X-11.56 Y-8.595
X-11.159 Y-9.121
X-10.679 Y-9.682
X-10.032 Y-10.36
X-9.582 Y-10.784
X-8.975 Y-11.294
X-8.27 Y-11.824
X-7.723 Y-12.19
X-6.988 Y-12.626
X-6.278 Y-12.996
X-5.636 Y-13.286
X-4.776 Y-13.621
X-4.114 Y-13.837
X-3.385 Y-14.032
X-2.454 Y-14.226
X-1.831 Y-14.321
X-1.025 Y-14.4
X-0.149 Y-14.436
X0.524 Y-14.428
X1.395 Y-14.368
X2.171 Y-14.273
X2.879 Y-14.146
X3.798 Y-13.928
X4.438 Y-13.739
X5.164 Y-13.481
X6.026 Y-13.12
X6.604 Y-12.84
X7.328 Y-12.439
X8.049 Y-11.985
X8.609 Y-11.589
X9.31 Y-11.034
X9.871 Y-10.536
X10.393 Y-10.019
X11.043 Y-9.302
X11.439 Y-8.812
X11.9 Y-8.175
X12.394 Y-7.407
X12.717 Y-6.838
X13.094 Y-6.079
X13.421 Y-5.322
X13.662 Y-4.665
X13.93 Y-3.79
X14.102 Y-3.094
X14.242 Y-2.359
X14.37 Y-1.405
X14.419 Y-0.781
X14.437 Y0.023
X14.409 Y0.911
X14.352 Y1.576
X14.23 Y2.434
X14.075 Y3.213
X13.898 Y3.905
X13.616 Y4.798
X13.376 Y5.436
X13.068 Y6.136
X12.642 Y6.975
X12.322 Y7.527
X11.872 Y8.215
X11.361 Y8.909
X10.928 Y9.435
X10.328 Y10.087
X9.782 Y10.619
X9.233 Y11.098
X8.475 Y11.688
X7.947 Y12.056
X7.282 Y12.466
X6.474 Y12.905
X5.887 Y13.184
X5.108 Y13.503
X4.32 Y13.776
X3.652 Y13.967
X2.767 Y14.169
X2.049 Y14.292
X1.31 Y14.377
X0.344 Y14.434
X-0.279 Y14.437
X-1.076 Y14.397
X-1.968 Y14.304
X-2.623 Y14.198
X-3.463 Y14.015
X-4.239 Y13.801
X-4.911 Y13.575
X-5.775 Y13.232
X-6.404 Y12.94
X-7.075 Y12.584
X-7.887 Y12.094
X-8.411 Y11.737
X-9.059 Y11.241
X-9.721 Y10.675
X-10.21 Y10.208
X-10.812 Y9.566
X-11.549 Y8.689
X-12.282 Y7.808
X-13.009 Y6.922
X-13.6 Y6.139
X-14.051 Y5.468
X-14.428 Y4.836
X-14.75 Y4.22
X-15.028 Y3.612
X-15.269 Y2.994
X-15.483 Y2.345
X-15.656 Y1.704
X-15.793 Y1.052
X-15.9 Y0.366
X-15.969 Y-0.333
X-16. Y-1.036
X-15.992 Y-1.771
X-15.943 Y-2.517
X-15.853 Y-3.261
X-15.719 Y-4.016
X-15.539 Y-4.783
X-15.316 Y-5.545
X-15.052 Y-6.294
X-14.729 Y-7.07
X-14.37 Y-7.813
X-13.969 Y-8.54
X-13.505 Y-9.283
X-13.018 Y-9.974
X-12.487 Y-10.646
X-11.901 Y-11.31
X-11.297 Y-11.924
X-10.643 Y-12.518
X-9.954 Y-13.079
X-9.248 Y-13.592
X-8.485 Y-14.084
X-7.716 Y-14.523
X-6.928 Y-14.918
X-6.084 Y-15.284
X-5.257 Y-15.59
X-4.406 Y-15.852
X-3.523 Y-16.073
X-2.655 Y-16.24
X-1.758 Y-16.362
X-0.859 Y-16.434
X0.028 Y-16.457
X0.95 Y-16.43
X1.839 Y-16.355
X2.72 Y-16.231
X3.626 Y-16.054
X4.485 Y-15.836
X5.342 Y-15.568
X6.196 Y-15.248
X7.008 Y-14.892
X7.823 Y-14.481
X8.604 Y-14.031
X9.349 Y-13.546
X10.099 Y-12.996
X10.787 Y-12.432
X11.444 Y-11.83
X12.086 Y-11.173
X12.671 Y-10.506
X13.227 Y-9.796
X13.747 Y-9.051
X14.215 Y-8.297
X14.655 Y-7.492
X15.042 Y-6.681
X15.381 Y-5.858
X15.687 Y-4.981
X15.934 Y-4.128
X16.134 Y-3.257
X16.29 Y-2.354
X16.394 Y-1.473
X16.45 Y-0.569
X16.456 Y0.337
X16.413 Y1.225
X16.319 Y2.143
X16.179 Y3.026
X15.991 Y3.897
X15.747 Y4.789
X15.466 Y5.631
X15.136 Y6.465
X14.755 Y7.295
X14.34 Y8.079
X13.871 Y8.86
X13.364 Y9.607
X12.826 Y10.315
X12.224 Y11.021
X11.61 Y11.667
X10.962 Y12.278
X10.258 Y12.872
X9.55 Y13.406
X8.802 Y13.908
X8.02 Y14.374
X7.233 Y14.785
X6.399 Y15.164
X5.562 Y15.491
X4.716 Y15.769
X3.818 Y16.01
X2.949 Y16.193
X2.067 Y16.329
X1.154 Y16.419
X0.268 Y16.458
X-0.637 Y16.447
X-1.542 Y16.387
X-2.423 Y16.28
X-3.33 Y16.119
X-4.202 Y15.914
X-5.057 Y15.663
X-5.93 Y15.354
X-6.749 Y15.012
X-7.556 Y14.623
X-8.356 Y14.18
X-9.108 Y13.71
X-9.851 Y13.185
X-10.646 Y12.557
X-11.504 Y11.798
X-12.327 Y11.001
X-13.121 Y10.174
X-13.881 Y9.317
X-14.601 Y8.425
X-15.202 Y7.592
X-15.717 Y6.789
X-16.171 Y5.989
X-16.565 Y5.194
X-16.906 Y4.4
X-17.199 Y3.602
X-17.445 Y2.797
X-17.645 Y1.985
X-17.8 Y1.162
X-17.911 Y0.328
X-17.976 Y-0.515
X-17.995 Y-1.367
X-17.967 Y-2.229
X-17.891 Y-3.096
X-17.767 Y-3.966
X-17.592 Y-4.843
X-17.367 Y-5.718
X-17.092 Y-6.587
X-16.764 Y-7.456
X-16.386 Y-8.31
X-15.959 Y-9.15
X-15.48 Y-9.975
X-14.955 Y-10.776
X-14.381 Y-11.554
X-13.761 Y-12.305
X-13.099 Y-13.023
X-12.392 Y-13.71
X-11.646 Y-14.36
X-10.865 Y-14.968
X-10.044 Y-15.538
X-9.194 Y-16.061
X-8.315 Y-16.538
X-7.407 Y-16.968
X-6.478 Y-17.347
X-5.527 Y-17.676
X-4.557 Y-17.952
X-3.575 Y-18.175
X-2.576 Y-18.345
X-1.571 Y-18.459
X-0.563 Y-18.519
X0.452 Y-18.523
X1.463 Y-18.471
X2.469 Y-18.364
X3.471 Y-18.202
X4.459 Y-17.986
X5.437 Y-17.715
X6.399 Y-17.391
X7.339 Y-17.016
X8.263 Y-16.587
X9.16 Y-16.109
X10.027 Y-15.585
X10.867 Y-15.011
X11.672 Y-14.395
X12.442 Y-13.735
X13.176 Y-13.033
X13.868 Y-12.293
X14.521 Y-11.514
X15.13 Y-10.701
X15.692 Y-9.859
X16.211 Y-8.981
X16.678 Y-8.079
X17.095 Y-7.155
X17.462 Y-6.206
X17.776 Y-5.242
X18.036 Y-4.261
X18.242 Y-3.267
X18.394 Y-2.265
X18.49 Y-1.252
X18.531 Y-0.237
X18.516 Y0.777
X18.445 Y1.793
X18.32 Y2.8
X18.139 Y3.798
X17.903 Y4.787
X17.615 Y5.759
X17.273 Y6.715
X16.879 Y7.652
X16.436 Y8.563
X15.94 Y9.453
X15.398 Y10.313
X14.811 Y11.139
X14.177 Y11.936
X13.503 Y12.694
X12.788 Y13.413
X12.034 Y14.094
X11.245 Y14.731
X10.421 Y15.325
X9.565 Y15.873
X8.684 Y16.372
X7.77 Y16.825
X6.836 Y17.225
X5.884 Y17.574
X4.911 Y17.87
X3.926 Y18.112
X2.929 Y18.3
X1.922 Y18.433
X0.912 Y18.51
X-0.105 Y18.532
X-1.121 Y18.499
X-2.13 Y18.41
X-3.139 Y18.265
X-4.134 Y18.065
X-5.116 Y17.812
X-6.086 Y17.505
X-7.033 Y17.146
X-7.962 Y16.735
X-8.885 Y16.264
X-9.799 Y15.733
X-10.757 Y15.104
X-11.679 Y14.424
X-12.566 Y13.699
X-13.421 Y12.936
X-14.241 Y12.135
X-15.024 Y11.298
X-15.766 Y10.426
X-16.463 Y9.516
X-17.096 Y8.592
X-17.651 Y7.679
X-18.139 Y6.766
X-18.567 Y5.847
X-18.939 Y4.919
X-19.257 Y3.981
X-19.521 Y3.034
X-19.731 Y2.078
X-19.889 Y1.113
X-19.939 Y0.653
X-19.949 Y0.535
X-19.956 Y0.418
X-19.958 Y0.3
X-19.957 Y-0.899
X-19.933 Y-1.199
X-19.882 Y-1.798
X-19.848 Y-2.098
X-19.778 Y-2.697
X-19.653 Y-3.597
X-19.587 Y-3.896
X-19.232 Y-5.395
X-19.18 Y-5.58
X-19.057 Y-5.994
X-18.62 Y-7.193
X-18.581 Y-7.299
X-18.259 Y-8.092
X-18.119 Y-8.392
X-17.366 Y-9.891
X-17.223 Y-10.19
X-17.086 Y-10.49
X-16.56 Y-11.508
X-16.209 Y-12.119
X-15.786 Y-12.77
X-15.291 Y-13.447
X-14.727 Y-14.136
X-14.111 Y-14.81
X-13.439 Y-15.468
X-12.7 Y-16.117
X-11.902 Y-16.743
X-11.05 Y-17.34
X-10.15 Y-17.899
X-9.207 Y-18.415
X-8.227 Y-18.884
X-7.215 Y-19.302
X-6.174 Y-19.667
X-5.109 Y-19.975
X-4.024 Y-20.226
X-2.924 Y-20.418
X-1.811 Y-20.549
X-0.692 Y-20.619
X0.432 Y-20.628
X1.555 Y-20.575
X2.675 Y-20.461
X3.789 Y-20.286
X4.891 Y-20.049
X5.98 Y-19.752
X7.052 Y-19.396
X8.102 Y-18.982
X9.13 Y-18.51
X10.129 Y-17.983
X11.098 Y-17.402
X12.034 Y-16.769
X12.934 Y-16.085
X13.795 Y-15.353
X14.615 Y-14.575
X15.391 Y-13.753
X16.121 Y-12.889
X16.161 Y-12.837
X16.378 Y-12.511
X16.555 Y-12.16
X16.69 Y-11.792
X16.78 Y-11.41
X16.783 Y-11.389
X16.959 Y-10.79
X17.086 Y-10.49
X17.223 Y-10.19
X17.366 Y-9.891
X18.119 Y-8.392
X18.259 Y-8.092
X18.581 Y-7.299
X18.62 Y-7.193
X19.057 Y-5.994
X19.18 Y-5.58
X19.232 Y-5.395
X19.587 Y-3.896
X19.653 Y-3.597
X19.778 Y-2.697
X19.848 Y-2.098
X19.882 Y-1.798
X19.933 Y-1.199
X19.957 Y-0.899
X19.958 Y0.599
X19.957 Y0.899
X19.933 Y1.199
X19.882 Y1.798
X19.848 Y2.098
X19.778 Y2.697
X19.653 Y3.597
X19.587 Y3.896
X19.232 Y5.395
X19.18 Y5.58
X19.057 Y5.994
X18.62 Y7.193
X18.581 Y7.299
X18.259 Y8.092
X18.119 Y8.392
X17.366 Y9.891
X17.223 Y10.19
X17.083 Y10.498
X16.959 Y10.79
X16.901 Y10.928
X16.623 Y11.489
X16.273 Y12.108
X15.877 Y12.726
X15.414 Y13.368
X14.874 Y14.037
X14.26 Y14.717
X13.583 Y15.39
X12.855 Y16.037
X12.073 Y16.66
X11.229 Y17.259
X10.333 Y17.824
X9.392 Y18.348
X8.41 Y18.826
X7.395 Y19.253
X6.351 Y19.626
X5.283 Y19.943
X4.196 Y20.202
X3.092 Y20.402
X1.976 Y20.541
X0.853 Y20.619
X-0.274 Y20.636
X-1.402 Y20.59
X-2.526 Y20.483
X-3.643 Y20.315
X-4.749 Y20.085
X-5.841 Y19.796
X-6.921 Y19.445
X-7.989 Y19.032
X-9.033 Y18.56
X-10.051 Y18.034
X-11.041 Y17.456
X-12.001 Y16.831
X-12.93 Y16.161
X-13.829 Y15.45
X-14.695 Y14.7
X-15.528 Y13.912
X-15.826 Y13.603
X-16.096 Y13.287
X-16.323 Y12.939
X-16.505 Y12.565
X-16.638 Y12.172
X-16.721 Y11.765
X-16.731 Y11.689
X-16.783 Y11.389
X-16.959 Y10.79
X-17.086 Y10.49
X-17.223 Y10.19
X-17.366 Y9.891
X-18.119 Y8.392
X-18.259 Y8.092
X-18.581 Y7.299
X-18.62 Y7.193
X-19.057 Y5.994
X-19.18 Y5.58
X-19.232 Y5.395
X-19.587 Y3.896
X-19.653 Y3.597
X-19.778 Y2.697
X-19.848 Y2.098
X-19.882 Y1.798
X-19.933 Y1.199
X-19.957 Y0.899
X-19.958 Y0.3
G3 X-19.704 Y-0.258 I0.8 J0.028
G2 X-17.727 Y-2.881 I-6.451 J-6.918
G1 X-17.684 Y-2.977
X-17.652 Y-3.077
X-16.741 Y-6.483
X-16.719 Y-6.585
X-16.708 Y-6.69
G2 X-17.112 Y-9.95 I-9.447 J-0.486
G3 X-17.086 Y-10.49 I0.765 J-0.235
G1 X-16.959 Y-10.79
X-16.783 Y-11.391
X-16.731 Y-11.689
X-16.69 Y-11.989
X-16.665 Y-12.289
Y-12.338
X-16.657 Y-12.515
X-16.636 Y-12.734
X-16.601 Y-12.96
X-16.546 Y-13.221
X-16.467 Y-13.516
X-16.367 Y-13.822
X-16.227 Y-14.181
X-16.063 Y-14.54
X-15.844 Y-14.961
X-15.597 Y-15.377
X-15.277 Y-15.854
X-14.918 Y-16.33
X-14.486 Y-16.843
X-13.97 Y-17.39
X-13.415 Y-17.919
X-12.769 Y-18.469
X-12.036 Y-19.028
X-11.223 Y-19.579
X-10.358 Y-20.1
X-9.439 Y-20.586
X-8.451 Y-21.041
X-7.404 Y-21.456
X-6.317 Y-21.819
X-5.212 Y-22.122
X-4.092 Y-22.366
X-2.962 Y-22.552
X-1.823 Y-22.678
X-0.679 Y-22.746
X0.467 Y-22.756
X1.612 Y-22.707
X2.753 Y-22.601
X3.887 Y-22.436
X5.011 Y-22.213
X6.122 Y-21.934
X7.218 Y-21.598
X8.295 Y-21.207
X9.351 Y-20.763
X10.384 Y-20.266
X11.39 Y-19.718
X12.368 Y-19.121
X13.315 Y-18.475
X14.228 Y-17.783
X15.105 Y-17.046
X15.807 Y-16.393
X15.882 Y-16.315
X16.164 Y-15.98
X16.4 Y-15.61
X16.584 Y-15.213
X16.714 Y-14.794
X16.787 Y-14.362
X16.803 Y-13.924
X16.76 Y-13.487
X16.734 Y-13.323
G3 X15.788 Y-12.509 I-0.983 J-0.186
G1 X-15.63 Y-11.381
G3 X-16.665 Y-12.338 I-0.036 J-0.999
G1 X-16.669 Y-12.888
X-16.714 Y-13.188
X-16.76 Y-13.487
X-16.783 Y-13.626
X-16.791 Y-13.653
X-16.828 Y-13.798
X-16.854 Y-13.946
X-16.871 Y-14.105
X-16.881 Y-14.283
X-16.882 Y-14.484
X-16.87 Y-14.7
X-16.844 Y-14.943
X-16.802 Y-15.202
X-16.738 Y-15.491
X-16.653 Y-15.796
X-16.538 Y-16.134
X-16.395 Y-16.491
X-16.218 Y-16.87
X-15.996 Y-17.285
X-15.743 Y-17.702
X-15.422 Y-18.17
X-15.065 Y-18.634
X-14.638 Y-19.13
X-14.131 Y-19.658
X-13.585 Y-20.168
X-12.957 Y-20.693
X-12.237 Y-21.23
X-11.432 Y-21.765
X-10.58 Y-22.265
X-9.653 Y-22.744
X-8.644 Y-23.197
X-7.574 Y-23.609
X-6.484 Y-23.961
X-5.377 Y-24.257
X-4.256 Y-24.496
X-3.125 Y-24.68
X-1.987 Y-24.809
X-0.843 Y-24.884
X0.302 Y-24.905
X1.448 Y-24.871
X2.59 Y-24.783
X3.727 Y-24.64
X4.856 Y-24.444
X5.975 Y-24.196
X7.081 Y-23.896
X8.172 Y-23.545
X9.246 Y-23.145
X10.3 Y-22.696
X11.333 Y-22.2
X12.342 Y-21.657
X13.325 Y-21.069
X14.28 Y-20.435
X15.083 Y-19.847
X15.627 Y-19.4
X16.072 Y-18.992
X16.438 Y-18.618
X16.734 Y-18.28
X17.011 Y-17.926
X17.246 Y-17.528
X17.417 Y-17.1
X17.522 Y-16.65
X17.557 Y-16.189
X17.523 Y-15.729
X17.418 Y-15.279
X17.247 Y-14.85
G3 X16.407 Y-14.323 I-0.882 J-0.472
G1 X-15.805 Y-12.983
G3 X-16.791 Y-13.653 I-0.042 J-0.999
G1 X-16.926 Y-14.087
X-17.026 Y-14.387
X-17.166 Y-14.686
X-17.211 Y-14.777
X-17.27 Y-14.915
X-17.32 Y-15.056
X-17.362 Y-15.2
X-17.398 Y-15.363
X-17.427 Y-15.533
X-17.45 Y-15.732
X-17.462 Y-15.941
Y-16.173
X-17.449 Y-16.426
X-17.42 Y-16.698
X-17.371 Y-16.999
X-17.303 Y-17.307
X-17.206 Y-17.656
X-17.087 Y-18.008
X-16.93 Y-18.398
X-16.74 Y-18.808
X-16.515 Y-19.229
X-16.234 Y-19.691
X-15.918 Y-20.153
X-15.544 Y-20.641
X-15.094 Y-21.164
X-14.603 Y-21.676
X-14.041 Y-22.201
X-13.392 Y-22.744
X-12.658 Y-23.293
X-11.881 Y-23.81
X-11.015 Y-24.32
X-10.058 Y-24.815
X-9.021 Y-25.281
X-7.951 Y-25.693
X-6.862 Y-26.049
X-5.756 Y-26.349
X-4.638 Y-26.597
X-3.508 Y-26.791
X-2.371 Y-26.934
X-1.229 Y-27.026
X-0.084 Y-27.065
X1.062 Y-27.052
X2.206 Y-26.989
X3.346 Y-26.875
X4.481 Y-26.713
X5.607 Y-26.501
X6.723 Y-26.242
X7.827 Y-25.936
X8.918 Y-25.583
X9.992 Y-25.185
X11.049 Y-24.742
X12.086 Y-24.255
X13.102 Y-23.724
X14.093 Y-23.15
X14.996 Y-22.564
X15.741 Y-22.021
X16.35 Y-21.523
X16.813 Y-21.101
X17.17 Y-20.738
X17.497 Y-20.365
X17.75 Y-20.044
X17.993 Y-19.698
X18.183 Y-19.394
X18.363 Y-19.065
X18.507 Y-18.765
X18.515 Y-18.747
X18.649 Y-18.328
X18.712 Y-17.892
X18.702 Y-17.453
X18.62 Y-17.02
X18.468 Y-16.608
X18.25 Y-16.226
X17.971 Y-15.885
X17.835 Y-15.72
G3 X17.121 Y-15.384 I-0.749 J-0.663
G1 X-16.295 Y-14.249
G3 X-17.211 Y-14.777 I-0.034 J-0.999
G1 X-17.314 Y-14.986
X-17.382 Y-15.099
X-17.505 Y-15.286
X-17.682 Y-15.532
X-17.724 Y-15.585
X-17.814 Y-15.706
X-17.899 Y-15.829
X-17.975 Y-15.958
X-18.042 Y-16.093
X-18.101 Y-16.231
X-18.152 Y-16.372
X-18.197 Y-16.515
X-18.234 Y-16.66
X-18.266 Y-16.807
X-18.291 Y-16.955
X-18.311 Y-17.103
X-18.325 Y-17.253
X-18.334 Y-17.402
X-18.339 Y-17.552
X-18.338 Y-17.702
X-18.334 Y-17.852
X-18.324 Y-18.002
X-18.311 Y-18.151
X-18.294 Y-18.3
X-18.273 Y-18.449
X-18.248 Y-18.597
X-18.22 Y-18.744
X-18.188 Y-18.891
X-18.153 Y-19.036
X-18.115 Y-19.182
X-18.074 Y-19.326
X-18.029 Y-19.469
X-17.982 Y-19.611
X-17.932 Y-19.753
X-17.88 Y-19.893
X-17.825 Y-20.033
X-17.767 Y-20.171
X-17.707 Y-20.309
X-17.645 Y-20.445
X-17.58 Y-20.581
X-17.513 Y-20.715
X-17.444 Y-20.848
X-17.373 Y-20.98
X-17.3 Y-21.111
X-17.225 Y-21.241
X-17.148 Y-21.37
X-17.069 Y-21.497
X-16.988 Y-21.624
X-16.906 Y-21.749
X-16.822 Y-21.873
X-16.736 Y-21.996
X-16.648 Y-22.118
X-16.559 Y-22.239
X-16.469 Y-22.358
X-16.377 Y-22.477
X-16.283 Y-22.594
X-16.189 Y-22.711
X-16.092 Y-22.826
X-15.995 Y-22.939
X-15.896 Y-23.052
X-15.795 Y-23.164
X-15.694 Y-23.274
X-15.592 Y-23.384
X-15.488 Y-23.492
X-15.383 Y-23.599
X-15.277 Y-23.705
X-15.169 Y-23.81
X-15.061 Y-23.914
X-14.952 Y-24.017
X-14.841 Y-24.118
X-14.73 Y-24.219
X-14.618 Y-24.318
X-14.504 Y-24.416
X-14.39 Y-24.513
X-14.275 Y-24.609
X-14.159 Y-24.704
X-14.042 Y-24.799
X-13.924 Y-24.891
X-13.805 Y-24.983
X-13.686 Y-25.074
X-13.566 Y-25.163
X-13.445 Y-25.252
X-13.323 Y-25.34
X-13.2 Y-25.426
X-13.077 Y-25.512
X-12.953 Y-25.596
X-12.829 Y-25.68
X-12.703 Y-25.762
X-12.577 Y-25.843
X-12.45 Y-25.923
X-12.323 Y-26.003
X-12.195 Y-26.081
X-12.067 Y-26.159
X-11.937 Y-26.235
X-11.808 Y-26.31
X-11.677 Y-26.384
X-11.546 Y-26.458
X-11.415 Y-26.53
X-11.283 Y-26.601
X-11.017 Y-26.741
X-10.884 Y-26.809
X-10.75 Y-26.877
X-10.615 Y-26.943
X-10.48 Y-27.008
X-10.345 Y-27.073
X-10.073 Y-27.199
X-9.936 Y-27.26
X-9.799 Y-27.321
X-9.661 Y-27.381
X-9.523 Y-27.44
X-9.385 Y-27.497
X-9.107 Y-27.61
X-8.827 Y-27.719
X-8.687 Y-27.772
X-8.547 Y-27.825
X-8.406 Y-27.876
X-8.123 Y-27.976
X-7.839 Y-28.072
X-7.553 Y-28.165
X-7.41 Y-28.21
X-7.123 Y-28.297
X-6.835 Y-28.381
X-6.546 Y-28.461
X-6.256 Y-28.538
X-5.965 Y-28.611
X-5.673 Y-28.681
X-5.381 Y-28.747
X-5.087 Y-28.81
X-4.793 Y-28.869
X-4.498 Y-28.925
X-4.203 Y-28.977
X-3.907 Y-29.026
X-3.611 Y-29.072
X-3.314 Y-29.114
X-3.016 Y-29.153
X-2.718 Y-29.188
X-2.42 Y-29.221
X-2.121 Y-29.249
X-1.822 Y-29.274
X-1.523 Y-29.296
X-1.223 Y-29.315
X-0.924 Y-29.33
X-0.624 Y-29.342
X-0.32 Y-29.351
X-0.021 Y-29.357
X0.279 Y-29.359
X0.579 Y-29.358
X0.884 Y-29.353
X1.184 Y-29.346
X1.484 Y-29.335
X1.783 Y-29.32
X2.091 Y-29.303
X2.39 Y-29.282
X2.689 Y-29.258
X2.988 Y-29.231
X3.299 Y-29.2
X3.597 Y-29.166
X3.895 Y-29.13
X4.192 Y-29.09
X4.505 Y-29.045
X4.802 Y-28.999
X5.098 Y-28.949
X5.393 Y-28.897
X5.706 Y-28.838
X6. Y-28.78
X6.294 Y-28.718
X6.586 Y-28.653
X6.897 Y-28.581
X7.189 Y-28.51
X7.479 Y-28.436
X7.769 Y-28.359
X8.077 Y-28.274
X8.369 Y-28.19
X8.656 Y-28.104
X8.942 Y-28.015
X9.245 Y-27.917
X9.537 Y-27.82
X9.821 Y-27.722
X10.103 Y-27.621
X10.4 Y-27.512
X10.69 Y-27.401
X10.969 Y-27.292
X11.247 Y-27.179
X11.536 Y-27.058
X11.822 Y-26.935
X12.097 Y-26.813
X12.37 Y-26.689
X12.642 Y-26.561
X12.915 Y-26.429
X13.184 Y-26.296
X13.451 Y-26.159
X13.716 Y-26.019
X13.98 Y-25.876
X14.111 Y-25.804
X14.372 Y-25.656
X14.631 Y-25.504
X14.76 Y-25.427
X14.888 Y-25.35
X15.016 Y-25.271
X15.143 Y-25.191
X15.27 Y-25.111
X15.396 Y-25.029
X15.521 Y-24.947
X15.646 Y-24.863
X15.77 Y-24.779
X15.893 Y-24.694
X16.016 Y-24.607
X16.137 Y-24.52
X16.258 Y-24.431
X16.379 Y-24.342
X16.498 Y-24.251
X16.617 Y-24.159
X16.735 Y-24.066
X16.852 Y-23.972
X16.968 Y-23.877
X17.083 Y-23.781
X17.196 Y-23.683
X17.309 Y-23.585
X17.421 Y-23.485
X17.532 Y-23.384
X17.642 Y-23.281
X17.75 Y-23.178
X17.857 Y-23.073
X17.963 Y-22.967
X18.068 Y-22.859
X18.172 Y-22.751
X18.274 Y-22.641
X18.374 Y-22.529
X18.473 Y-22.417
X18.571 Y-22.303
X18.667 Y-22.188
X18.761 Y-22.071
X18.853 Y-21.953
X18.944 Y-21.833
X19.032 Y-21.712
X19.118 Y-21.589
X19.202 Y-21.465
X19.284 Y-21.339
X19.363 Y-21.211
X19.439 Y-21.082
X19.514 Y-20.952
X19.585 Y-20.82
X19.653 Y-20.686
X19.718 Y-20.551
X19.78 Y-20.415
X19.839 Y-20.277
X19.895 Y-20.138
X19.948 Y-19.997
X19.997 Y-19.855
X20.041 Y-19.712
X20.083 Y-19.568
X20.121 Y-19.423
X20.154 Y-19.277
X20.184 Y-19.13
X20.21 Y-18.982
X20.231 Y-18.833
X20.248 Y-18.684
X20.231 Y-18.335
X20.153 Y-17.994
X20.017 Y-17.672
X19.827 Y-17.379
X19.588 Y-17.123
X19.309 Y-16.913
X19.22 Y-16.877 Z-11.994
X19.132 Y-16.842 Z-11.976
X19.048 Y-16.808 Z-11.948
X18.979 Y-16.799 Z-11.917
X18.914 Y-16.789 Z-11.88
X18.853 Y-16.781 Z-11.837
X18.776 Y-16.777 Z-11.769
X18.708 Y-16.774 Z-11.692
X18.651 Y-16.772 Z-11.607
X18.606 Y-16.77 Z-11.515
X18.573 Y-16.769 Z-11.417
X18.554 Y-16.768 Z-11.317
X18.547 Z-11.215
G0 Z5.
X35.667 Y-27.557
Z-10.
G1 Z-11. F2328.
X35.662 Y-27.552 Z-11.121
X35.647 Y-27.536 Z-11.239
X35.621 Y-27.511 Z-11.355
X35.586 Y-27.477 Z-11.465
X35.541 Y-27.433 Z-11.568
X35.488 Y-27.381 Z-11.663
X35.427 Y-27.321 Z-11.749
X35.359 Y-27.255 Z-11.823
X35.285 Y-27.182 Z-11.885
X35.206 Y-27.105 Z-11.935
X35.124 Y-27.025 Z-11.971
X35.039 Y-26.942 Z-11.993
X34.953 Y-26.857 Z-12.
G3 X30.629 Y-23.457 I-17.852 J-18.251
G1 X30.455 Y-23.357
X30.422 Y-23.34
X30.273 Y-23.357
X30.125 Y-23.384
X29.979 Y-23.419
X29.835 Y-23.459
X29.692 Y-23.505
X29.55 Y-23.554
X29.41 Y-23.607
X29.27 Y-23.662
X29.132 Y-23.72
X28.995 Y-23.78
X28.858 Y-23.843
X28.723 Y-23.907
X28.589 Y-23.974
X28.327 Y-24.09
X28.056 Y-24.183
X27.778 Y-24.254
X27.495 Y-24.3
X27.21 Y-24.323
X26.923 Y-24.322
X26.638 Y-24.296
X26.356 Y-24.247
X26.079 Y-24.174
X25.809 Y-24.078
X25.548 Y-23.96
X25.298 Y-23.82
X25.061 Y-23.659
X24.838 Y-23.479
X24.631 Y-23.281
X24.441 Y-23.066
X24.27 Y-22.837
X24.12 Y-22.593
X23.6 Y-21.572
X23.534 Y-21.264
X23.462 Y-20.942
X23.393 Y-20.65
X23.331 Y-20.4
X23.195 Y-19.981
X23.005 Y-19.585
X22.764 Y-19.217
X22.476 Y-18.885
X22.146 Y-18.593
X21.781 Y-18.349
X19.48 Y-17.02
X19.309 Y-16.913
X19.22 Y-16.877 Z-11.994
X19.132 Y-16.842 Z-11.976
X19.048 Y-16.808 Z-11.948
X18.963 Y-16.798 Z-11.909
X18.884 Y-16.789 Z-11.86
X18.81 Y-16.78 Z-11.802
X18.733 Z-11.723
X18.668 Z-11.634
X18.616 Z-11.537
X18.577 Z-11.433
X18.554 Z-11.325
X18.547 Z-11.215
G0 Z5.
X31.486 Y-24.798
Z-10.
G1 Z-11. F2328.
X31.482 Y-24.791 Z-11.121
X31.472 Y-24.772 Z-11.239
X31.454 Y-24.741 Z-11.355
X31.43 Y-24.698 Z-11.465
X31.399 Y-24.643 Z-11.568
X31.363 Y-24.578 Z-11.663
X31.321 Y-24.504 Z-11.749
X31.275 Y-24.421 Z-11.823
X31.224 Y-24.331 Z-11.885
X31.17 Y-24.235 Z-11.935
X31.114 Y-24.134 Z-11.971
X31.056 Y-24.03 Z-11.993
X30.997 Y-23.925 Z-12.
G3 X30.455 Y-23.357 I-1.381 J-0.774
G1 X21.781 Y-18.349
X21.776 Y-18.347
G2 X15.547 Y-15.241 I3.89 J15.602
X15.19 Y-14.627 I0.629 J0.777
G1 X11.916 Y5.123
G2 X12.057 Y5.819 I0.987 J0.164
X16.951 Y10.768 I13.61 J-8.564
G1 X16.959 Y10.79
X16.783 Y11.391
X16.731 Y11.689
X16.69 Y11.989
X16.665 Y12.289
Y12.379
X16.656 Y12.596
X16.636 Y12.803
X16.601 Y13.026
X16.545 Y13.293
X16.472 Y13.568
X16.369 Y13.881
X16.235 Y14.225
X16.069 Y14.59
X15.857 Y14.996
X15.606 Y15.418
X15.298 Y15.877
X14.93 Y16.366
X14.513 Y16.86
X14.006 Y17.398
X13.438 Y17.939
X12.808 Y18.476
X12.085 Y19.027
X11.278 Y19.575
X10.398 Y20.104
X9.468 Y20.596
X8.488 Y21.048
X7.445 Y21.461
X6.358 Y21.824
X5.253 Y22.127
X4.133 Y22.371
X3.002 Y22.556
X1.864 Y22.683
X0.72 Y22.751
X-0.426 Y22.761
X-1.571 Y22.714
X-2.712 Y22.608
X-3.846 Y22.445
X-4.971 Y22.225
X-6.083 Y21.948
X-7.179 Y21.614
X-8.257 Y21.226
X-9.315 Y20.786
X-10.351 Y20.296
X-11.363 Y19.757
X-12.349 Y19.174
X-13.309 Y18.548
X-14.241 Y17.881
X-15.136 Y17.182
X-15.706 Y16.684
X-15.816 Y16.576
X-16.123 Y16.232
X-16.38 Y15.85
X-16.582 Y15.436
X-16.726 Y14.998
X-16.808 Y14.545
X-16.827 Y14.085
X-16.783 Y13.626
X-16.76 Y13.487
X-16.734 Y13.323
G3 X-15.787 Y12.509 I0.983 J0.186
G1 X15.632 Y11.422
G3 X16.665 Y12.379 I0.035 J0.999
G1 X16.669 Y12.888
X16.714 Y13.188
X16.76 Y13.487
X16.783 Y13.626
X16.798 Y13.675
X16.835 Y13.82
X16.861 Y13.968
X16.88 Y14.127
X16.891 Y14.301
X16.893 Y14.499
X16.883 Y14.712
X16.858 Y14.954
X16.818 Y15.208
X16.757 Y15.495
X16.675 Y15.794
X16.564 Y16.128
X16.426 Y16.478
X16.253 Y16.857
X16.038 Y17.263
X15.789 Y17.679
X15.476 Y18.142
X15.13 Y18.597
X14.711 Y19.09
X14.216 Y19.612
X13.681 Y20.117
X13.056 Y20.646
X12.342 Y21.186
X11.555 Y21.715
X10.722 Y22.212
X9.798 Y22.696
X8.794 Y23.154
X7.727 Y23.572
X6.639 Y23.931
X5.534 Y24.233
X4.415 Y24.479
X3.285 Y24.669
X2.147 Y24.805
X1.004 Y24.886
X-0.142 Y24.912
X-1.287 Y24.884
X-2.43 Y24.802
X-3.568 Y24.666
X-4.698 Y24.477
X-5.819 Y24.236
X-6.927 Y23.944
X-8.021 Y23.603
X-9.098 Y23.212
X-10.157 Y22.774
X-11.196 Y22.292
X-12.214 Y21.765
X-13.209 Y21.196
X-14.179 Y20.587
X-14.966 Y20.041
X-15.509 Y19.618
X-15.964 Y19.222
X-16.336 Y18.861
X-16.642 Y18.529
X-16.929 Y18.183
X-17.158 Y17.872
X-17.269 Y17.703
X-17.465 Y17.344
X-17.601 Y16.958
X-17.673 Y16.556
X-17.68 Y16.146
X-17.621 Y15.742
X-17.498 Y15.351
X-17.314 Y14.986
X-17.233 Y14.821
G3 X-16.391 Y14.294 I0.882 J0.472
G1 X15.814 Y13.005
G3 X16.798 Y13.675 I0.04 J0.999
G1 X16.926 Y14.087
X17.026 Y14.387
X17.166 Y14.686
X17.211 Y14.777
X17.274 Y14.924
X17.326 Y15.065
X17.369 Y15.209
X17.406 Y15.368
X17.436 Y15.537
X17.459 Y15.731
X17.473 Y15.938
X17.475 Y16.167
X17.464 Y16.418
X17.438 Y16.684
X17.392 Y16.982
X17.328 Y17.286
X17.235 Y17.629
X17.12 Y17.979
X16.97 Y18.362
X16.784 Y18.771
X16.567 Y19.184
X16.295 Y19.641
X15.986 Y20.101
X15.621 Y20.584
X15.182 Y21.104
X14.701 Y21.614
X14.153 Y22.134
X13.518 Y22.674
X12.797 Y23.222
X12.032 Y23.74
X11.179 Y24.252
X10.235 Y24.75
X9.208 Y25.222
X8.142 Y25.642
X7.056 Y26.006
X5.952 Y26.315
X4.835 Y26.571
X3.708 Y26.774
X2.572 Y26.924
X1.43 Y27.022
X0.285 Y27.069
X-0.861 Y27.064
X-2.006 Y27.008
X-3.147 Y26.903
X-4.282 Y26.749
X-5.41 Y26.546
X-6.528 Y26.296
X-7.635 Y25.999
X-8.729 Y25.657
X-9.807 Y25.27
X-10.87 Y24.841
X-11.914 Y24.369
X-12.939 Y23.856
X-13.942 Y23.302
X-14.866 Y22.728
X-15.61 Y22.209
X-16.253 Y21.704
X-16.776 Y21.245
X-17.207 Y20.824
X-17.528 Y20.473
X-17.823 Y20.114
X-18.048 Y19.806
X-18.262 Y19.477
X-18.428 Y19.189
X-18.501 Y19.044
X-18.663 Y18.65
X-18.76 Y18.235
X-18.791 Y17.81
X-18.755 Y17.385
X-18.653 Y16.971
X-18.487 Y16.579
X-18.261 Y16.217
X-17.982 Y15.896
G3 X-17.328 Y15.616 I0.695 J0.719
G1 X-17.27 Y15.613
X16.288 Y14.249
G3 X17.211 Y14.777 I0.041 J0.999
G1 X17.314 Y14.986
X17.382 Y15.099
X17.505 Y15.286
X17.682 Y15.532
X17.724 Y15.585
X17.814 Y15.706
X17.901 Y15.828
X17.978 Y15.956
X18.047 Y16.09
X18.107 Y16.227
X18.159 Y16.368
X18.205 Y16.511
X18.244 Y16.656
X18.276 Y16.802
X18.302 Y16.95
X18.323 Y17.098
X18.338 Y17.248
X18.349 Y17.397
X18.354 Y17.547
Y17.697
X18.35 Y17.847
X18.342 Y17.997
X18.329 Y18.146
X18.312 Y18.295
X18.292 Y18.444
X18.268 Y18.592
X18.24 Y18.739
X18.209 Y18.886
X18.175 Y19.032
X18.137 Y19.177
X18.096 Y19.322
X18.052 Y19.465
X18.006 Y19.608
X17.956 Y19.749
X17.904 Y19.89
X17.85 Y20.03
X17.792 Y20.168
X17.733 Y20.306
X17.671 Y20.443
X17.607 Y20.578
X17.54 Y20.713
X17.471 Y20.846
X17.401 Y20.978
X17.328 Y21.109
X17.253 Y21.239
X17.176 Y21.368
X17.097 Y21.496
X17.017 Y21.622
X16.935 Y21.748
X16.851 Y21.872
X16.765 Y21.995
X16.678 Y22.117
X16.589 Y22.238
X16.499 Y22.358
X16.407 Y22.477
X16.314 Y22.594
X16.219 Y22.711
X16.123 Y22.826
X16.026 Y22.94
X15.927 Y23.053
X15.827 Y23.165
X15.726 Y23.275
X15.623 Y23.385
X15.519 Y23.493
X15.414 Y23.6
X15.308 Y23.706
X15.201 Y23.811
X15.093 Y23.915
X14.984 Y24.018
X14.874 Y24.12
X14.762 Y24.22
X14.65 Y24.32
X14.537 Y24.418
X14.423 Y24.515
X14.308 Y24.612
X14.192 Y24.707
X14.075 Y24.801
X13.957 Y24.894
X13.838 Y24.986
X13.719 Y25.076
X13.599 Y25.166
X13.478 Y25.255
X13.356 Y25.343
X13.234 Y25.429
X13.111 Y25.515
X12.987 Y25.599
X12.862 Y25.683
X12.737 Y25.765
X12.611 Y25.847
X12.484 Y25.927
X12.357 Y26.006
X12.229 Y26.085
X12.1 Y26.162
X11.971 Y26.239
X11.842 Y26.314
X11.711 Y26.388
X11.58 Y26.461
X11.449 Y26.534
X11.317 Y26.605
X11.185 Y26.676
X11.052 Y26.745
X10.918 Y26.813
X10.784 Y26.881
X10.65 Y26.947
X10.515 Y27.013
X10.243 Y27.141
X10.107 Y27.203
X9.97 Y27.265
X9.833 Y27.326
X9.696 Y27.386
X9.558 Y27.444
X9.28 Y27.559
X9.002 Y27.67
X8.862 Y27.725
X8.722 Y27.778
X8.581 Y27.83
X8.299 Y27.932
X8.015 Y28.03
X7.731 Y28.125
X7.588 Y28.171
X7.302 Y28.26
X7.014 Y28.345
X6.725 Y28.427
X6.436 Y28.506
X6.146 Y28.581
X5.854 Y28.652
X5.562 Y28.72
X5.269 Y28.785
X4.975 Y28.846
X4.681 Y28.904
X4.386 Y28.958
X4.09 Y29.009
X3.794 Y29.056
X3.497 Y29.1
X3.2 Y29.14
X2.902 Y29.178
X2.604 Y29.211
X2.306 Y29.242
X2.007 Y29.269
X1.708 Y29.293
X1.408 Y29.313
X1.109 Y29.33
X0.809 Y29.343
X0.506 Y29.354
X0.206 Y29.361
X-0.094 Y29.365
X-0.394 Y29.366
X-0.7 Y29.363
X-1. Y29.357
X-1.3 Y29.348
X-1.6 Y29.336
X-1.907 Y29.32
X-2.206 Y29.301
X-2.505 Y29.279
X-2.805 Y29.254
X-3.116 Y29.224
X-3.414 Y29.193
X-3.712 Y29.158
X-4.012 Y29.12
X-4.326 Y29.077
X-4.623 Y29.033
X-4.919 Y28.985
X-5.218 Y28.934
X-5.534 Y28.877
X-5.829 Y28.821
X-6.123 Y28.761
X-6.42 Y28.697
X-6.738 Y28.626
X-7.03 Y28.557
X-7.321 Y28.485
X-7.617 Y28.409
X-7.935 Y28.324
X-8.224 Y28.243
X-8.512 Y28.159
X-8.808 Y28.07
X-9.125 Y27.97
X-9.411 Y27.878
X-9.695 Y27.782
X-9.99 Y27.679
X-10.305 Y27.566
X-10.587 Y27.462
X-10.867 Y27.355
X-11.157 Y27.24
X-11.466 Y27.115
X-11.743 Y26.999
X-12.018 Y26.88
X-12.292 Y26.759
X-12.578 Y26.628
X-12.849 Y26.501
X-13.119 Y26.37
X-13.388 Y26.237
X-13.655 Y26.1
X-13.788 Y26.03
X-13.92 Y25.96
X-14.184 Y25.816
X-14.445 Y25.669
X-14.575 Y25.595
X-14.705 Y25.519
X-14.834 Y25.443
X-14.962 Y25.366
X-15.218 Y25.208
X-15.345 Y25.128
X-15.471 Y25.047
X-15.597 Y24.965
X-15.722 Y24.882
X-15.846 Y24.799
X-15.97 Y24.714
X-16.093 Y24.628
X-16.215 Y24.541
X-16.337 Y24.453
X-16.457 Y24.364
X-16.577 Y24.274
X-16.696 Y24.183
X-16.815 Y24.091
X-16.932 Y23.997
X-17.049 Y23.903
X-17.164 Y23.807
X-17.279 Y23.71
X-17.392 Y23.612
X-17.505 Y23.513
X-17.616 Y23.413
X-17.727 Y23.311
X-17.836 Y23.208
X-17.944 Y23.104
X-18.05 Y22.999
X-18.156 Y22.892
X-18.26 Y22.784
X-18.363 Y22.675
X-18.464 Y22.564
X-18.563 Y22.452
X-18.661 Y22.338
X-18.757 Y22.223
X-18.852 Y22.106
X-18.944 Y21.988
X-19.035 Y21.869
X-19.123 Y21.747
X-19.209 Y21.625
X-19.293 Y21.5
X-19.375 Y21.374
X-19.454 Y21.247
X-19.53 Y21.118
X-19.603 Y20.987
X-19.674 Y20.854
X-19.742 Y20.721
X-19.806 Y20.585
X-19.868 Y20.449
X-19.926 Y20.31
X-19.981 Y20.171
X-20.032 Y20.03
X-20.08 Y19.888
X-20.125 Y19.744
X-20.165 Y19.6
X-20.201 Y19.454
X-20.234 Y19.308
X-20.263 Y19.161
X-20.287 Y19.013
X-20.307 Y18.864
X-20.294 Y18.478
X-20.213 Y18.099
X-20.066 Y17.742
X-19.858 Y17.416
X-19.595 Y17.132
X-19.286 Y16.899
X-19.198 Y16.864 Z-11.994
X-19.11 Y16.828 Z-11.976
X-19.025 Y16.795 Z-11.948
X-18.957 Y16.785 Z-11.917
X-18.891 Y16.775 Z-11.88
X-18.83 Y16.767 Z-11.836
X-18.753 Y16.763 Z-11.769
X-18.686 Y16.761 Z-11.692
X-18.629 Y16.758 Z-11.606
X-18.584 Y16.756 Z-11.514
X-18.551 Y16.755 Z-11.417
X-18.531 Y16.754 Z-11.317
X-18.525 Z-11.215
G0 Z5.
X-35.667 Y27.557
Z-10.
G1 Z-11. F2328.
X-35.662 Y27.552 Z-11.121
X-35.647 Y27.536 Z-11.239
X-35.621 Y27.511 Z-11.355
X-35.586 Y27.477 Z-11.465
X-35.541 Y27.433 Z-11.568
X-35.488 Y27.381 Z-11.663
X-35.427 Y27.321 Z-11.749
X-35.359 Y27.255 Z-11.823
X-35.285 Y27.182 Z-11.885
X-35.206 Y27.105 Z-11.935
X-35.124 Y27.025 Z-11.971
X-35.039 Y26.942 Z-11.993
X-34.953 Y26.857 Z-12.
G3 X-30.629 Y23.457 I17.852 J18.251
G1 X-30.455 Y23.357
X-30.422 Y23.34
X-30.273 Y23.357
X-30.125 Y23.384
X-29.979 Y23.419
X-29.835 Y23.459
X-29.692 Y23.505
X-29.55 Y23.554
X-29.41 Y23.607
X-29.27 Y23.662
X-29.132 Y23.72
X-28.995 Y23.78
X-28.858 Y23.843
X-28.593 Y23.95
X-28.319 Y24.036
X-28.04 Y24.098
X-27.756 Y24.136
X-27.47 Y24.15
X-27.183 Y24.14
X-26.899 Y24.105
X-26.618 Y24.047
X-26.344 Y23.966
X-26.077 Y23.862
X-25.82 Y23.736
X-25.574 Y23.588
X-25.342 Y23.42
X-25.124 Y23.234
X-24.923 Y23.03
X-24.741 Y22.809
X-24.085 Y21.869
X-23.818 Y20.991
X-23.749 Y20.768
X-23.642 Y20.433
X-23.628 Y20.389
X-23.445 Y19.943
X-23.199 Y19.528
X-22.895 Y19.154
X-22.54 Y18.827
X-22.141 Y18.557
X-19.48 Y17.02
X-19.286 Y16.899
X-19.198 Y16.864 Z-11.994
X-19.11 Y16.828 Z-11.976
X-19.025 Y16.795 Z-11.948
X-18.941 Y16.784 Z-11.909
X-18.861 Y16.775 Z-11.86
X-18.788 Y16.766 Z-11.802
X-18.711 Z-11.723
X-18.645 Z-11.634
X-18.593 Z-11.536
X-18.555 Z-11.433
