(1001)
(T4  D=10. CR=0. - ZMIN=0. - FLAT END MILL)
G90 G94 G91.1 G40 G49 G17
G21

(FACE2)
M5
T4 M6
S9700 M3
G54
M8
G0 X24.597 Y-44.643
G43 Z10. H4
Z6.
G1 Z1. F2328.
G18 G3 X23.597 Z0. I-1. K0.
G1 X21.285
X-21.285
X-29.075
G17 G2 Y-39.34 I0. J2.651
G1 X29.075
X34.372
G3 Y-34.038 I0. J2.651
G1 X-34.372
X-38.227
G2 Y-28.736 I0. J2.651
G1 X38.227
X41.047
G3 Y-23.433 I0. J2.651
G1 X-41.047
X-43.041
G2 Y-18.131 I0. J2.651
G1 X43.041
X44.312
G3 Y-12.829 I0. J2.651
G1 X-44.312
X-44.927
G2 Y-7.526 I0. J2.651
G1 X44.927
X45.
G3 Y-2.224 I0. J2.651
G1 X-45.
G2 Y3.079 I0. J2.651
G1 X45.
G3 Y8.381 I0. J2.651
G1 X44.868
X-44.868
G2 Y13.683 I0. J2.651
G1 X-44.149
X44.149
G3 Y18.986 I0. J2.651
G1 X42.767
X-42.767
G2 Y24.288 I0. J2.651
G1 X-40.656
X40.656
G3 Y29.59 I0. J2.651
G1 X37.681
X-37.681
G2 Y34.893 I0. J2.651
G1 X-33.63
X33.63
G3 Y40.195 I0. J2.651
G1 X28.035
X-28.035
G18 G3 X-29.035 Z1. I0. K1.
G0 Z10.
G17

M9
M30
