;FLAVOR:Marlin
;TIME:5580
;Filament used: 6.65683m
;Layer height: 0.2
;Generated with Cura_SteamEngine 3.2.1
M190 S60
M104 S200
M109 S200
M82 ;absolute extrusion mode
G21 ;metric values
G90 ;absolute positioning
M82 ;set extruder to absolute mode
M107 ;start with the fan off
G28 X0 Y0 ;move X/Y to min endstops
G28 Z0 ;move Z to min endstops
G1 Z15.0 F100 ;move the platform down 15mm
G92 E0 ;zero the extruded length
G1 F200 E3 ;extrude 3mm of feed stock
G92 E0 ;zero the extruded length again
G1 F100
M117 Printing...
G5
;LAYER_COUNT:61
;LAYER:0
M106 S255
M204 S3500
M205 X13 Y13
G0 F3000 X77.453 Y76.012 Z0.2
M204 S2000
;TYPE:SKIRT
G1 F2400 X77.813 Y75.678 E0.02287
G1 X80.174 Y73.654 E0.16767
G1 X80.558 Y73.349 E0.19051
G1 X82.223 Y72.13 E0.28659
G1 X82.599 Y71.875 E0.30775
G1 X84.797 Y70.494 E0.42862
G1 X85.423 Y70.148 E0.46193
G1 X86.084 Y69.874 E0.49525
G1 X86.771 Y69.675 E0.52855
G1 X87.476 Y69.554 E0.56186
G1 X88.19 Y69.513 E0.59516
G1 X89.052 Y69.57 E0.63539
G1 X95.627 Y70.451 E0.94428
G1 X100.894 Y70.833 E1.19018
G1 X106.175 Y70.915 E1.43611
G1 X111.474 Y70.698 E1.68306
G1 X116.769 Y70.18 E1.9308
G1 X120.87 Y69.58 E2.12379
G1 X121.583 Y69.517 E2.15712
G1 X122.298 Y69.533 E2.19042
G1 X123.007 Y69.628 E2.22373
G1 X123.7 Y69.803 E2.25701
G1 X124.37 Y70.053 E2.29031
G1 X125.282 Y70.545 E2.33856
G1 X128.281 Y72.492 E2.50506
G1 X128.726 Y72.809 E2.5305
G1 X130.394 Y74.107 E2.62892
G1 X130.705 Y74.365 E2.64773
G1 X132.261 Y75.742 E2.74448
G1 X132.545 Y76.01 E2.76266
G1 X133.988 Y77.453 E2.85769
G1 X134.322 Y77.813 E2.88056
G1 X136.346 Y80.174 E3.02536
G1 X136.651 Y80.558 E3.0482
G1 X137.867 Y82.219 E3.14405
G1 X138.122 Y82.595 E3.1652
G1 X139.506 Y84.798 E3.28635
G1 X139.852 Y85.424 E3.31965
G1 X140.126 Y86.085 E3.35297
G1 X140.325 Y86.772 E3.38628
G1 X140.446 Y87.477 E3.41959
G1 X140.487 Y88.191 E3.45289
G1 X140.43 Y89.053 E3.49311
G1 X139.549 Y95.627 E3.80196
G1 X139.167 Y100.894 E4.04786
G1 X139.085 Y106.177 E4.29389
G1 X139.302 Y111.474 E4.54075
G1 X139.82 Y116.769 E4.78848
G1 X140.42 Y120.87 E4.98147
G1 X140.483 Y121.583 E5.0148
G1 X140.467 Y122.298 E5.0481
G1 X140.372 Y123.007 E5.08141
G1 X140.197 Y123.7 E5.1147
G1 X139.947 Y124.37 E5.14799
G1 X139.455 Y125.282 E5.19625
G1 X137.506 Y128.284 E5.36291
G1 X137.189 Y128.73 E5.38839
G1 X135.897 Y130.39 E5.48634
G1 X135.638 Y130.701 E5.50518
G1 X134.258 Y132.26 E5.60213
G1 X133.993 Y132.542 E5.62015
G1 X132.549 Y133.987 E5.71527
G1 X132.187 Y134.322 E5.73824
G1 X129.826 Y136.346 E5.88305
G1 X129.442 Y136.651 E5.90588
G1 X127.777 Y137.87 E6.00197
G1 X127.401 Y138.125 E6.02312
G1 X125.203 Y139.506 E6.14399
G1 X124.577 Y139.852 E6.1773
G1 X123.916 Y140.126 E6.21062
G1 X123.229 Y140.325 E6.24392
G1 X122.524 Y140.446 E6.27723
G1 X121.81 Y140.487 E6.31053
G1 X120.948 Y140.43 E6.35076
G1 X114.373 Y139.549 E6.65965
G1 X109.106 Y139.167 E6.90555
G1 X103.825 Y139.085 E7.15149
G1 X98.526 Y139.302 E7.39844
G1 X93.231 Y139.82 E7.64617
G1 X89.13 Y140.42 E7.83916
G1 X88.417 Y140.483 E7.87249
G1 X87.702 Y140.467 E7.9058
G1 X86.993 Y140.372 E7.9391
G1 X86.3 Y140.197 E7.97239
G1 X85.63 Y139.947 E8.00569
G1 X84.718 Y139.455 E8.05394
G1 X81.715 Y137.505 E8.22066
G1 X81.269 Y137.187 E8.24617
G1 X79.604 Y135.891 E8.34442
G1 X79.294 Y135.634 E8.36317
G1 X77.738 Y134.257 E8.45992
G1 X77.452 Y133.988 E8.4782
G1 X76.008 Y132.543 E8.57332
G1 X75.677 Y132.185 E8.59603
G1 X73.655 Y129.827 E8.74067
G1 X73.348 Y129.44 E8.76367
G1 X72.127 Y127.771 E8.85996
G1 X71.873 Y127.398 E8.88097
G1 X70.494 Y125.204 E9.00164
G1 X70.148 Y124.578 E9.03495
G1 X69.874 Y123.917 E9.06826
G1 X69.675 Y123.23 E9.10157
G1 X69.554 Y122.525 E9.13488
G1 X69.513 Y121.811 E9.16818
G1 X69.57 Y120.948 E9.20845
G1 X70.451 Y114.373 E9.51735
G1 X70.833 Y109.106 E9.76324
G1 X70.915 Y103.823 E10.00927
G1 X70.698 Y98.525 E10.25618
G1 X70.18 Y93.23 E10.50391
G1 X69.58 Y89.13 E10.69686
G1 X69.517 Y88.418 E10.73014
G1 X69.533 Y87.703 E10.76344
G1 X69.628 Y86.994 E10.79675
G1 X69.802 Y86.3 E10.83007
G1 X70.053 Y85.63 E10.86338
G1 X70.545 Y84.718 E10.91163
G1 X72.494 Y81.716 E11.0783
G1 X72.812 Y81.27 E11.1038
G1 X74.108 Y79.605 E11.20205
G1 X74.365 Y79.295 E11.2208
G1 X75.742 Y77.739 E11.31755
G1 X76.01 Y77.455 E11.33573
G1 X77.453 Y76.012 E11.43076
M204 S3500
G0 F3000 X77.848 Y76.407
M204 S2000
G1 F2400 X78.177 Y76.103 E11.45162
G1 X80.538 Y74.079 E11.59642
G1 X80.889 Y73.801 E11.61727
G1 X82.554 Y72.582 E11.71336
G1 X82.897 Y72.349 E11.73267
G1 X85.095 Y70.968 E11.85354
G1 X85.694 Y70.639 E11.88536
G1 X86.327 Y70.382 E11.91717
G1 X86.986 Y70.201 E11.949
G1 X87.661 Y70.098 E11.98079
G1 X88.344 Y70.075 E12.01261
G1 X88.978 Y70.125 E12.04222
G1 X95.563 Y71.007 E12.35159
G1 X100.88 Y71.393 E12.59982
G1 X106.19 Y71.475 E12.84711
G1 X111.515 Y71.258 E13.09527
G1 X116.843 Y70.736 E13.34455
G1 X120.951 Y70.135 E13.53787
G1 X121.632 Y70.075 E13.5697
G1 X122.315 Y70.096 E13.60152
G1 X122.991 Y70.196 E13.63334
G1 X123.65 Y70.375 E13.66514
G1 X124.284 Y70.629 E13.69694
G1 X124.977 Y71.015 E13.73388
G1 X127.976 Y72.962 E13.90037
G1 X128.383 Y73.251 E13.92362
G1 X130.051 Y74.549 E14.02203
G1 X130.334 Y74.785 E14.03919
G1 X131.89 Y76.162 E14.13594
G1 X132.15 Y76.405 E14.15251
G1 X133.593 Y77.848 E14.24754
G1 X133.897 Y78.177 E14.2684
G1 X135.921 Y80.538 E14.4132
G1 X136.199 Y80.889 E14.43405
G1 X137.415 Y82.55 E14.5299
G1 X137.648 Y82.893 E14.54921
G1 X139.032 Y85.096 E14.67036
G1 X139.361 Y85.695 E14.70218
G1 X139.618 Y86.328 E14.73399
G1 X139.799 Y86.987 E14.76581
G1 X139.902 Y87.662 E14.79761
G1 X139.925 Y88.345 E14.82943
G1 X139.875 Y88.979 E14.85904
G1 X138.993 Y95.563 E15.16836
G1 X138.607 Y100.88 E15.41659
G1 X138.525 Y106.191 E15.66392
G1 X138.742 Y111.516 E15.91209
G1 X139.264 Y116.843 E16.16132
G1 X139.865 Y120.951 E16.35464
G1 X139.925 Y121.632 E16.38648
G1 X139.904 Y122.315 E16.41829
G1 X139.804 Y122.991 E16.45011
G1 X139.625 Y123.65 E16.48191
G1 X139.371 Y124.284 E16.51371
G1 X138.985 Y124.977 E16.55065
G1 X137.036 Y127.979 E16.71731
G1 X136.747 Y128.386 E16.74056
G1 X135.455 Y130.046 E16.83851
G1 X135.219 Y130.33 E16.8557
G1 X133.839 Y131.889 E16.95265
G1 X133.597 Y132.146 E16.96909
G1 X132.153 Y133.591 E17.06421
G1 X131.823 Y133.897 E17.08516
G1 X129.462 Y135.921 E17.22997
G1 X129.111 Y136.199 E17.25082
G1 X127.446 Y137.418 E17.34691
G1 X127.103 Y137.651 E17.36621
G1 X124.905 Y139.032 E17.48709
G1 X124.306 Y139.361 E17.51891
G1 X123.673 Y139.618 E17.55072
G1 X123.014 Y139.799 E17.58254
G1 X122.339 Y139.902 E17.61434
G1 X121.656 Y139.925 E17.64616
G1 X121.022 Y139.875 E17.67577
G1 X114.437 Y138.993 E17.98514
G1 X109.12 Y138.607 E18.23337
G1 X103.81 Y138.525 E18.48066
G1 X98.485 Y138.742 E18.72882
G1 X93.157 Y139.264 E18.9781
G1 X89.049 Y139.865 E19.17142
G1 X88.368 Y139.925 E19.20325
G1 X87.685 Y139.904 E19.23507
G1 X87.009 Y139.804 E19.26689
G1 X86.35 Y139.625 E19.29869
G1 X85.716 Y139.371 E19.33049
G1 X85.023 Y138.985 E19.36743
G1 X82.02 Y137.035 E19.53415
G1 X81.613 Y136.745 E19.55743
G1 X79.948 Y135.449 E19.65567
G1 X79.665 Y135.214 E19.6728
G1 X78.109 Y133.837 E19.76955
G1 X77.848 Y133.592 E19.78622
G1 X76.404 Y132.147 E19.88134
G1 X76.102 Y131.821 E19.90204
G1 X74.08 Y129.463 E20.04668
G1 X73.8 Y129.109 E20.06769
G1 X72.579 Y127.44 E20.16398
G1 X72.348 Y127.1 E20.18312
G1 X70.969 Y124.906 E20.30379
G1 X70.639 Y124.307 E20.33564
G1 X70.382 Y123.674 E20.36745
G1 X70.201 Y123.015 E20.39927
G1 X70.098 Y122.34 E20.43106
G1 X70.075 Y121.657 E20.46289
G1 X70.125 Y121.022 E20.49254
G1 X71.007 Y114.437 E20.80191
G1 X71.393 Y109.12 E21.05014
G1 X71.475 Y103.809 E21.29747
G1 X71.258 Y98.483 E21.54568
G1 X70.736 Y93.156 E21.79492
G1 X70.135 Y89.049 E21.98819
G1 X70.075 Y88.368 E22.02002
G1 X70.096 Y87.685 E22.05184
G1 X70.196 Y87.009 E22.08366
G1 X70.375 Y86.35 E22.11546
G1 X70.629 Y85.716 E22.14726
G1 X71.015 Y85.023 E22.1842
G1 X72.964 Y82.021 E22.35086
G1 X73.254 Y81.614 E22.37413
G1 X74.55 Y79.949 E22.47238
G1 X74.785 Y79.666 E22.48951
G1 X76.162 Y78.11 E22.58626
G1 X76.405 Y77.85 E22.60283
G1 X77.848 Y76.407 E22.69786
M204 S3500
G0 F3000 X78.244 Y76.803
M204 S2000
G1 F2400 X78.542 Y76.528 E22.71674
G1 X80.903 Y74.504 E22.86154
G1 X81.22 Y74.253 E22.88037
G1 X82.885 Y73.034 E22.97646
G1 X83.195 Y72.823 E22.99392
G1 X85.393 Y71.442 E23.11479
G1 X85.963 Y71.131 E23.14503
G1 X86.567 Y70.892 E23.17527
G1 X87.196 Y70.73 E23.20552
G1 X87.84 Y70.645 E23.23577
G1 X88.49 Y70.641 E23.26603
G1 X88.903 Y70.68 E23.28535
G1 X95.511 Y71.565 E23.59579
G1 X100.849 Y71.952 E23.84501
G1 X106.185 Y72.035 E24.0935
G1 X111.559 Y71.816 E24.34395
G1 X116.915 Y71.292 E24.59453
G1 X121.032 Y70.689 E24.78828
G1 X121.68 Y70.634 E24.81857
G1 X122.329 Y70.66 E24.84881
G1 X122.97 Y70.765 E24.87906
G1 X123.593 Y70.948 E24.90929
G1 X124.189 Y71.206 E24.93953
G1 X124.672 Y71.484 E24.96548
G1 X127.671 Y73.431 E25.13198
G1 X128.039 Y73.693 E25.15301
G1 X129.707 Y74.991 E25.25143
G1 X129.963 Y75.204 E25.26693
G1 X131.519 Y76.581 E25.36368
G1 X131.754 Y76.801 E25.37867
G1 X133.197 Y78.244 E25.4737
G1 X133.472 Y78.542 E25.49258
G1 X135.496 Y80.903 E25.63738
G1 X135.747 Y81.22 E25.65621
G1 X136.963 Y82.881 E25.75207
G1 X137.174 Y83.191 E25.76953
G1 X138.558 Y85.394 E25.89067
G1 X138.869 Y85.965 E25.92095
G1 X139.108 Y86.569 E25.9512
G1 X139.27 Y87.198 E25.98144
G1 X139.355 Y87.842 E26.01169
G1 X139.359 Y88.491 E26.04191
G1 X139.32 Y88.904 E26.06122
G1 X138.435 Y95.511 E26.37162
G1 X138.048 Y100.849 E26.62083
G1 X137.965 Y106.187 E26.86942
G1 X138.184 Y111.559 E27.11977
G1 X138.708 Y116.915 E27.37036
G1 X139.311 Y121.032 E27.56411
G1 X139.366 Y121.68 E27.59439
G1 X139.34 Y122.329 E27.62464
G1 X139.235 Y122.97 E27.65488
G1 X139.052 Y123.593 E27.68512
G1 X138.794 Y124.189 E27.71536
G1 X138.516 Y124.672 E27.74131
G1 X136.567 Y127.674 E27.90797
G1 X136.305 Y128.042 E27.92901
G1 X135.013 Y129.702 E28.02696
G1 X134.8 Y129.959 E28.0425
G1 X133.42 Y131.518 E28.13945
G1 X133.201 Y131.75 E28.1543
G1 X131.757 Y133.195 E28.24943
G1 X131.458 Y133.472 E28.26841
G1 X129.097 Y135.496 E28.41321
G1 X128.78 Y135.747 E28.43204
G1 X127.115 Y136.966 E28.52813
G1 X126.805 Y137.177 E28.54559
G1 X124.607 Y138.558 E28.66646
G1 X124.037 Y138.869 E28.6967
G1 X123.433 Y139.108 E28.72694
G1 X122.804 Y139.27 E28.75719
G1 X122.16 Y139.355 E28.78743
G1 X121.51 Y139.359 E28.8177
G1 X121.097 Y139.32 E28.83702
G1 X114.489 Y138.435 E29.14746
G1 X109.151 Y138.048 E29.39667
G1 X103.815 Y137.965 E29.64517
G1 X98.441 Y138.184 E29.89561
G1 X93.085 Y138.708 E30.1462
G1 X88.968 Y139.311 E30.33995
G1 X88.32 Y139.366 E30.37023
G1 X87.671 Y139.34 E30.40048
G1 X87.03 Y139.235 E30.43072
G1 X86.407 Y139.052 E30.46096
G1 X85.811 Y138.794 E30.4912
G1 X85.327 Y138.515 E30.51721
G1 X82.324 Y136.565 E30.68394
G1 X81.957 Y136.304 E30.70491
G1 X80.292 Y135.008 E30.80316
G1 X80.036 Y134.795 E30.81866
G1 X78.48 Y133.418 E30.91542
G1 X78.244 Y133.196 E30.9305
G1 X76.8 Y131.751 E31.02563
G1 X76.527 Y131.456 E31.04434
G1 X74.505 Y129.098 E31.18898
G1 X74.252 Y128.779 E31.20794
G1 X73.031 Y127.11 E31.30423
G1 X72.822 Y126.802 E31.32156
G1 X71.443 Y124.608 E31.44223
G1 X71.131 Y124.038 E31.47249
G1 X70.893 Y123.433 E31.50276
G1 X70.73 Y122.805 E31.53297
G1 X70.645 Y122.16 E31.56326
G1 X70.641 Y121.511 E31.59348
G1 X70.68 Y121.097 E31.61285
G1 X71.565 Y114.489 E31.92329
G1 X71.952 Y109.151 E32.1725
G1 X72.035 Y103.813 E32.42109
G1 X71.816 Y98.44 E32.67149
G1 X71.292 Y93.084 E32.92208
G1 X70.689 Y88.968 E33.11578
G1 X70.634 Y88.32 E33.14606
G1 X70.66 Y87.671 E33.17631
G1 X70.765 Y87.03 E33.20655
G1 X70.948 Y86.407 E33.23679
G1 X71.206 Y85.811 E33.26703
G1 X71.484 Y85.328 E33.29298
G1 X73.433 Y82.326 E33.45964
G1 X73.695 Y81.958 E33.48068
G1 X74.991 Y80.293 E33.57892
G1 X75.204 Y80.037 E33.59443
G1 X76.581 Y78.481 E33.69118
G1 X76.801 Y78.246 E33.70617
G1 X78.244 Y76.803 E33.8012
M204 S3500
G1 F2400 E26.8012
G0 F3000 X82.68 Y79.004
G0 X83.689 Y80.145
G0 X92.175 Y84.521
G0 X101.26 Y85.962
M204 S2000
;TYPE:WALL-INNER
G1 F2400 E33.8012
G1 F1500 X100.443 Y86.144 E33.84017
G1 X99.639 Y86.357 E33.8789
G1 X98.841 Y86.603 E33.91778
G1 X98.053 Y86.886 E33.95677
G1 X97.28 Y87.201 E33.99564
G1 X96.522 Y87.55 E34.0345
G1 X95.78 Y87.931 E34.07334
G1 X95.054 Y88.343 E34.11221
G1 X94.346 Y88.787 E34.15112
G1 X93.66 Y89.26 E34.18992
G1 X92.994 Y89.762 E34.22875
G1 X92.348 Y90.292 E34.26766
G1 X91.724 Y90.853 E34.30674
G1 X91.13 Y91.437 E34.34552
G1 X90.56 Y92.045 E34.38433
G1 X90.017 Y92.677 E34.42313
G1 X89.5 Y93.333 E34.46202
G1 X89.01 Y94.011 E34.50097
G1 X88.553 Y94.711 E34.5399
G1 X88.126 Y95.426 E34.57868
G1 X87.729 Y96.162 E34.61762
G1 X87.365 Y96.914 E34.65652
G1 X87.034 Y97.679 E34.69533
G1 X86.736 Y98.459 E34.73421
G1 X86.472 Y99.25 E34.77304
G1 X86.24 Y100.053 E34.81196
G1 X86.046 Y100.865 E34.85084
G1 X85.885 Y101.683 E34.88966
G1 X85.759 Y102.509 E34.92857
G1 X85.672 Y103.339 E34.96743
G1 X85.617 Y104.172 E35.0063
G1 X85.6 Y105.006 E35.04514
G1 X85.617 Y105.842 E35.08408
G1 X85.673 Y106.674 E35.12291
G1 X85.763 Y107.503 E35.16173
G1 X85.887 Y108.329 E35.20063
G1 X86.049 Y109.149 E35.23955
G1 X86.246 Y109.96 E35.27841
G1 X86.476 Y110.762 E35.31726
G1 X86.74 Y111.554 E35.35613
G1 X87.04 Y112.335 E35.39509
G1 X87.371 Y113.1 E35.4339
G1 X87.737 Y113.85 E35.47276
G1 X88.133 Y114.587 E35.51172
G1 X88.561 Y115.301 E35.55048
G1 X89.018 Y115.999 E35.58933
G1 X89.508 Y116.677 E35.62828
G1 X90.024 Y117.333 E35.66715
G1 X90.568 Y117.966 E35.70601
G1 X91.141 Y118.575 E35.74495
G1 X91.736 Y119.158 E35.78374
G1 X92.358 Y119.716 E35.82265
G1 X93.004 Y120.246 E35.86156
G1 X93.67 Y120.749 E35.90042
G1 X94.358 Y121.22 E35.93924
G1 X95.066 Y121.664 E35.97816
G1 X95.792 Y122.076 E36.01703
G1 X96.536 Y122.456 E36.05593
G1 X97.293 Y122.804 E36.09472
G1 X98.067 Y123.119 E36.13363
G1 X98.853 Y123.401 E36.17252
G1 X99.651 Y123.649 E36.21143
G1 X100.457 Y123.859 E36.25021
G1 X101.272 Y124.04 E36.28909
G1 X102.095 Y124.182 E36.32797
G1 X102.923 Y124.289 E36.36685
G1 X103.755 Y124.36 E36.40573
G1 X104.589 Y124.396 E36.4446
G1 X105.423 Y124.396 E36.48344
G1 X106.259 Y124.359 E36.5224
G1 X107.089 Y124.287 E36.5612
G1 X107.917 Y124.18 E36.60007
G1 X108.74 Y124.038 E36.63896
G1 X109.557 Y123.856 E36.67794
G1 X110.361 Y123.643 E36.71667
G1 X111.159 Y123.397 E36.75555
G1 X111.947 Y123.114 E36.79454
G1 X112.72 Y122.799 E36.83341
G1 X113.478 Y122.45 E36.87226
G1 X114.22 Y122.069 E36.9111
G1 X114.946 Y121.657 E36.94997
G1 X115.654 Y121.213 E36.98889
G1 X116.34 Y120.74 E37.02769
G1 X117.006 Y120.238 E37.06652
G1 X117.652 Y119.708 E37.10543
G1 X118.276 Y119.147 E37.1445
G1 X118.87 Y118.563 E37.18329
G1 X119.44 Y117.955 E37.2221
G1 X119.983 Y117.323 E37.26089
G1 X120.5 Y116.667 E37.29979
G1 X120.99 Y115.989 E37.33874
G1 X121.447 Y115.289 E37.37767
G1 X121.874 Y114.574 E37.41644
G1 X122.271 Y113.838 E37.45538
G1 X122.635 Y113.086 E37.49429
G1 X122.966 Y112.321 E37.5331
G1 X123.264 Y111.541 E37.57198
G1 X123.528 Y110.75 E37.61081
G1 X123.76 Y109.947 E37.64973
G1 X123.954 Y109.135 E37.6886
G1 X124.115 Y108.317 E37.72742
G1 X124.241 Y107.491 E37.76633
G1 X124.328 Y106.661 E37.80519
G1 X124.383 Y105.828 E37.84406
G1 X124.4 Y104.994 E37.88291
G1 X124.383 Y104.158 E37.92184
G1 X124.327 Y103.326 E37.96067
G1 X124.237 Y102.497 E37.9995
G1 X124.113 Y101.671 E38.03839
G1 X123.951 Y100.851 E38.07731
G1 X123.754 Y100.04 E38.11617
G1 X123.524 Y99.238 E38.15502
G1 X123.26 Y98.446 E38.1939
G1 X122.96 Y97.665 E38.23286
G1 X122.629 Y96.9 E38.27167
G1 X122.263 Y96.15 E38.31053
G1 X121.867 Y95.413 E38.34949
G1 X121.439 Y94.699 E38.38825
G1 X120.982 Y94.001 E38.4271
G1 X120.492 Y93.323 E38.46605
G1 X119.976 Y92.667 E38.50491
G1 X119.432 Y92.034 E38.54378
G1 X118.859 Y91.425 E38.58271
G1 X118.264 Y90.842 E38.6215
G1 X117.642 Y90.284 E38.66041
G1 X116.996 Y89.754 E38.69932
G1 X116.33 Y89.251 E38.73818
G1 X115.642 Y88.78 E38.77701
G1 X114.934 Y88.336 E38.81592
G1 X114.208 Y87.924 E38.85479
G1 X113.464 Y87.544 E38.89369
G1 X112.707 Y87.196 E38.93249
G1 X111.933 Y86.881 E38.9714
G1 X111.147 Y86.599 E39.01028
G1 X110.349 Y86.351 E39.04919
G1 X109.543 Y86.141 E39.08798
G1 X108.728 Y85.96 E39.12685
G1 X107.905 Y85.818 E39.16574
G1 X107.077 Y85.711 E39.20462
G1 X106.245 Y85.64 E39.2435
