(1001)
(T1  D=5.8 CR=2.9 - ZMIN=-12. - BALL END MILL)
G90 G94 G91.1 G40 G49 G17
G21

(2D ADAPTIVE3)
M5
T1 M6
S10000 M3
G54
M8
G0 X-34.166 Y33.464
G43 Z15. H1
Z5.
Z-2.84
G1 Z-3.42 F1440.
X-34.159 Y33.46 Z-3.511
X-34.141 Y33.449 Z-3.599
X-34.111 Y33.431 Z-3.683
X-34.07 Y33.407 Z-3.761
X-34.019 Y33.377 Z-3.83
X-33.96 Y33.342 Z-3.889
X-33.893 Y33.302 Z-3.937
X-33.821 Y33.259 Z-3.972
X-33.745 Y33.214 Z-3.993
X-33.667 Y33.168 Z-4.
G2 X-31.113 Y31.256 I-7.545 J-12.741
G1 X-31.037 Y31.181
X-30.879 Y30.824
X-30.712 Y30.359
X-30.537 Y29.737
X-30.361 Y28.883
X-30.244 Y28.02
X-30.165 Y27.153
X-30.112 Y26.283
X-30.076 Y25.413
X-30.051 Y24.542
X-30.035 Y23.671
X-30.023 Y22.8
X-30.015 Y21.929
X-30.011 Y21.158
X-30.036 Y20.879
X-30.115 Y20.609
X-30.245 Y20.36
X-31.439 Y18.52
X-31.523 Y18.389
X-31.528 Y18.383
G3 X-31.724 Y18.136 I1.312 J-1.247
G1 X-31.766 Y18.062
X-31.797 Y17.982
X-31.88 Y17.703
X-31.918 Y17.576
X-32.001 Y17.295
X-32.02 Y17.212
X-32.026 Y17.127
G3 X-31.997 Y16.812 I1.81 J0.009
G1 X-31.996 Y16.807
X-31.988 Y16.609
X-31.969 Y16.412
X-31.938 Y16.214
X-31.887 Y16.016
X-31.835 Y15.851
X-31.823 Y15.818
X-31.745 Y15.621
X-31.637 Y15.401
X-31.527 Y15.225
X-31.439 Y15.089
X-31.393 Y15.028
X-31.327 Y14.941
X-31.259 Y14.831
X-31.116 Y14.584
X-30.963 Y14.27
X-30.8 Y13.866
X-30.629 Y13.334
X-30.45 Y12.604
X-30.303 Y11.746
X-30.205 Y10.88
X-30.139 Y10.011
X-30.094 Y9.141
X-30.064 Y8.271
X-30.043 Y7.4
X-30.029 Y6.529
X-30.019 Y5.658
X-30.013 Y4.787
X-30.008 Y3.916
X-30.003 Y2.174
X-30. Y-0.44
X-29.999 Y-7.408
Y-13.155
X-30.028 Y-13.447
X-30.116 Y-13.727
X-30.258 Y-13.983
X-30.45 Y-14.206
X-30.682 Y-14.386
X-30.689 Y-14.389
G3 X-31.173 Y-14.651 I0.753 J-1.969
X-31.342 Y-14.844 I0.34 J-0.47
G1 X-31.972 Y-16.004
G3 X-32.041 Y-16.252 I0.51 J-0.277
X-31.997 Y-16.8 I2.106 J-0.107
G1 X-31.996 Y-16.807
X-31.99 Y-17.005
X-31.967 Y-17.203
X-31.932 Y-17.4
X-31.816 Y-17.796
X-31.736 Y-17.994
X-31.637 Y-18.194
X-31.523 Y-18.389
X-31.396 Y-18.587
X-31.268 Y-18.784
X-31.213 Y-18.879
X-31.067 Y-19.146
X-30.91 Y-19.486
X-30.745 Y-19.927
X-30.571 Y-20.514
X-30.39 Y-21.336
X-30.263 Y-22.198
X-30.178 Y-23.065
X-30.121 Y-23.934
X-30.082 Y-24.804
X-30.055 Y-25.675
X-30.037 Y-26.546
X-29.96 Y-26.974
X-29.826 Y-27.389
X-29.342 Y-28.113
X-28.655 Y-28.649
X-27.879 Y-29.044
X-27.056 Y-29.33
X-26.209 Y-29.533
X-25.35 Y-29.676
X-24.484 Y-29.776
X-23.616 Y-29.846
X-22.746 Y-29.894
X-21.876 Y-29.926
X-21.216 Y-29.944
X-20.952 Y-29.975
X-20.699 Y-30.054
X-20.464 Y-30.177
X-18.52 Y-31.439
X-18.389 Y-31.523
X-18.383 Y-31.528
G3 X-18.136 Y-31.724 I1.247 J1.312
G1 X-18.062 Y-31.766
X-17.982 Y-31.797
X-17.703 Y-31.88
X-17.576 Y-31.918
X-17.295 Y-32.001
X-17.212 Y-32.02
X-17.127 Y-32.026
G3 X-16.812 Y-31.997 I-0.009 J1.81
G1 X-16.807 Y-31.996
X-16.609 Y-31.988
X-16.412 Y-31.969
X-16.214 Y-31.938
X-16.016 Y-31.887
X-15.851 Y-31.835
X-15.818 Y-31.823
X-15.621 Y-31.745
X-15.401 Y-31.637
X-15.225 Y-31.527
X-15.089 Y-31.439
X-15.028 Y-31.393
X-14.941 Y-31.327
X-14.831 Y-31.259
X-14.584 Y-31.116
X-14.27 Y-30.963
X-13.866 Y-30.8
X-13.334 Y-30.629
X-12.604 Y-30.45
X-11.746 Y-30.303
X-10.88 Y-30.205
X-10.011 Y-30.139
X-9.141 Y-30.094
X-8.271 Y-30.064
X-7.4 Y-30.043
X-6.529 Y-30.029
X-5.658 Y-30.019
X-4.787 Y-30.013
X-3.916 Y-30.008
X-2.174 Y-30.003
X0.44 Y-30.
X7.408 Y-29.999
X13.155
X13.447 Y-30.028
X13.727 Y-30.116
X13.983 Y-30.258
X14.206 Y-30.45
X14.386 Y-30.682
X14.389 Y-30.689
G3 X14.651 Y-31.173 I1.969 J0.753
X14.844 Y-31.342 I0.47 J0.34
G1 X16.004 Y-31.972
G3 X16.252 Y-32.041 I0.277 J0.51
X16.8 Y-31.997 I0.107 J2.106
G1 X16.807 Y-31.996
X17.005 Y-31.99
X17.203 Y-31.967
X17.4 Y-31.932
X17.796 Y-31.816
X17.994 Y-31.736
X18.194 Y-31.637
X18.389 Y-31.523
X18.587 Y-31.396
X18.784 Y-31.268
X18.879 Y-31.213
X19.146 Y-31.067
X19.486 Y-30.91
X19.927 Y-30.745
X20.514 Y-30.571
X21.336 Y-30.39
X22.198 Y-30.263
X23.065 Y-30.178
X23.934 Y-30.121
X24.804 Y-30.082
X25.675 Y-30.055
X26.546 Y-30.037
X26.974 Y-29.96
X27.389 Y-29.826
X28.113 Y-29.342
X28.649 Y-28.655
X29.044 Y-27.879
X29.33 Y-27.056
X29.533 Y-26.209
X29.676 Y-25.35
X29.776 Y-24.484
X29.846 Y-23.616
X29.894 Y-22.746
X29.926 Y-21.876
X29.944 Y-21.216
X29.975 Y-20.952
X30.054 Y-20.699
X30.177 Y-20.464
X31.439 Y-18.52
X31.523 Y-18.389
X31.528 Y-18.383
G3 X31.724 Y-18.136 I-1.312 J1.247
G1 X31.766 Y-18.062
X31.797 Y-17.982
X31.88 Y-17.703
X31.918 Y-17.576
X32.001 Y-17.295
X32.02 Y-17.212
X32.026 Y-17.127
G3 X31.997 Y-16.812 I-1.81 J-0.009
G1 X31.996 Y-16.807
X31.988 Y-16.609
X31.969 Y-16.412
X31.938 Y-16.214
X31.887 Y-16.016
X31.835 Y-15.851
X31.823 Y-15.818
X31.745 Y-15.621
X31.637 Y-15.401
X31.527 Y-15.225
X31.439 Y-15.089
X31.393 Y-15.028
X31.327 Y-14.941
X31.259 Y-14.831
X31.116 Y-14.584
X30.963 Y-14.27
X30.8 Y-13.866
X30.629 Y-13.334
X30.45 Y-12.604
X30.303 Y-11.746
X30.205 Y-10.88
X30.139 Y-10.011
X30.094 Y-9.141
X30.064 Y-8.271
X30.043 Y-7.4
X30.029 Y-6.529
X30.019 Y-5.658
X30.013 Y-4.787
X30.008 Y-3.916
X30.003 Y-2.174
X30. Y0.44
X29.999 Y7.408
Y13.155
X30.028 Y13.447
X30.116 Y13.727
X30.258 Y13.983
X30.45 Y14.206
X30.682 Y14.386
X30.689 Y14.389
G3 X31.173 Y14.651 I-0.753 J1.969
X31.342 Y14.844 I-0.34 J0.47
G1 X31.972 Y16.004
G3 X32.041 Y16.252 I-0.51 J0.277
X31.997 Y16.8 I-2.106 J0.107
G1 X31.996 Y16.807
X31.99 Y17.005
X31.967 Y17.203
X31.932 Y17.4
X31.816 Y17.796
X31.736 Y17.994
X31.637 Y18.194
X31.523 Y18.389
X31.396 Y18.587
X31.268 Y18.784
X31.213 Y18.879
X31.067 Y19.146
X30.91 Y19.486
X30.745 Y19.927
X30.571 Y20.514
X30.39 Y21.336
X30.263 Y22.198
X30.178 Y23.065
X30.121 Y23.934
X30.082 Y24.804
X30.055 Y25.675
X30.037 Y26.546
X29.96 Y26.974
X29.826 Y27.389
X29.342 Y28.113
X28.655 Y28.649
X27.879 Y29.044
X27.056 Y29.33
X26.209 Y29.533
X25.35 Y29.676
X24.484 Y29.776
X23.616 Y29.846
X22.746 Y29.894
X21.876 Y29.926
X21.216 Y29.944
X20.952 Y29.975
X20.699 Y30.054
X20.464 Y30.177
X18.52 Y31.439
X18.389 Y31.523
X18.383 Y31.528
G3 X18.136 Y31.724 I-1.247 J-1.312
G1 X18.062 Y31.766
X17.982 Y31.797
X17.703 Y31.88
X17.576 Y31.918
X17.295 Y32.001
X17.212 Y32.02
X17.127 Y32.026
G3 X16.812 Y31.997 I0.009 J-1.81
G1 X16.807 Y31.996
X16.609 Y31.988
X16.412 Y31.969
X16.214 Y31.938
X16.016 Y31.887
X15.851 Y31.835
X15.818 Y31.823
X15.621 Y31.745
X15.401 Y31.637
X15.225 Y31.527
X15.089 Y31.439
X15.028 Y31.393
X14.941 Y31.327
X14.831 Y31.259
X14.584 Y31.116
X14.27 Y30.963
X13.866 Y30.8
X13.334 Y30.629
X12.604 Y30.45
X11.746 Y30.303
X10.88 Y30.205
X10.011 Y30.139
X9.141 Y30.094
X8.271 Y30.064
X7.4 Y30.043
X6.529 Y30.029
X5.658 Y30.019
X4.787 Y30.013
X3.916 Y30.008
X2.174 Y30.003
X-0.44 Y30.
X-7.408 Y29.999
X-13.155
X-13.447 Y30.028
X-13.727 Y30.116
X-13.983 Y30.258
X-14.206 Y30.45
X-14.386 Y30.682
X-14.389 Y30.689
G3 X-14.651 Y31.173 I-1.969 J-0.753
X-14.844 Y31.342 I-0.47 J-0.34
G1 X-16.004 Y31.972
G3 X-16.252 Y32.041 I-0.277 J-0.51
X-16.8 Y31.997 I-0.107 J-2.106
G1 X-16.807 Y31.996
X-17.005 Y31.99
X-17.203 Y31.967
X-17.4 Y31.932
X-17.796 Y31.816
X-17.994 Y31.736
X-18.194 Y31.637
X-18.389 Y31.523
X-18.587 Y31.396
X-18.784 Y31.268
X-18.879 Y31.213
X-19.146 Y31.067
X-19.486 Y30.91
X-19.927 Y30.745
X-20.514 Y30.571
X-21.336 Y30.39
X-22.198 Y30.263
X-23.065 Y30.178
X-23.934 Y30.121
X-24.804 Y30.082
X-25.669 Y29.975
X-26.082 Y29.838
X-26.293 Y29.784
X-26.494 Y29.699
X-26.679 Y29.585
X-26.845 Y29.444
X-27.132 Y29.116
X-27.53 Y28.341
X-27.756 Y27.5
X-27.881 Y26.638
X-27.947 Y25.769
X-27.981 Y24.899
X-27.998 Y24.028
X-27.999 Y23.852
X-28.038 Y23.53
X-28.147 Y23.225
X-28.322 Y22.951
X-29.294 Y21.75
X-29.449 Y21.553
X-29.721 Y21.157
X-29.857 Y20.956
X-30.245 Y20.36
X-30.255 Y20.349
X-30.269 Y20.342
G3 X-31.437 Y19.626 I1.031 J-2.994
X-31.602 Y19.329 I0.403 J-0.417
G1 X-32.203 Y16.497
G3 X-32.173 Y16.159 I0.567 J-0.12
X-31.396 Y15.03 I2.935 J1.188
G1 X-31.393 Y15.028
X-31.223 Y14.83
X-31.044 Y14.657
X-30.932 Y14.554
X-30.846 Y14.488
X-30.451 Y14.242
X-30.349 Y14.171
X-30.221 Y14.073
X-30.079 Y13.947
X-29.919 Y13.783
X-29.757 Y13.593
X-29.586 Y13.359
X-29.401 Y13.065
X-29.216 Y12.717
X-29.019 Y12.276
X-28.817 Y11.718
X-28.613 Y10.996
X-28.435 Y10.143
X-28.309 Y9.281
X-28.219 Y8.415
X-28.156 Y7.546
X-28.11 Y6.676
X-28.078 Y5.806
X-28.055 Y4.935
X-28.038 Y4.064
X-28.027 Y3.193
X-28.018 Y2.322
X-28.013 Y1.451
X-28.008 Y0.58
X-28.003 Y-1.162
X-28. Y-3.776
X-27.999 Y-9.873
Y-10.745
X-28.005 Y-11.616
X-28.038 Y-12.1
X-28.085 Y-12.379
X-28.186 Y-12.644
X-28.336 Y-12.884
X-28.53 Y-13.091
X-28.76 Y-13.256
X-30.116 Y-14.039
X-30.253 Y-14.119
X-30.682 Y-14.386
G2 X-31.551 Y-13.874 I-0.289 J0.503
G1 X-31.126 Y14.531
X-31.132 Y14.565
X-31.152 Y14.592
X-31.182 Y14.609
X-31.216 Y14.612
X-31.248 Y14.6
X-31.272 Y14.577
X-31.285 Y14.545
X-31.283 Y14.511
X-31.267 Y14.481
X-31.24 Y14.46
X-31.207 Y14.452
G2 X-30.451 Y14.242 I-0.033 J-1.582
G1 X-30.253 Y14.119
X-29.264 Y13.547
X-28.869 Y13.319
X-28.754 Y13.245
X-28.599 Y13.133
X-28.421 Y12.986
X-28.249 Y12.822
X-28.061 Y12.614
X-27.856 Y12.353
X-27.657 Y12.059
X-27.439 Y11.681
X-27.226 Y11.242
X-27.003 Y10.683
X-26.775 Y9.973
X-26.57 Y9.126
X-26.557 Y9.052
X-26.535 Y8.802
X-26.556 Y8.551
X-26.621 Y8.308
G2 X-27.685 Y8.28 I-0.538 J0.216
G1 X-29.667 Y12.563
G2 X-28.869 Y13.319 I0.526 J0.244
G1 X-27.089 Y12.291
X-26.959 Y12.207
X-26.793 Y12.093
X-26.609 Y11.944
X-26.429 Y11.778
X-26.228 Y11.562
X-26.199 Y11.526
X-26.036 Y11.276
X-25.928 Y10.998
X-25.878 Y10.704
X-25.89 Y10.407
X-25.963 Y10.118
G2 X-26.999 Y10.038 I-0.538 J0.217
G1 X-27.86 Y11.482
G2 X-27.089 Y12.291 I0.498 J0.297
G1 X-26.006 Y11.666
X-25.903 Y11.605
X-25.829 Y11.549
X-25.789 Y11.509
X-25.755 Y11.468
X-25.705 Y11.389
X-25.678 Y11.33
X-25.658 Y11.271
X-25.64 Y11.172
Y11.073
X-25.656 Y10.974
X-25.687 Y10.875
X-26.55 Y8.502
X-26.694 Y8.106
X-26.748 Y7.909
X-26.847 Y7.514
X-26.895 Y7.316
X-27.317 Y5.536
X-27.363 Y5.339
X-27.452 Y4.943
X-27.485 Y4.778
X-27.562 Y4.152
X-27.77 Y2.373
X-27.793 Y2.175
X-27.835 Y1.78
X-27.853 Y1.582
X-27.858 Y0.989
Y-0.989
X-27.853 Y-1.582
X-27.835 Y-1.78
X-27.793 Y-2.175
X-27.678 Y-3.164
X-27.562 Y-4.152
X-27.485 Y-4.778
X-27.452 Y-4.943
X-27.363 Y-5.339
X-27.27 Y-5.734
X-26.891 Y-7.333
X-26.847 Y-7.514
X-26.748 Y-7.909
X-26.694 Y-8.106
X-26.577 Y-8.526
X-26.411 Y-9.273
X-26.303 Y-9.999
X-26.259 Y-10.574
X-26.257 Y-11.021
X-26.26 Y-11.069
X-26.306 Y-11.349
X-26.406 Y-11.615
X-26.557 Y-11.856
X-26.751 Y-12.064
X-26.982 Y-12.229
G2 X-27.834 Y-11.713 I-0.272 J0.512
G1 X-27.812 Y-8.318
G2 X-26.694 Y-8.106 I0.58 J-0.004
G1 X-26.407 Y-8.898
X-25.687 Y-10.875
X-25.656 Y-10.974
X-25.64 Y-11.073
Y-11.172
X-25.658 Y-11.271
X-25.678 Y-11.33
X-25.705 Y-11.389
X-25.755 Y-11.468
X-25.789 Y-11.509
X-25.829 Y-11.549
X-25.903 Y-11.605
X-26.101 Y-11.721
X-28.76 Y-13.256
G2 X-29.474 Y-13.12 I-0.272 J0.512
G1 X-29.533 Y-13.051 Z-3.993
X-29.59 Y-12.983 Z-3.972
X-29.645 Y-12.919 Z-3.937
X-29.695 Y-12.86 Z-3.889
X-29.74 Y-12.808 Z-3.83
X-29.778 Y-12.763 Z-3.761
X-29.809 Y-12.726 Z-3.683
X-29.832 Y-12.7 Z-3.599
X-29.845 Y-12.684 Z-3.511
X-29.85 Y-12.678 Z-3.42
G0 Z5.
X-32.384 Y-18.016
Z-2.84
G1 Z-3.42 F1440.
X-32.377 Y-18.02 Z-3.511
X-32.358 Y-18.029 Z-3.599
X-32.327 Y-18.044 Z-3.683
X-32.284 Y-18.065 Z-3.761
X-32.231 Y-18.092 Z-3.83
X-32.169 Y-18.122 Z-3.889
X-32.1 Y-18.156 Z-3.937
X-32.024 Y-18.194 Z-3.972
X-31.945 Y-18.233 Z-3.993
X-31.864 Y-18.273 Z-4.
G2 X-31.268 Y-18.784 I-0.7 J-1.419
G1 X-29.855 Y-20.96
X-29.721 Y-21.157
X-29.462 Y-21.533
X-29.364 Y-21.691
X-29.197 Y-21.99
X-29.019 Y-22.37
X-28.835 Y-22.847
X-28.643 Y-23.474
X-28.448 Y-24.323
X-28.276 Y-25.177
X-27.857 Y-25.94
X-27.221 Y-26.536
X-26.468 Y-26.974
X-25.656 Y-27.288
X-24.813 Y-27.509
X-24.081 Y-27.639
X-23.846 Y-27.702
X-23.624 Y-27.803
X-23.423 Y-27.94
G2 X-23.294 Y-28.655 I-0.381 J-0.438
G1 X-23.338 Y-28.735 Z-3.993
X-23.38 Y-28.812 Z-3.972
X-23.42 Y-28.886 Z-3.937
X-23.457 Y-28.954 Z-3.889
X-23.491 Y-29.015 Z-3.83
X-23.519 Y-29.067 Z-3.761
X-23.542 Y-29.109 Z-3.683
X-23.558 Y-29.139 Z-3.599
X-23.568 Y-29.158 Z-3.511
X-23.572 Y-29.164 Z-3.42
G0 Z5.
X-30.599 Y-20.796
Z-2.84
G1 Z-3.42 F1440.
X-30.592 Y-20.799 Z-3.511
X-30.573 Y-20.808 Z-3.599
X-30.541 Y-20.823 Z-3.683
X-30.498 Y-20.843 Z-3.761
X-30.445 Y-20.867 Z-3.83
X-30.382 Y-20.896 Z-3.889
X-30.311 Y-20.929 Z-3.937
X-30.235 Y-20.964 Z-3.972
X-30.154 Y-21.001 Z-3.993
X-30.072 Y-21.039 Z-4.
G2 X-29.462 Y-21.533 I-0.661 J-1.438
G1 X-29.449 Y-21.553
X-29.294 Y-21.75
X-27.287 Y-24.229
X-27.204 Y-24.321
X-26.837 Y-24.716
X-24.716 Y-26.837
X-24.321 Y-27.204
X-24.229 Y-27.287
X-21.75 Y-29.294
X-21.553 Y-29.449
X-21.157 Y-29.721
X-20.956 Y-29.857
X-20.464 Y-30.177
X-20.453 Y-30.188
X-20.446 Y-30.201
G3 X-19.711 Y-31.401 I3.073 J1.058
X-19.418 Y-31.564 I0.417 J0.403
G1 X-16.535 Y-32.2
G3 X-16.201 Y-32.174 I0.125 J0.566
X-15.03 Y-31.395 I-1.172 J3.031
G1 X-15.028 Y-31.393
X-14.83 Y-31.223
X-14.657 Y-31.044
X-14.554 Y-30.932
X-14.488 Y-30.846
X-14.242 Y-30.451
X-14.171 Y-30.349
X-14.073 Y-30.221
X-13.947 Y-30.079
X-13.783 Y-29.919
X-13.593 Y-29.757
X-13.359 Y-29.586
X-13.065 Y-29.401
X-12.717 Y-29.216
X-12.276 Y-29.019
X-11.718 Y-28.817
X-10.996 Y-28.613
X-10.143 Y-28.435
X-9.281 Y-28.309
X-8.415 Y-28.219
X-7.546 Y-28.156
X-6.676 Y-28.11
X-5.806 Y-28.078
X-4.935 Y-28.055
X-4.064 Y-28.038
X-3.193 Y-28.027
X-2.322 Y-28.018
X-1.451 Y-28.013
X-0.58 Y-28.008
X1.162 Y-28.003
X3.776 Y-28.
X9.873 Y-27.999
X10.745
X11.616 Y-28.005
X12.1 Y-28.038
X12.379 Y-28.085
X12.644 Y-28.186
X12.884 Y-28.336
X13.091 Y-28.53
X13.256 Y-28.76
X14.039 Y-30.116
X14.119 Y-30.253
X14.386 Y-30.682
G2 X13.874 Y-31.551 I-0.503 J-0.289
G1 X-14.531 Y-31.126
X-14.565 Y-31.132
X-14.592 Y-31.152
X-14.609 Y-31.182
X-14.612 Y-31.216
X-14.6 Y-31.248
X-14.577 Y-31.272
X-14.545 Y-31.285
X-14.511 Y-31.283
X-14.481 Y-31.267
X-14.46 Y-31.24
X-14.452 Y-31.207
G2 X-14.242 Y-30.451 I1.582 J-0.033
G1 X-14.119 Y-30.253
X-13.547 Y-29.264
X-13.319 Y-28.869
X-13.245 Y-28.754
X-13.133 Y-28.599
X-12.986 Y-28.421
X-12.822 Y-28.249
X-12.614 Y-28.061
X-12.353 Y-27.856
X-12.059 Y-27.657
X-11.681 Y-27.439
X-11.242 Y-27.226
X-10.683 Y-27.003
X-9.973 Y-26.775
X-9.126 Y-26.57
X-9.052 Y-26.557
X-8.802 Y-26.535
X-8.551 Y-26.556
X-8.308 Y-26.621
G2 X-8.28 Y-27.685 I-0.216 J-0.538
G1 X-12.563 Y-29.667
G2 X-13.319 Y-28.869 I-0.244 J0.526
G1 X-12.291 Y-27.089
X-12.207 Y-26.959
X-12.093 Y-26.793
X-11.944 Y-26.609
X-11.778 Y-26.429
X-11.562 Y-26.228
X-11.526 Y-26.199
X-11.276 Y-26.036
X-10.998 Y-25.928
X-10.704 Y-25.878
X-10.407 Y-25.89
X-10.118 Y-25.963
G2 X-10.038 Y-26.999 I-0.217 J-0.538
G1 X-11.482 Y-27.86
G2 X-12.291 Y-27.089 I-0.297 J0.498
G1 X-11.666 Y-26.006
X-11.605 Y-25.903
X-11.549 Y-25.829
X-11.509 Y-25.789
X-11.468 Y-25.755
X-11.389 Y-25.705
X-11.33 Y-25.678
X-11.271 Y-25.658
X-11.172 Y-25.64
X-11.073
X-10.974 Y-25.656
X-10.875 Y-25.687
X-8.502 Y-26.55
X-8.106 Y-26.694
X-7.909 Y-26.748
X-7.514 Y-26.847
X-7.316 Y-26.895
X-5.536 Y-27.317
X-5.339 Y-27.363
X-4.943 Y-27.452
X-4.778 Y-27.485
X-4.152 Y-27.562
X-2.373 Y-27.77
X-2.175 Y-27.793
X-1.78 Y-27.835
X-1.582 Y-27.853
X-0.989 Y-27.858
X0.989
X1.582 Y-27.853
X1.78 Y-27.835
X2.175 Y-27.793
X3.164 Y-27.678
X4.152 Y-27.562
X4.778 Y-27.485
X4.943 Y-27.452
X5.339 Y-27.363
X5.734 Y-27.27
X7.333 Y-26.891
X7.514 Y-26.847
X7.909 Y-26.748
X8.106 Y-26.694
X8.526 Y-26.577
X9.273 Y-26.411
X9.999 Y-26.303
X10.574 Y-26.259
X11.021 Y-26.257
X11.069 Y-26.26
X11.349 Y-26.306
X11.615 Y-26.406
X11.856 Y-26.557
X12.064 Y-26.751
X12.229 Y-26.982
G2 X11.713 Y-27.834 I-0.512 J-0.272
G1 X8.318 Y-27.812
G2 X8.106 Y-26.694 I0.004 J0.58
G1 X8.898 Y-26.407
X10.875 Y-25.687
X10.974 Y-25.656
X11.073 Y-25.64
X11.172
X11.271 Y-25.658
X11.33 Y-25.678
X11.389 Y-25.705
X11.468 Y-25.755
X11.509 Y-25.789
X11.549 Y-25.829
X11.605 Y-25.903
X11.721 Y-26.101
X13.256 Y-28.76
G2 X13.12 Y-29.474 I-0.512 J-0.272
G1 X13.051 Y-29.533 Z-3.993
X12.983 Y-29.59 Z-3.972
X12.919 Y-29.645 Z-3.937
X12.86 Y-29.695 Z-3.889
X12.808 Y-29.74 Z-3.83
X12.763 Y-29.778 Z-3.761
X12.726 Y-29.809 Z-3.683
X12.7 Y-29.832 Z-3.599
X12.684 Y-29.845 Z-3.511
X12.678 Y-29.85 Z-3.42
G0 Z5.
X18.016 Y-32.384
Z-2.84
G1 Z-3.42 F1440.
X18.02 Y-32.377 Z-3.511
X18.029 Y-32.358 Z-3.599
X18.044 Y-32.327 Z-3.683
X18.065 Y-32.284 Z-3.761
X18.092 Y-32.231 Z-3.83
X18.122 Y-32.169 Z-3.889
X18.156 Y-32.1 Z-3.937
X18.194 Y-32.024 Z-3.972
X18.233 Y-31.945 Z-3.993
X18.273 Y-31.864 Z-4.
G2 X18.784 Y-31.268 I1.419 J-0.7
G1 X20.96 Y-29.855
X21.157 Y-29.721
X21.533 Y-29.462
X21.691 Y-29.364
X21.99 Y-29.197
X22.37 Y-29.019
X22.847 Y-28.835
X23.474 Y-28.643
X24.323 Y-28.448
X25.177 Y-28.276
X25.94 Y-27.857
X26.536 Y-27.221
X26.974 Y-26.468
X27.288 Y-25.656
X27.509 Y-24.813
X27.639 Y-24.081
X27.702 Y-23.846
X27.803 Y-23.624
X27.94 Y-23.423
G2 X28.655 Y-23.294 I0.438 J-0.381
G1 X28.735 Y-23.338 Z-3.993
X28.812 Y-23.38 Z-3.972
X28.886 Y-23.42 Z-3.937
X28.954 Y-23.457 Z-3.889
X29.015 Y-23.491 Z-3.83
X29.067 Y-23.519 Z-3.761
X29.109 Y-23.542 Z-3.683
X29.139 Y-23.558 Z-3.599
X29.158 Y-23.568 Z-3.511
X29.164 Y-23.572 Z-3.42
G0 Z5.
X20.796 Y-30.599
Z-2.84
G1 Z-3.42 F1440.
X20.799 Y-30.592 Z-3.511
X20.808 Y-30.573 Z-3.599
X20.823 Y-30.541 Z-3.683
X20.843 Y-30.498 Z-3.761
X20.867 Y-30.445 Z-3.83
X20.896 Y-30.382 Z-3.889
X20.929 Y-30.311 Z-3.937
X20.964 Y-30.235 Z-3.972
X21.001 Y-30.154 Z-3.993
X21.039 Y-30.072 Z-4.
G2 X21.533 Y-29.462 I1.438 J-0.661
G1 X21.553 Y-29.449
X21.75 Y-29.294
X24.229 Y-27.287
X24.321 Y-27.204
X24.716 Y-26.837
X26.837 Y-24.716
X27.204 Y-24.321
X27.287 Y-24.229
X29.294 Y-21.75
X29.449 Y-21.553
X29.721 Y-21.157
X29.857 Y-20.956
X30.177 Y-20.464
X30.188 Y-20.453
X30.201 Y-20.446
G3 X31.401 Y-19.711 I-1.058 J3.073
X31.564 Y-19.418 I-0.403 J0.417
G1 X32.2 Y-16.535
G3 X32.174 Y-16.201 I-0.566 J0.125
X31.395 Y-15.03 I-3.031 J-1.172
G1 X31.393 Y-15.028
X31.223 Y-14.83
X31.044 Y-14.657
X30.932 Y-14.554
X30.846 Y-14.488
X30.451 Y-14.242
X30.349 Y-14.171
X30.221 Y-14.073
X30.079 Y-13.947
X29.919 Y-13.783
X29.757 Y-13.593
X29.586 Y-13.359
X29.401 Y-13.065
X29.216 Y-12.717
X29.019 Y-12.276
X28.817 Y-11.718
X28.613 Y-10.996
X28.435 Y-10.143
X28.309 Y-9.281
X28.219 Y-8.415
X28.156 Y-7.546
X28.11 Y-6.676
X28.078 Y-5.806
X28.055 Y-4.935
X28.038 Y-4.064
X28.027 Y-3.193
X28.018 Y-2.322
X28.013 Y-1.451
X28.008 Y-0.58
X28.003 Y1.162
X28. Y3.776
X27.999 Y9.873
Y10.745
X28.005 Y11.616
X28.038 Y12.1
X28.085 Y12.379
X28.186 Y12.644
X28.336 Y12.884
X28.53 Y13.091
X28.76 Y13.256
X30.116 Y14.039
X30.253 Y14.119
X30.682 Y14.386
G2 X31.551 Y13.874 I0.289 J-0.503
G1 X31.126 Y-14.531
X31.132 Y-14.565
X31.152 Y-14.592
X31.182 Y-14.609
X31.216 Y-14.612
X31.248 Y-14.6
X31.272 Y-14.577
X31.285 Y-14.545
X31.283 Y-14.511
X31.267 Y-14.481
X31.24 Y-14.46
X31.207 Y-14.452
G2 X30.451 Y-14.242 I0.033 J1.582
G1 X30.253 Y-14.119
X29.264 Y-13.547
X28.869 Y-13.319
X28.754 Y-13.245
X28.599 Y-13.133
X28.421 Y-12.986
X28.249 Y-12.822
X28.061 Y-12.614
X27.856 Y-12.353
X27.657 Y-12.059
X27.439 Y-11.681
X27.226 Y-11.242
X27.003 Y-10.683
X26.775 Y-9.973
X26.57 Y-9.126
X26.557 Y-9.052
X26.535 Y-8.802
X26.556 Y-8.551
X26.621 Y-8.308
G2 X27.685 Y-8.28 I0.538 J-0.216
G1 X29.667 Y-12.563
G2 X28.869 Y-13.319 I-0.526 J-0.244
G1 X27.089 Y-12.291
X26.959 Y-12.207
X26.793 Y-12.093
X26.609 Y-11.944
X26.429 Y-11.778
X26.228 Y-11.562
X26.199 Y-11.526
X26.036 Y-11.276
X25.928 Y-10.998
X25.878 Y-10.704
X25.89 Y-10.407
X25.963 Y-10.118
G2 X26.999 Y-10.038 I0.538 J-0.217
G1 X27.86 Y-11.482
G2 X27.089 Y-12.291 I-0.498 J-0.297
G1 X26.006 Y-11.666
X25.903 Y-11.605
X25.829 Y-11.549
X25.789 Y-11.509
X25.755 Y-11.468
X25.705 Y-11.389
X25.678 Y-11.33
X25.658 Y-11.271
X25.64 Y-11.172
Y-11.073
X25.656 Y-10.974
X25.687 Y-10.875
X26.55 Y-8.502
X26.694 Y-8.106
X26.748 Y-7.909
X26.847 Y-7.514
X26.895 Y-7.316
X27.317 Y-5.536
X27.363 Y-5.339
X27.452 Y-4.943
X27.485 Y-4.778
X27.562 Y-4.152
X27.77 Y-2.373
X27.793 Y-2.175
X27.835 Y-1.78
X27.853 Y-1.582
X27.858 Y-0.989
Y0.989
X27.853 Y1.582
X27.835 Y1.78
X27.793 Y2.175
X27.678 Y3.164
X27.562 Y4.152
X27.485 Y4.778
X27.452 Y4.943
X27.363 Y5.339
X27.27 Y5.734
X26.891 Y7.333
X26.847 Y7.514
X26.748 Y7.909
X26.694 Y8.106
X26.577 Y8.526
X26.411 Y9.273
X26.303 Y9.999
X26.259 Y10.574
X26.257 Y11.021
X26.26 Y11.069
X26.306 Y11.349
X26.406 Y11.615
X26.557 Y11.856
X26.751 Y12.064
X26.982 Y12.229
G2 X27.834 Y11.713 I0.272 J-0.512
G1 X27.812 Y8.318
G2 X26.694 Y8.106 I-0.58 J0.004
G1 X26.407 Y8.898
X25.687 Y10.875
X25.656 Y10.974
X25.64 Y11.073
Y11.172
X25.658 Y11.271
X25.678 Y11.33
X25.705 Y11.389
X25.755 Y11.468
X25.789 Y11.509
X25.829 Y11.549
X25.903 Y11.605
X26.101 Y11.721
X28.76 Y13.256
G2 X29.474 Y13.12 I0.272 J-0.512
G1 X29.533 Y13.051 Z-3.993
X29.59 Y12.983 Z-3.972
X29.645 Y12.919 Z-3.937
X29.695 Y12.86 Z-3.889
X29.74 Y12.808 Z-3.83
X29.778 Y12.763 Z-3.761
X29.809 Y12.726 Z-3.683
X29.832 Y12.7 Z-3.599
X29.845 Y12.684 Z-3.511
X29.85 Y12.678 Z-3.42
G0 Z5.
X32.384 Y18.016
Z-2.84
G1 Z-3.42 F1440.
X32.377 Y18.02 Z-3.511
X32.358 Y18.029 Z-3.599
X32.327 Y18.044 Z-3.683
X32.284 Y18.065 Z-3.761
X32.231 Y18.092 Z-3.83
X32.169 Y18.122 Z-3.889
X32.1 Y18.156 Z-3.937
X32.024 Y18.194 Z-3.972
X31.945 Y18.233 Z-3.993
X31.864 Y18.273 Z-4.
G2 X31.268 Y18.784 I0.7 J1.419
G1 X29.855 Y20.96
X29.721 Y21.157
X29.462 Y21.533
X29.364 Y21.691
X29.197 Y21.99
X29.019 Y22.37
X28.835 Y22.847
X28.643 Y23.474
X28.448 Y24.323
X28.276 Y25.177
X27.857 Y25.94
X27.221 Y26.536
X26.468 Y26.974
X25.656 Y27.288
X24.813 Y27.509
X24.081 Y27.639
X23.846 Y27.702
X23.624 Y27.803
X23.423 Y27.94
G2 X23.294 Y28.655 I0.381 J0.438
G1 X23.338 Y28.735 Z-3.993
X23.38 Y28.812 Z-3.972
X23.42 Y28.886 Z-3.937
X23.457 Y28.954 Z-3.889
X23.491 Y29.015 Z-3.83
X23.519 Y29.067 Z-3.761
X23.542 Y29.109 Z-3.683
X23.558 Y29.139 Z-3.599
X23.568 Y29.158 Z-3.511
X23.572 Y29.164 Z-3.42
G0 Z5.
X30.599 Y20.796
Z-2.84
G1 Z-3.42 F1440.
X30.592 Y20.799 Z-3.511
X30.573 Y20.808 Z-3.599
X30.541 Y20.823 Z-3.683
X30.498 Y20.843 Z-3.761
X30.445 Y20.867 Z-3.83
X30.382 Y20.896 Z-3.889
X30.311 Y20.929 Z-3.937
X30.235 Y20.964 Z-3.972
X30.154 Y21.001 Z-3.993
X30.072 Y21.039 Z-4.
G2 X29.462 Y21.533 I0.661 J1.438
G1 X29.449 Y21.553
X29.294 Y21.75
X27.287 Y24.229
X27.204 Y24.321
X26.837 Y24.716
X24.716 Y26.837
X24.321 Y27.204
X24.229 Y27.287
X21.75 Y29.294
X21.553 Y29.449
X21.157 Y29.721
X20.956 Y29.857
X20.464 Y30.177
X20.453 Y30.188
X20.446 Y30.201
G3 X19.711 Y31.401 I-3.073 J-1.058
X19.418 Y31.564 I-0.417 J-0.403
G1 X16.535 Y32.2
G3 X16.201 Y32.174 I-0.125 J-0.566
X15.03 Y31.395 I1.172 J-3.031
G1 X15.028 Y31.393
X14.83 Y31.223
X14.657 Y31.044
X14.554 Y30.932
X14.488 Y30.846
X14.242 Y30.451
X14.171 Y30.349
X14.073 Y30.221
X13.947 Y30.079
X13.783 Y29.919
X13.593 Y29.757
X13.359 Y29.586
X13.065 Y29.401
X12.717 Y29.216
X12.276 Y29.019
X11.718 Y28.817
X10.996 Y28.613
X10.143 Y28.435
X9.281 Y28.309
X8.415 Y28.219
X7.546 Y28.156
X6.676 Y28.11
X5.806 Y28.078
X4.935 Y28.055
X4.064 Y28.038
X3.193 Y28.027
X2.322 Y28.018
X1.451 Y28.013
X0.58 Y28.008
X-1.162 Y28.003
X-3.776 Y28.
X-9.873 Y27.999
X-10.745
X-11.616 Y28.005
X-12.1 Y28.038
X-12.379 Y28.085
X-12.644 Y28.186
X-12.884 Y28.336
X-13.091 Y28.53
X-13.256 Y28.76
X-14.039 Y30.116
X-14.119 Y30.253
X-14.386 Y30.682
G2 X-13.874 Y31.551 I0.503 J0.289
G1 X14.531 Y31.126
X14.565 Y31.132
X14.592 Y31.152
X14.609 Y31.182
X14.612 Y31.216
X14.6 Y31.248
X14.577 Y31.272
X14.545 Y31.285
X14.511 Y31.283
X14.481 Y31.267
X14.46 Y31.24
X14.452 Y31.207
G2 X14.242 Y30.451 I-1.582 J0.033
G1 X14.119 Y30.253
X13.547 Y29.264
X13.319 Y28.869
X13.245 Y28.754
X13.133 Y28.599
X12.986 Y28.421
X12.822 Y28.249
X12.614 Y28.061
X12.353 Y27.856
X12.059 Y27.657
X11.681 Y27.439
X11.242 Y27.226
X10.683 Y27.003
X9.973 Y26.775
X9.126 Y26.57
X9.052 Y26.557
X8.802 Y26.535
X8.551 Y26.556
X8.308 Y26.621
G2 X8.28 Y27.685 I0.216 J0.538
G1 X12.563 Y29.667
G2 X13.319 Y28.869 I0.244 J-0.526
G1 X12.291 Y27.089
X12.207 Y26.959
X12.093 Y26.793
X11.944 Y26.609
X11.778 Y26.429
X11.562 Y26.228
X11.526 Y26.199
X11.276 Y26.036
X10.998 Y25.928
X10.704 Y25.878
X10.407 Y25.89
X10.118 Y25.963
G2 X10.038 Y26.999 I0.217 J0.538
G1 X11.482 Y27.86
G2 X12.291 Y27.089 I0.297 J-0.498
G1 X11.666 Y26.006
X11.605 Y25.903
X11.549 Y25.829
X11.509 Y25.789
X11.468 Y25.755
X11.389 Y25.705
X11.33 Y25.678
X11.271 Y25.658
X11.172 Y25.64
X11.073
X10.974 Y25.656
X10.875 Y25.687
X8.502 Y26.55
X8.106 Y26.694
X7.909 Y26.748
X7.514 Y26.847
X7.316 Y26.895
X5.536 Y27.317
X5.339 Y27.363
X4.943 Y27.452
X4.778 Y27.485
X4.152 Y27.562
X2.373 Y27.77
X2.175 Y27.793
X1.78 Y27.835
X1.582 Y27.853
X0.989 Y27.858
X-0.989
X-1.582 Y27.853
X-1.78 Y27.835
X-2.175 Y27.793
X-3.164 Y27.678
X-4.152 Y27.562
X-4.778 Y27.485
X-4.943 Y27.452
X-5.339 Y27.363
X-5.734 Y27.27
X-7.333 Y26.891
X-7.514 Y26.847
X-7.909 Y26.748
X-8.106 Y26.694
X-8.526 Y26.577
X-9.273 Y26.411
X-9.999 Y26.303
X-10.574 Y26.259
X-11.021 Y26.257
X-11.069 Y26.26
X-11.349 Y26.306
X-11.615 Y26.406
X-11.856 Y26.557
X-12.064 Y26.751
X-12.229 Y26.982
G2 X-11.713 Y27.834 I0.512 J0.272
G1 X-8.318 Y27.812
G2 X-8.106 Y26.694 I-0.004 J-0.58
G1 X-8.898 Y26.407
X-10.875 Y25.687
X-10.974 Y25.656
X-11.073 Y25.64
X-11.172
X-11.271 Y25.658
X-11.33 Y25.678
X-11.389 Y25.705
X-11.468 Y25.755
X-11.509 Y25.789
X-11.549 Y25.829
X-11.605 Y25.903
X-11.721 Y26.101
X-13.256 Y28.76
G2 X-13.12 Y29.474 I0.512 J0.272
G1 X-13.051 Y29.533 Z-3.993
X-12.983 Y29.59 Z-3.972
X-12.919 Y29.645 Z-3.937
X-12.86 Y29.695 Z-3.889
X-12.808 Y29.74 Z-3.83
X-12.763 Y29.778 Z-3.761
X-12.726 Y29.809 Z-3.683
X-12.7 Y29.832 Z-3.599
X-12.684 Y29.845 Z-3.511
X-12.678 Y29.85 Z-3.42
G0 Z5.
X-18.016 Y32.384
Z-2.84
G1 Z-3.42 F1440.
X-18.02 Y32.377 Z-3.511
X-18.029 Y32.358 Z-3.599
X-18.044 Y32.327 Z-3.683
X-18.065 Y32.284 Z-3.761
X-18.092 Y32.231 Z-3.83
X-18.122 Y32.169 Z-3.889
X-18.156 Y32.1 Z-3.937
X-18.194 Y32.024 Z-3.972
X-18.233 Y31.945 Z-3.993
X-18.273 Y31.864 Z-4.
G2 X-18.784 Y31.268 I-1.419 J0.7
G1 X-20.96 Y29.855
X-21.157 Y29.721
X-21.533 Y29.462
X-21.691 Y29.364
X-21.99 Y29.197
X-22.383 Y29.013
X-23.196 Y28.699
X-24.021 Y28.421
X-24.706 Y27.882
X-25.179 Y27.151
X-25.49 Y26.337
X-25.577 Y26.1
X-25.703 Y25.882
X-25.865 Y25.689
G2 X-26.691 Y25.725 I-0.396 J0.424
X-26.641 Y26.55 I0.431 J0.388
G1 X-22.26 Y30.365
G2 X-21.299 Y29.928 I0.381 J-0.437
X-21.533 Y29.462 I-0.58 J0.
G1 X-21.553 Y29.449
X-21.75 Y29.294
X-24.229 Y27.287
X-24.321 Y27.204
X-24.716 Y26.837
X-26.837 Y24.716
X-27.204 Y24.321
X-27.287 Y24.229
X-28.322 Y22.951
X-28.37 Y22.902
X-28.423 Y22.859
X-28.481 Y22.823
X-28.55 Y22.8 Z-3.995
X-28.618 Y22.778 Z-3.982
X-28.684 Y22.757 Z-3.959
X-28.76 Y22.752 Z-3.922
X-28.822 Y22.763 Z-3.879
X-28.879 Y22.774 Z-3.828
X-28.928 Y22.783 Z-3.769
X-28.969 Y22.791 Z-3.705
X-28.999 Y22.804 Z-3.638
X-29.02 Y22.814 Z-3.567
X-29.033 Y22.82 Z-3.494
X-29.037 Y22.822 Z-3.42
G0 Z5.
X0. Y0.
Z2.5
G1 Z-4. F300.
X-0.037 Y-0.003 F1440.
X-0.028 Y0.034
X0.007 Y0.047
X0.04 Y0.031
X0.052 Y-0.005
X0.039 Y-0.04
X0.013 Y-0.066
X-0.022 Y-0.079
X-0.06 Y-0.074
X-0.09 Y-0.052
X-0.112 Y-0.021
X-0.121 Y0.015
X-0.118 Y0.052
X-0.104 Y0.087
X-0.08 Y0.116
X-0.019 Y0.159
X0.056 Y0.166
X0.126 Y0.14
X0.178 Y0.086
X0.207 Y0.017
X0.211 Y-0.058
X0.191 Y-0.131
X0.149 Y-0.193
X0.092 Y-0.241
X0.023 Y-0.271
X-0.126 Y-0.29
X-0.265 Y-0.234
X-0.365 Y-0.122
X-0.412 Y0.02
X-0.405 Y0.17
X-0.346 Y0.308
X-0.246 Y0.42
X-0.117 Y0.496
X0.03 Y0.528
X0.179 Y0.518
X0.32 Y0.466
X0.443 Y0.38
X0.539 Y0.265
X0.604 Y0.13
X0.635 Y-0.017
X0.631 Y-0.167
X0.593 Y-0.312
X0.525 Y-0.446
X0.433 Y-0.564
X0.317 Y-0.66
X0.186 Y-0.732
X0.043 Y-0.777
X-0.107 Y-0.793
X-0.256 Y-0.782
X-0.401 Y-0.743
X-0.537 Y-0.68
X-0.66 Y-0.593
X-0.767 Y-0.488
X-0.854 Y-0.366
X-0.921 Y-0.232
X-0.966 Y-0.089
X-0.988 Y0.06
X-0.987 Y0.21
X-0.963 Y0.358
X-0.919 Y0.501
X-0.853 Y0.636
X-0.77 Y0.761
X-0.669 Y0.872
X-0.554 Y0.968
X-0.427 Y1.048
X-0.291 Y1.111
X-0.147 Y1.154
X0.001 Y1.179
X0.15 Y1.184
X0.3 Y1.171
X0.446 Y1.138
X0.588 Y1.089
X0.722 Y1.021
X0.847 Y0.939
X0.962 Y0.842
X1.065 Y0.733
X1.153 Y0.612
X1.228 Y0.482
X1.288 Y0.344
X1.332 Y0.201
X1.359 Y0.053
X1.371 Y-0.096
X1.366 Y-0.246
X1.346 Y-0.395
X1.31 Y-0.54
X1.259 Y-0.681
X1.194 Y-0.817
X1.115 Y-0.944
X1.024 Y-1.064
X0.922 Y-1.173
X0.809 Y-1.272
X0.687 Y-1.359
X0.557 Y-1.434
X0.42 Y-1.496
X0.278 Y-1.544
X0.132 Y-1.579
X-0.016 Y-1.6
X-0.166 Y-1.607
X-0.316 Y-1.601
X-0.464 Y-1.58
X-0.61 Y-1.546
X-0.753 Y-1.499
X-0.891 Y-1.44
X-1.023 Y-1.369
X-1.148 Y-1.286
X-1.265 Y-1.193
X-1.375 Y-1.09
X-1.474 Y-0.978
X-1.564 Y-0.858
X-1.644 Y-0.731
X-1.713 Y-0.598
X-1.77 Y-0.459
X-1.816 Y-0.316
X-1.85 Y-0.17
X-1.872 Y-0.022
X-1.882 Y0.128
X-1.88 Y0.278
X-1.866 Y0.427
X-1.84 Y0.575
X-1.803 Y0.72
X-1.755 Y0.862
X-1.695 Y1.
X-1.626 Y1.133
X-1.546 Y1.26
X-1.457 Y1.381
X-1.359 Y1.495
X-1.253 Y1.601
X-1.14 Y1.698
X-1.019 Y1.788
X-0.892 Y1.868
X-0.76 Y1.938
X-0.623 Y1.999
X-0.482 Y2.05
X-0.335 Y2.091
X-0.188 Y2.121
X-0.036 Y2.141
X0.115 Y2.15
X0.266 Y2.148
X0.422 Y2.135
X0.572 Y2.111
X0.726 Y2.076
X0.875 Y2.03
X1.02 Y1.974
X1.165 Y1.906
X1.302 Y1.83
X1.436 Y1.741
X1.564 Y1.643
X1.684 Y1.537
X1.8 Y1.419
X1.905 Y1.295
X2.002 Y1.164
X2.091 Y1.021
X2.169 Y0.875
X2.237 Y0.724
X2.296 Y0.563
X2.342 Y0.401
X2.376 Y0.236
X2.4 Y0.063
X2.411 Y-0.108
X2.41 Y-0.279
X2.396 Y-0.455
X2.37 Y-0.629
X2.332 Y-0.798
X2.281 Y-0.969
X2.217 Y-1.137
X2.143 Y-1.298
X2.056 Y-1.454
X1.957 Y-1.608
X1.847 Y-1.753
X1.728 Y-1.889
X1.598 Y-2.018
X1.457 Y-2.14
X1.308 Y-2.251
X1.152 Y-2.35
X0.987 Y-2.439
X0.814 Y-2.518
X0.636 Y-2.584
X0.454 Y-2.637
X0.268 Y-2.677
X0.076 Y-2.704
X-0.118 Y-2.718
X-0.312
X-0.506 Y-2.704
X-0.699 Y-2.676
X-0.894 Y-2.634
X-1.085 Y-2.577
X-1.272 Y-2.508
X-1.454 Y-2.425
X-1.63 Y-2.329
X-1.801 Y-2.22
X-1.965 Y-2.097
X-2.12 Y-1.963
X-2.266 Y-1.817
X-2.402 Y-1.662
X-2.526 Y-1.496
X-2.639 Y-1.322
X-2.74 Y-1.138
X-2.829 Y-0.946
X-2.904 Y-0.747
X-2.965 Y-0.542
X-3.011 Y-0.333
X-3.043 Y-0.121
X-3.059 Y0.095
X-3.061 Y0.311
X-3.046 Y0.528
X-3.016 Y0.745
X-2.971 Y0.96
X-2.91 Y1.173
X-2.833 Y1.382
X-2.742 Y1.586
X-2.635 Y1.784
X-2.515 Y1.975
X-2.38 Y2.158
X-2.232 Y2.331
X-2.072 Y2.494
X-1.899 Y2.646
X-1.716 Y2.786
X-1.522 Y2.913
X-1.318 Y3.026
X-1.107 Y3.126
X-0.887 Y3.21
X-0.661 Y3.279
X-0.43 Y3.332
X-0.195 Y3.368
X0.044 Y3.388
X0.284 Y3.39
X0.525 Y3.376
X0.766 Y3.344
X1.004 Y3.295
X1.24 Y3.229
X1.471 Y3.146
X1.697 Y3.046
X1.916 Y2.93
X2.127 Y2.798
X2.33 Y2.651
X2.522 Y2.489
X2.703 Y2.313
X2.872 Y2.124
X3.028 Y1.922
X3.169 Y1.709
X3.296 Y1.485
X3.407 Y1.252
X3.501 Y1.01
X3.578 Y0.762
X3.638 Y0.507
X3.68 Y0.247
X3.703 Y-0.016
X3.708 Y-0.28
X3.693 Y-0.546
X3.66 Y-0.812
X3.607 Y-1.075
X3.536 Y-1.334
X3.446 Y-1.59
X3.338 Y-1.839
X3.212 Y-2.081
X3.068 Y-2.314
X2.908 Y-2.537
X2.731 Y-2.75
X2.539 Y-2.95
X2.332 Y-3.136
X2.112 Y-3.308
X1.879 Y-3.465
X1.635 Y-3.605
X1.38 Y-3.728
X1.116 Y-3.833
X0.844 Y-3.919
X0.566 Y-3.986
X0.282 Y-4.034
X-0.005 Y-4.061
X-0.295 Y-4.067
X-0.585 Y-4.053
X-0.875 Y-4.019
X-1.163 Y-3.963
X-1.448 Y-3.887
X-1.727 Y-3.79
X-2. Y-3.674
X-2.265 Y-3.538
X-2.52 Y-3.382
X-2.765 Y-3.209
X-2.998 Y-3.017
X-3.128 Y-2.894
X-3.339 Y-2.676
X-3.535 Y-2.443
X-3.715 Y-2.196
X-3.877 Y-1.935
X-4.021 Y-1.663
X-4.145 Y-1.38
X-4.25 Y-1.087
X-4.333 Y-0.787
X-4.396 Y-0.481
X-4.436 Y-0.17
X-4.455 Y0.145
X-4.451 Y0.461
X-4.424 Y0.777
X-4.375 Y1.092
X-4.304 Y1.404
X-4.21 Y1.711
X-4.094 Y2.012
X-3.956 Y2.305
X-3.798 Y2.588
X-3.619 Y2.861
X-3.42 Y3.121
X-3.203 Y3.367
X-2.968 Y3.597
X-2.716 Y3.812
X-2.448 Y4.008
X-2.167 Y4.186
X-1.872 Y4.343
X-1.566 Y4.48
X-1.25 Y4.596
X-0.925 Y4.688
X-0.593 Y4.758
X-0.256 Y4.804
X0.085 Y4.826
X0.427 Y4.824
X0.77 Y4.797
X1.112 Y4.746
X1.45 Y4.671
X1.783 Y4.571
X2.109 Y4.447
X2.427 Y4.301
X2.734 Y4.131
X3.03 Y3.939
X3.312 Y3.726
X3.58 Y3.492
X3.831 Y3.239
X4.064 Y2.968
X4.279 Y2.68
X4.473 Y2.377
X4.645 Y2.059
X4.795 Y1.729
X4.922 Y1.388
X5.024 Y1.038
X5.101 Y0.679
X5.153 Y0.315
X5.179 Y-0.052
Y-0.423
X5.153 Y-0.793
X5.1 Y-1.162
X5.02 Y-1.527
X4.915 Y-1.887
X4.784 Y-2.24
X4.627 Y-2.583
X4.446 Y-2.916
X4.241 Y-3.236
X4.014 Y-3.542
X3.764 Y-3.831
X3.493 Y-4.103
X3.203 Y-4.356
X2.895 Y-4.589
X2.569 Y-4.799
X2.229 Y-4.987
X1.875 Y-5.15
X1.509 Y-5.288
X1.133 Y-5.4
X0.749 Y-5.486
X0.359 Y-5.544
X-0.036 Y-5.574
X-0.434 Y-5.576
X-0.831 Y-5.55
X-1.227 Y-5.496
X-1.62 Y-5.413
X-2.007 Y-5.302
X-2.376 Y-5.168
X-2.747 Y-5.001
X-3.107 Y-4.808
X-3.453 Y-4.589
X-3.784 Y-4.346
X-4.097 Y-4.079
X-4.391 Y-3.79
X-4.664 Y-3.48
X-4.916 Y-3.15
X-5.144 Y-2.802
X-5.347 Y-2.438
X-5.525 Y-2.06
X-5.676 Y-1.668
X-5.798 Y-1.266
X-5.892 Y-0.854
X-5.957 Y-0.436
X-5.992 Y-0.013
X-5.997 Y0.413
X-5.972 Y0.839
X-5.916 Y1.263
X-5.83 Y1.684
X-5.714 Y2.099
X-5.568 Y2.506
X-5.393 Y2.902
X-5.19 Y3.286
X-4.959 Y3.656
X-4.702 Y4.01
X-4.42 Y4.345
X-4.113 Y4.66
X-3.784 Y4.954
X-3.434 Y5.224
X-3.065 Y5.47
X-2.678 Y5.689
X-2.275 Y5.881
X-1.859 Y6.044
X-1.43 Y6.177
X-0.992 Y6.28
X-0.547 Y6.352
X-0.096 Y6.392
X0.358 Y6.4
X0.812 Y6.375
X1.265 Y6.319
X1.714 Y6.229
X2.157 Y6.108
X2.592 Y5.955
X3.015 Y5.772
X3.426 Y5.558
X3.822 Y5.314
X4.2 Y5.042
X4.535 Y4.764
X4.875 Y4.441
X5.191 Y4.094
X5.483 Y3.725
X5.749 Y3.334
X5.987 Y2.924
X6.196 Y2.498
X6.374 Y2.056
X6.521 Y1.601
X6.636 Y1.136
X6.718 Y0.663
X6.766 Y0.183
X6.779 Y-0.3
X6.759 Y-0.784
X6.703 Y-1.266
X6.614 Y-1.745
X6.49 Y-2.217
X6.333 Y-2.681
X6.142 Y-3.134
X5.919 Y-3.573
X5.665 Y-3.996
X5.381 Y-4.401
X5.068 Y-4.786
X4.727 Y-5.149
X4.361 Y-5.487
X3.97 Y-5.8
X3.557 Y-6.084
X3.124 Y-6.339
X2.673 Y-6.564
X2.205 Y-6.756
X1.724 Y-6.915
X1.231 Y-7.039
X0.73 Y-7.129
X0.222 Y-7.183
X-0.29 Y-7.2
X-0.801 Y-7.181
X-1.312 Y-7.126
X-1.819 Y-7.034
X-2.32 Y-6.906
X-2.813 Y-6.742
X-3.294 Y-6.543
X-3.761 Y-6.31
X-4.211 Y-6.043
X-4.643 Y-5.744
X-5.053 Y-5.415
X-5.44 Y-5.056
X-5.801 Y-4.669
X-6.134 Y-4.257
X-6.439 Y-3.821
X-6.712 Y-3.363
X-6.952 Y-2.886
X-7.159 Y-2.392
X-7.33 Y-1.884
X-7.465 Y-1.363
X-7.563 Y-0.832
X-7.623 Y-0.295
X-7.645 Y0.247
X-7.629 Y0.79
X-7.573 Y1.332
X-7.479 Y1.87
X-7.347 Y2.401
X-7.176 Y2.923
X-6.969 Y3.433
X-6.725 Y3.927
X-6.447 Y4.405
X-6.134 Y4.862
X-5.788 Y5.297
X-5.412 Y5.708
X-5.007 Y6.091
X-4.574 Y6.446
X-4.116 Y6.769
X-3.635 Y7.061
X-3.133 Y7.317
X-2.613 Y7.538
X-2.078 Y7.722
X-1.529 Y7.868
X-0.97 Y7.975
X-0.404 Y8.041
X0.168 Y8.068
X0.74 Y8.054
X1.312 Y7.999
X1.88 Y7.903
X2.441 Y7.766
X2.992 Y7.59
X3.531 Y7.375
X4.054 Y7.121
X4.56 Y6.83
X5.044 Y6.503
X5.505 Y6.141
X5.94 Y5.747
X6.347 Y5.322
X6.724 Y4.868
X7.068 Y4.387
X7.378 Y3.882
X7.652 Y3.354
X7.824 Y2.954
X8.032 Y2.397
X8.2 Y1.824
X8.327 Y1.239
X8.413 Y0.645
X8.456 Y0.045
X8.457 Y-0.558
X8.414 Y-1.161
X8.329 Y-1.76
X8.201 Y-2.354
X8.031 Y-2.938
X7.819 Y-3.51
X7.566 Y-4.067
X7.274 Y-4.606
X6.943 Y-5.124
X6.576 Y-5.618
X6.174 Y-6.085
X5.738 Y-6.524
X5.271 Y-6.932
X4.776 Y-7.307
X4.254 Y-7.646
X3.708 Y-7.947
X3.14 Y-8.21
X2.554 Y-8.432
X1.953 Y-8.613
X1.339 Y-8.75
X0.716 Y-8.844
X0.086 Y-8.893
X-0.547 Y-8.897
X-1.18 Y-8.856
X-1.81 Y-8.77
X-2.434 Y-8.64
X-3.049 Y-8.464
X-3.652 Y-8.245
X-4.238 Y-7.983
X-4.806 Y-7.68
X-5.352 Y-7.336
X-5.873 Y-6.953
X-6.367 Y-6.533
X-6.831 Y-6.078
X-7.262 Y-5.591
X-7.658 Y-5.073
X-8.018 Y-4.526
X-8.338 Y-3.955
X-8.617 Y-3.361
X-8.854 Y-2.747
X-9.048 Y-2.116
X-9.196 Y-1.472
X-9.298 Y-0.818
X-9.354 Y-0.157
X-9.362 Y0.508
X-9.323 Y1.173
X-9.237 Y1.835
X-9.104 Y2.491
X-8.924 Y3.137
X-8.698 Y3.769
X-8.427 Y4.386
X-8.113 Y4.982
X-7.756 Y5.556
X-7.358 Y6.105
X-6.922 Y6.625
X-6.448 Y7.113
X-5.94 Y7.567
X-5.401 Y7.986
X-4.831 Y8.365
X-4.235 Y8.704
X-3.615 Y9.
X-2.974 Y9.252
X-2.315 Y9.458
X-1.643 Y9.617
X-0.959 Y9.728
X-0.267 Y9.79
X0.428 Y9.803
X1.124 Y9.767
X1.817 Y9.681
X2.504 Y9.545
X3.181 Y9.361
X3.844 Y9.129
X4.244 Y8.956
X4.878 Y8.648
X5.489 Y8.296
X6.075 Y7.9
X6.633 Y7.463
X7.16 Y6.986
X7.652 Y6.471
X8.107 Y5.922
X8.521 Y5.345
X8.896 Y4.732
X9.228 Y4.094
X9.513 Y3.432
X9.752 Y2.752
X9.941 Y2.055
X10.081 Y1.344
X10.17 Y0.625
X10.208 Y-0.101
X10.194 Y-0.828
X10.129 Y-1.555
X10.011 Y-2.276
X9.843 Y-2.988
X9.623 Y-3.688
X9.355 Y-4.372
X9.037 Y-5.037
X8.672 Y-5.678
X8.262 Y-6.293
X7.809 Y-6.878
X7.314 Y-7.431
X6.78 Y-7.948
X6.209 Y-8.427
X5.605 Y-8.865
X4.97 Y-9.26
X4.307 Y-9.609
X3.62 Y-9.911
X2.912 Y-10.163
X2.187 Y-10.365
X1.448 Y-10.515
X0.698 Y-10.613
X-0.058 Y-10.657
X-0.816 Y-10.647
X-1.574 Y-10.583
X-2.327 Y-10.465
X-3.071 Y-10.294
X-3.802 Y-10.069
X-4.517 Y-9.793
X-5.212 Y-9.466
X-5.883 Y-9.09
X-6.527 Y-8.666
X-7.141 Y-8.196
X-7.72 Y-7.684
X-8.263 Y-7.13
X-8.766 Y-6.538
X-9.227 Y-5.91
X-9.642 Y-5.25
X-10.01 Y-4.561
X-10.329 Y-3.847
X-10.597 Y-3.11
X-10.812 Y-2.354
X-10.973 Y-1.584
X-11.08 Y-0.803
X-11.13 Y-0.015
X-11.125 Y0.776
X-11.063 Y1.566
X-10.945 Y2.352
X-10.771 Y3.128
X-10.542 Y3.891
X-10.258 Y4.637
X-10.075 Y5.033
X-9.721 Y5.733
X-9.316 Y6.412
X-8.861 Y7.063
X-8.358 Y7.684
X-7.811 Y8.269
X-7.221 Y8.816
X-6.592 Y9.321
X-5.927 Y9.781
X-5.229 Y10.194
X-4.502 Y10.557
X-3.75 Y10.868
X-2.976 Y11.125
X-2.183 Y11.327
X-1.377 Y11.473
X-0.562 Y11.561
X0.26 Y11.591
X1.083 Y11.562
X1.904 Y11.475
X2.69 Y11.334
X3.501 Y11.128
X4.294 Y10.866
X5.067 Y10.548
X5.815 Y10.176
X6.535 Y9.752
X7.224 Y9.276
X7.878 Y8.753
X8.494 Y8.184
X9.068 Y7.572
X9.599 Y6.918
X10.083 Y6.228
X10.518 Y5.504
X10.9 Y4.749
X11.228 Y3.968
X11.501 Y3.164
X11.716 Y2.341
X11.872 Y1.504
X11.969 Y0.657
X12.005 Y-0.197
X11.98 Y-1.053
X11.895 Y-1.905
X11.748 Y-2.752
X11.542 Y-3.587
X11.277 Y-4.406
X10.953 Y-5.206
X10.572 Y-5.983
X10.137 Y-6.731
X9.649 Y-7.448
X9.11 Y-8.13
X8.523 Y-8.772
X7.891 Y-9.372
X7.219 Y-9.926
X6.509 Y-10.43
X5.764 Y-10.883
X4.99 Y-11.282
X4.19 Y-11.626
X3.367 Y-11.912
X2.526 Y-12.14
X1.672 Y-12.309
X0.807 Y-12.417
X-0.063 Y-12.464
X-0.934 Y-12.45
X-1.801 Y-12.376
X-2.662 Y-12.241
X-3.511 Y-12.046
X-4.345 Y-11.793
X-5.159 Y-11.483
X-5.949 Y-11.118
X-6.713 Y-10.698
X-7.446 Y-10.227
X-8.144 Y-9.707
X-8.806 Y-9.14
X-9.427 Y-8.529
X-10.004 Y-7.877
X-10.536 Y-7.187
X-11.019 Y-6.462
X-11.453 Y-5.707
X-11.833 Y-4.923
X-12.16 Y-4.116
X-12.431 Y-3.288
X-12.646 Y-2.444
X-12.804 Y-1.587
X-12.903 Y-0.721
X-12.944 Y0.149
X-12.926 Y1.02
X-12.85 Y1.887
X-12.715 Y2.748
X-12.522 Y3.597
X-12.269 Y4.431
X-11.964 Y5.247
X-11.607 Y6.041
X-11.198 Y6.811
X-10.739 Y7.551
X-10.231 Y8.259
X-9.678 Y8.932
X-9.08 Y9.565
X-8.442 Y10.158
X-7.765 Y10.707
X-7.054 Y11.21
X-6.311 Y11.665
X-5.54 Y12.07
X-4.744 Y12.424
X-3.927 Y12.726
X-3.092 Y12.973
X-2.242 Y13.166
X-1.382 Y13.303
X-0.515 Y13.384
X0.356 Y13.408
X1.227 Y13.373
X2.093 Y13.281
X2.951 Y13.133
X3.798 Y12.93
X4.631 Y12.673
X5.445 Y12.363
X6.237 Y12.002
X7.006 Y11.591
X7.746 Y11.132
X8.455 Y10.627
X9.13 Y10.076
X9.768 Y9.482
X10.366 Y8.849
X10.923 Y8.179
X11.436 Y7.475
X11.903 Y6.74
X12.324 Y5.977
X12.695 Y5.189
X13.017 Y4.38
X13.286 Y3.551
X13.5 Y2.707
X13.66 Y1.85
X13.767 Y0.986
X13.818 Y0.116
X13.816 Y-0.755
X13.759 Y-1.624
X13.649 Y-2.488
X13.485 Y-3.344
X13.266 Y-4.187
X12.994 Y-5.015
X12.671 Y-5.823
X12.298 Y-6.611
X11.878 Y-7.374
X11.411 Y-8.109
X10.901 Y-8.815
X10.347 Y-9.488
X9.752 Y-10.124
X9.118 Y-10.721
X8.449 Y-11.278
X7.746 Y-11.793
X7.013 Y-12.265
X6.253 Y-12.691
X5.469 Y-13.07
X4.663 Y-13.4
X3.837 Y-13.678
X2.996 Y-13.904
X2.143 Y-14.079
X1.281 Y-14.202
X0.412 Y-14.272
X-0.459 Y-14.29
X-1.329 Y-14.256
X-2.196 Y-14.168
X-3.055 Y-14.026
X-3.904 Y-13.831
X-4.74 Y-13.586
X-5.56 Y-13.291
X-6.36 Y-12.947
X-7.139 Y-12.557
X-7.893 Y-12.12
X-8.619 Y-11.639
X-9.314 Y-11.114
X-9.976 Y-10.547
X-10.602 Y-9.942
X-11.192 Y-9.301
X-11.743 Y-8.626
X-12.253 Y-7.92
X-12.721 Y-7.186
X-13.144 Y-6.424
X-13.519 Y-5.638
X-13.847 Y-4.831
X-14.126 Y-4.005
X-14.356 Y-3.165
X-14.537 Y-2.313
X-14.668 Y-1.452
X-14.749 Y-0.585
X-14.778 Y0.286
X-14.753 Y1.157
X-14.677 Y2.024
X-14.549 Y2.886
X-14.371 Y3.739
X-14.143 Y4.58
X-13.868 Y5.406
X-13.546 Y6.216
X-13.177 Y7.005
X-12.762 Y7.77
X-12.302 Y8.51
X-11.8 Y9.222
X-11.257 Y9.903
X-10.676 Y10.552
X-10.058 Y11.166
X-9.406 Y11.744
X-8.878 Y12.159
X-8.744 Y12.259
X-8.305 Y12.588
X-8.208 Y12.655
X-7.872 Y12.853
X-7.712 Y12.941
X-6.525 Y13.589
X-6.408 Y13.643
X-5.932 Y13.847
X-5.734 Y13.928
X-4.548 Y14.371
X-4.349 Y14.434
X-3.757 Y14.589
X-2.571 Y14.847
X-2.373 Y14.888
X-1.78 Y14.961
X-1.582 Y14.979
X-0.395 Y15.064
X-0.198 Y15.068
X0.198
X0.395 Y15.064
X1.582 Y14.979
X1.78 Y14.961
X2.373 Y14.888
X2.571 Y14.847
X3.757 Y14.589
X4.35 Y14.434
X4.548 Y14.371
X5.734 Y13.928
X5.946 Y13.841
X6.408 Y13.643
X6.525 Y13.589
X7.712 Y12.941
X7.872 Y12.853
X8.208 Y12.655
X8.305 Y12.588
X9.293 Y11.847
X9.887 Y11.399
X10.019 Y11.271
X11.271 Y10.019
X11.399 Y9.887
X11.864 Y9.272
X12.588 Y8.305
X12.655 Y8.208
X12.853 Y7.872
X12.941 Y7.712
X13.589 Y6.525
X13.643 Y6.408
X13.847 Y5.932
X13.928 Y5.734
X14.371 Y4.548
X14.434 Y4.349
X14.589 Y3.757
X14.847 Y2.571
X14.888 Y2.373
X14.961 Y1.78
X14.979 Y1.582
X15.064 Y0.395
X15.068 Y0.198
Y-0.198
X15.064 Y-0.395
X14.979 Y-1.582
X14.961 Y-1.78
X14.888 Y-2.373
X14.847 Y-2.571
X14.589 Y-3.757
X14.434 Y-4.35
X14.371 Y-4.548
X13.928 Y-5.734
X13.841 Y-5.946
X13.643 Y-6.408
X13.589 Y-6.525
X12.941 Y-7.712
X12.853 Y-7.872
X12.655 Y-8.208
X12.588 Y-8.305
X11.847 Y-9.293
X11.399 Y-9.887
X11.271 Y-10.019
X10.019 Y-11.271
X9.887 Y-11.399
X9.272 Y-11.864
X8.305 Y-12.588
X8.208 Y-12.655
X7.872 Y-12.853
X7.712 Y-12.941
X6.525 Y-13.589
X6.408 Y-13.643
X5.932 Y-13.847
X5.734 Y-13.928
X4.548 Y-14.371
X4.349 Y-14.434
X3.757 Y-14.589
X2.571 Y-14.847
X2.373 Y-14.888
X1.78 Y-14.961
X1.582 Y-14.979
X0.395 Y-15.064
X0.198 Y-15.068
X-0.198
X-0.395 Y-15.064
X-1.582 Y-14.979
X-1.78 Y-14.961
X-2.373 Y-14.888
X-2.571 Y-14.847
X-3.757 Y-14.589
X-4.35 Y-14.434
X-4.548 Y-14.371
X-5.734 Y-13.928
X-5.946 Y-13.841
X-6.408 Y-13.643
X-6.525 Y-13.589
X-7.712 Y-12.941
X-7.872 Y-12.853
X-8.208 Y-12.655
X-8.305 Y-12.588
X-9.293 Y-11.847
X-9.887 Y-11.399
X-10.019 Y-11.271
X-11.271 Y-10.019
X-11.399 Y-9.887
X-11.864 Y-9.272
X-12.588 Y-8.305
X-12.655 Y-8.208
X-12.853 Y-7.872
X-12.941 Y-7.712
X-13.589 Y-6.525
X-13.643 Y-6.408
X-13.847 Y-5.932
X-13.928 Y-5.734
X-14.371 Y-4.548
X-14.434 Y-4.349
X-14.589 Y-3.757
X-14.847 Y-2.571
X-14.888 Y-2.373
X-14.961 Y-1.78
X-14.979 Y-1.582
X-15.064 Y-0.395
X-15.068 Y-0.198
Y0.198
X-15.064 Y0.395
X-14.979 Y1.582
X-14.961 Y1.78
X-14.888 Y2.373
X-14.847 Y2.571
X-14.589 Y3.757
X-14.434 Y4.35
X-14.371 Y4.548
X-13.928 Y5.734
X-13.841 Y5.946
X-13.643 Y6.408
X-13.589 Y6.525
X-12.941 Y7.712
X-12.853 Y7.872
X-12.655 Y8.208
X-12.588 Y8.305
X-11.847 Y9.293
X-11.399 Y9.887
X-11.271 Y10.019
X-10.019 Y11.271
X-9.887 Y11.399
X-9.272 Y11.864
X-8.878 Y12.159
X-8.82 Y12.194
X-8.758 Y12.223
X-8.693 Y12.244
X-8.619 Y12.253 Z-3.995
X-8.547 Y12.263 Z-3.981
X-8.473 Y12.249 Z-3.955
X-8.402 Y12.235 Z-3.919
X-8.338 Y12.223 Z-3.874
X-8.282 Y12.189 Z-3.812
X-8.234 Y12.16 Z-3.74
X-8.197 Y12.136 Z-3.661
X-8.171 Y12.12 Z-3.576
X-8.156 Y12.111 Z-3.488
X-8.153 Y12.108 Z-3.42
G0 Z5.
X-34.166 Y33.464
Z-6.84
G1 Z-7.42 F1440.
X-34.159 Y33.46 Z-7.511
X-34.141 Y33.449 Z-7.599
X-34.111 Y33.431 Z-7.683
X-34.07 Y33.407 Z-7.761
X-34.019 Y33.377 Z-7.83
X-33.96 Y33.342 Z-7.889
X-33.893 Y33.302 Z-7.937
X-33.821 Y33.259 Z-7.972
X-33.745 Y33.214 Z-7.993
X-33.667 Y33.168 Z-8.
G2 X-31.113 Y31.256 I-7.545 J-12.741
G1 X-31.037 Y31.181
X-30.879 Y30.824
X-30.712 Y30.359
X-30.537 Y29.737
X-30.361 Y28.883
X-30.244 Y28.02
X-30.165 Y27.153
X-30.112 Y26.283
X-30.076 Y25.413
X-30.051 Y24.542
X-30.035 Y23.671
X-30.023 Y22.8
X-30.015 Y21.929
X-30.011 Y21.158
X-30.036 Y20.879
X-30.115 Y20.609
X-30.245 Y20.36
X-31.439 Y18.52
X-31.523 Y18.389
X-31.528 Y18.383
G3 X-31.724 Y18.136 I1.312 J-1.247
G1 X-31.766 Y18.062
X-31.797 Y17.982
X-31.88 Y17.703
X-31.918 Y17.576
X-32.001 Y17.295
X-32.02 Y17.212
X-32.026 Y17.127
G3 X-31.997 Y16.812 I1.81 J0.009
G1 X-31.996 Y16.807
X-31.988 Y16.609
X-31.969 Y16.412
X-31.938 Y16.214
X-31.887 Y16.016
X-31.835 Y15.851
X-31.823 Y15.818
X-31.745 Y15.621
X-31.637 Y15.401
X-31.527 Y15.225
X-31.439 Y15.089
X-31.393 Y15.028
X-31.327 Y14.941
X-31.259 Y14.831
X-31.116 Y14.584
X-30.963 Y14.27
X-30.8 Y13.866
X-30.629 Y13.334
X-30.45 Y12.604
X-30.303 Y11.746
X-30.205 Y10.88
X-30.139 Y10.011
X-30.094 Y9.141
X-30.064 Y8.271
X-30.043 Y7.4
X-30.029 Y6.529
X-30.019 Y5.658
X-30.013 Y4.787
X-30.008 Y3.916
X-30.003 Y2.174
X-30. Y-0.44
X-29.999 Y-7.408
Y-13.155
X-30.028 Y-13.447
X-30.116 Y-13.727
X-30.258 Y-13.983
X-30.45 Y-14.206
X-30.682 Y-14.386
X-30.689 Y-14.389
G3 X-31.173 Y-14.651 I0.753 J-1.969
X-31.342 Y-14.844 I0.34 J-0.47
G1 X-31.972 Y-16.004
G3 X-32.041 Y-16.252 I0.51 J-0.277
X-31.997 Y-16.8 I2.106 J-0.107
G1 X-31.996 Y-16.807
X-31.99 Y-17.005
X-31.967 Y-17.203
X-31.932 Y-17.4
X-31.816 Y-17.796
X-31.736 Y-17.994
X-31.637 Y-18.194
X-31.523 Y-18.389
X-31.396 Y-18.587
X-31.268 Y-18.784
X-31.213 Y-18.879
X-31.067 Y-19.146
X-30.91 Y-19.486
X-30.745 Y-19.927
X-30.571 Y-20.514
X-30.39 Y-21.336
X-30.263 Y-22.198
X-30.178 Y-23.065
X-30.121 Y-23.934
X-30.082 Y-24.804
X-30.055 Y-25.675
X-30.037 Y-26.546
X-29.96 Y-26.974
X-29.826 Y-27.389
X-29.342 Y-28.113
X-28.655 Y-28.649
X-27.879 Y-29.044
X-27.056 Y-29.33
X-26.209 Y-29.533
X-25.35 Y-29.676
X-24.484 Y-29.776
X-23.616 Y-29.846
X-22.746 Y-29.894
X-21.876 Y-29.926
X-21.216 Y-29.944
X-20.952 Y-29.975
X-20.699 Y-30.054
X-20.464 Y-30.177
X-18.52 Y-31.439
X-18.389 Y-31.523
X-18.383 Y-31.528
G3 X-18.136 Y-31.724 I1.247 J1.312
G1 X-18.062 Y-31.766
X-17.982 Y-31.797
X-17.703 Y-31.88
X-17.576 Y-31.918
X-17.295 Y-32.001
X-17.212 Y-32.02
X-17.127 Y-32.026
G3 X-16.812 Y-31.997 I-0.009 J1.81
G1 X-16.807 Y-31.996
X-16.609 Y-31.988
X-16.412 Y-31.969
X-16.214 Y-31.938
X-16.016 Y-31.887
X-15.851 Y-31.835
X-15.818 Y-31.823
X-15.621 Y-31.745
X-15.401 Y-31.637
X-15.225 Y-31.527
X-15.089 Y-31.439
X-15.028 Y-31.393
X-14.941 Y-31.327
X-14.831 Y-31.259
X-14.584 Y-31.116
X-14.27 Y-30.963
X-13.866 Y-30.8
X-13.334 Y-30.629
X-12.604 Y-30.45
X-11.746 Y-30.303
X-10.88 Y-30.205
X-10.011 Y-30.139
X-9.141 Y-30.094
X-8.271 Y-30.064
X-7.4 Y-30.043
X-6.529 Y-30.029
X-5.658 Y-30.019
X-4.787 Y-30.013
X-3.916 Y-30.008
X-2.174 Y-30.003
X0.44 Y-30.
X7.408 Y-29.999
X13.155
X13.447 Y-30.028
X13.727 Y-30.116
X13.983 Y-30.258
X14.206 Y-30.45
X14.386 Y-30.682
X14.389 Y-30.689
G3 X14.651 Y-31.173 I1.969 J0.753
X14.844 Y-31.342 I0.47 J0.34
G1 X16.004 Y-31.972
G3 X16.252 Y-32.041 I0.277 J0.51
X16.8 Y-31.997 I0.107 J2.106
G1 X16.807 Y-31.996
X17.005 Y-31.99
X17.203 Y-31.967
X17.4 Y-31.932
X17.796 Y-31.816
X17.994 Y-31.736
X18.194 Y-31.637
X18.389 Y-31.523
X18.587 Y-31.396
X18.784 Y-31.268
X18.879 Y-31.213
X19.146 Y-31.067
X19.486 Y-30.91
X19.927 Y-30.745
X20.514 Y-30.571
X21.336 Y-30.39
X22.198 Y-30.263
X23.065 Y-30.178
X23.934 Y-30.121
X24.804 Y-30.082
X25.675 Y-30.055
X26.546 Y-30.037
X26.974 Y-29.96
X27.389 Y-29.826
X28.113 Y-29.342
X28.649 Y-28.655
X29.044 Y-27.879
X29.33 Y-27.056
X29.533 Y-26.209
X29.676 Y-25.35
X29.776 Y-24.484
X29.846 Y-23.616
X29.894 Y-22.746
X29.926 Y-21.876
X29.944 Y-21.216
X29.975 Y-20.952
X30.054 Y-20.699
X30.177 Y-20.464
X31.439 Y-18.52
X31.523 Y-18.389
X31.528 Y-18.383
G3 X31.724 Y-18.136 I-1.312 J1.247
G1 X31.766 Y-18.062
X31.797 Y-17.982
X31.88 Y-17.703
X31.918 Y-17.576
X32.001 Y-17.295
X32.02 Y-17.212
X32.026 Y-17.127
G3 X31.997 Y-16.812 I-1.81 J-0.009
G1 X31.996 Y-16.807
X31.988 Y-16.609
X31.969 Y-16.412
X31.938 Y-16.214
X31.887 Y-16.016
X31.835 Y-15.851
X31.823 Y-15.818
X31.745 Y-15.621
X31.637 Y-15.401
X31.527 Y-15.225
X31.439 Y-15.089
X31.393 Y-15.028
X31.327 Y-14.941
X31.259 Y-14.831
X31.116 Y-14.584
X30.963 Y-14.27
X30.8 Y-13.866
X30.629 Y-13.334
X30.45 Y-12.604
X30.303 Y-11.746
X30.205 Y-10.88
X30.139 Y-10.011
X30.094 Y-9.141
X30.064 Y-8.271
X30.043 Y-7.4
X30.029 Y-6.529
X30.019 Y-5.658
X30.013 Y-4.787
X30.008 Y-3.916
X30.003 Y-2.174
X30. Y0.44
X29.999 Y7.408
Y13.155
X30.028 Y13.447
X30.116 Y13.727
X30.258 Y13.983
X30.45 Y14.206
X30.682 Y14.386
X30.689 Y14.389
G3 X31.173 Y14.651 I-0.753 J1.969
X31.342 Y14.844 I-0.34 J0.47
G1 X31.972 Y16.004
G3 X32.041 Y16.252 I-0.51 J0.277
X31.997 Y16.8 I-2.106 J0.107
G1 X31.996 Y16.807
X31.99 Y17.005
X31.967 Y17.203
X31.932 Y17.4
X31.816 Y17.796
X31.736 Y17.994
X31.637 Y18.194
X31.523 Y18.389
X31.396 Y18.587
X31.268 Y18.784
X31.213 Y18.879
X31.067 Y19.146
X30.91 Y19.486
X30.745 Y19.927
X30.571 Y20.514
X30.39 Y21.336
X30.263 Y22.198
X30.178 Y23.065
X30.121 Y23.934
X30.082 Y24.804
X30.055 Y25.675
X30.037 Y26.546
X29.96 Y26.974
X29.826 Y27.389
X29.342 Y28.113
X28.655 Y28.649
X27.879 Y29.044
X27.056 Y29.33
X26.209 Y29.533
X25.35 Y29.676
X24.484 Y29.776
X23.616 Y29.846
X22.746 Y29.894
X21.876 Y29.926
X21.216 Y29.944
X20.952 Y29.975
X20.699 Y30.054
X20.464 Y30.177
X18.52 Y31.439
X18.389 Y31.523
X18.383 Y31.528
G3 X18.136 Y31.724 I-1.247 J-1.312
G1 X18.062 Y31.766
X17.982 Y31.797
X17.703 Y31.88
X17.576 Y31.918
X17.295 Y32.001
X17.212 Y32.02
X17.127 Y32.026
G3 X16.812 Y31.997 I0.009 J-1.81
G1 X16.807 Y31.996
X16.609 Y31.988
X16.412 Y31.969
X16.214 Y31.938
X16.016 Y31.887
X15.851 Y31.835
X15.818 Y31.823
X15.621 Y31.745
X15.401 Y31.637
X15.225 Y31.527
X15.089 Y31.439
X15.028 Y31.393
X14.941 Y31.327
X14.831 Y31.259
X14.584 Y31.116
X14.27 Y30.963
X13.866 Y30.8
X13.334 Y30.629
X12.604 Y30.45
X11.746 Y30.303
X10.88 Y30.205
X10.011 Y30.139
X9.141 Y30.094
X8.271 Y30.064
X7.4 Y30.043
X6.529 Y30.029
X5.658 Y30.019
X4.787 Y30.013
X3.916 Y30.008
X2.174 Y30.003
X-0.44 Y30.
X-7.408 Y29.999
X-13.155
X-13.447 Y30.028
X-13.727 Y30.116
X-13.983 Y30.258
X-14.206 Y30.45
X-14.386 Y30.682
X-14.389 Y30.689
G3 X-14.651 Y31.173 I-1.969 J-0.753
X-14.844 Y31.342 I-0.47 J-0.34
G1 X-16.004 Y31.972
G3 X-16.252 Y32.041 I-0.277 J-0.51
X-16.8 Y31.997 I-0.107 J-2.106
G1 X-16.807 Y31.996
X-17.005 Y31.99
X-17.203 Y31.967
X-17.4 Y31.932
X-17.796 Y31.816
X-17.994 Y31.736
X-18.194 Y31.637
X-18.389 Y31.523
X-18.587 Y31.396
X-18.784 Y31.268
X-18.879 Y31.213
X-19.146 Y31.067
X-19.486 Y30.91
X-19.927 Y30.745
X-20.514 Y30.571
X-21.336 Y30.39
X-22.198 Y30.263
X-23.065 Y30.178
X-23.934 Y30.121
X-24.804 Y30.082
X-25.669 Y29.975
X-26.082 Y29.838
X-26.293 Y29.784
X-26.494 Y29.699
X-26.679 Y29.585
X-26.845 Y29.444
X-27.132 Y29.116
X-27.53 Y28.341
X-27.756 Y27.5
X-27.881 Y26.638
X-27.947 Y25.769
X-27.981 Y24.899
X-27.998 Y24.028
X-27.999 Y23.852
X-28.038 Y23.53
X-28.147 Y23.225
X-28.322 Y22.951
X-29.294 Y21.75
X-29.449 Y21.553
X-29.721 Y21.157
X-29.857 Y20.956
X-30.245 Y20.36
X-30.255 Y20.349
X-30.269 Y20.342
G3 X-31.437 Y19.626 I1.031 J-2.994
X-31.602 Y19.329 I0.403 J-0.417
G1 X-32.203 Y16.497
G3 X-32.173 Y16.159 I0.567 J-0.12
X-31.396 Y15.03 I2.935 J1.188
G1 X-31.393 Y15.028
X-31.223 Y14.83
X-31.044 Y14.657
X-30.932 Y14.554
X-30.846 Y14.488
X-30.451 Y14.242
X-30.349 Y14.171
X-30.221 Y14.073
X-30.079 Y13.947
X-29.919 Y13.783
X-29.757 Y13.593
X-29.586 Y13.359
X-29.401 Y13.065
X-29.216 Y12.717
X-29.019 Y12.276
X-28.817 Y11.718
X-28.613 Y10.996
X-28.435 Y10.143
X-28.309 Y9.281
X-28.219 Y8.415
X-28.156 Y7.546
X-28.11 Y6.676
X-28.078 Y5.806
X-28.055 Y4.935
X-28.038 Y4.064
X-28.027 Y3.193
X-28.018 Y2.322
X-28.013 Y1.451
X-28.008 Y0.58
X-28.003 Y-1.162
X-28. Y-3.776
X-27.999 Y-9.873
Y-10.745
X-28.005 Y-11.616
X-28.038 Y-12.1
X-28.085 Y-12.379
X-28.186 Y-12.644
X-28.336 Y-12.884
X-28.53 Y-13.091
X-28.76 Y-13.256
X-30.116 Y-14.039
X-30.253 Y-14.119
X-30.682 Y-14.386
G2 X-31.551 Y-13.874 I-0.289 J0.503
G1 X-31.126 Y14.531
X-31.132 Y14.565
X-31.152 Y14.592
X-31.182 Y14.609
X-31.216 Y14.612
X-31.248 Y14.6
X-31.272 Y14.577
X-31.285 Y14.545
X-31.283 Y14.511
X-31.267 Y14.481
X-31.24 Y14.46
X-31.207 Y14.452
G2 X-30.451 Y14.242 I-0.033 J-1.582
G1 X-30.253 Y14.119
X-29.264 Y13.547
X-28.869 Y13.319
X-28.754 Y13.245
X-28.599 Y13.133
X-28.421 Y12.986
X-28.249 Y12.822
X-28.061 Y12.614
X-27.856 Y12.353
X-27.657 Y12.059
X-27.439 Y11.681
X-27.226 Y11.242
X-27.003 Y10.683
X-26.775 Y9.973
X-26.57 Y9.126
X-26.557 Y9.052
X-26.535 Y8.802
X-26.556 Y8.551
X-26.621 Y8.308
G2 X-27.685 Y8.28 I-0.538 J0.216
G1 X-29.667 Y12.563
G2 X-28.869 Y13.319 I0.526 J0.244
G1 X-27.089 Y12.291
X-26.959 Y12.207
X-26.793 Y12.093
X-26.609 Y11.944
X-26.429 Y11.778
X-26.228 Y11.562
X-26.199 Y11.526
X-26.036 Y11.276
X-25.928 Y10.998
X-25.878 Y10.704
X-25.89 Y10.407
X-25.963 Y10.118
G2 X-26.999 Y10.038 I-0.538 J0.217
G1 X-27.86 Y11.482
G2 X-27.089 Y12.291 I0.498 J0.297
G1 X-26.006 Y11.666
X-25.903 Y11.605
X-25.829 Y11.549
X-25.789 Y11.509
X-25.755 Y11.468
X-25.705 Y11.389
X-25.678 Y11.33
X-25.658 Y11.271
X-25.64 Y11.172
Y11.073
X-25.656 Y10.974
X-25.687 Y10.875
X-26.55 Y8.502
X-26.694 Y8.106
X-26.748 Y7.909
X-26.847 Y7.514
X-26.895 Y7.316
X-27.317 Y5.536
X-27.363 Y5.339
X-27.452 Y4.943
X-27.485 Y4.778
X-27.562 Y4.152
X-27.77 Y2.373
X-27.793 Y2.175
X-27.835 Y1.78
X-27.853 Y1.582
X-27.858 Y0.989
Y-0.989
X-27.853 Y-1.582
X-27.835 Y-1.78
X-27.793 Y-2.175
X-27.678 Y-3.164
X-27.562 Y-4.152
X-27.485 Y-4.778
X-27.452 Y-4.943
X-27.363 Y-5.339
X-27.27 Y-5.734
X-26.891 Y-7.333
X-26.847 Y-7.514
X-26.748 Y-7.909
X-26.694 Y-8.106
X-26.577 Y-8.526
X-26.411 Y-9.273
X-26.303 Y-9.999
X-26.259 Y-10.574
X-26.257 Y-11.021
X-26.26 Y-11.069
X-26.306 Y-11.349
X-26.406 Y-11.615
X-26.557 Y-11.856
X-26.751 Y-12.064
X-26.982 Y-12.229
G2 X-27.834 Y-11.713 I-0.272 J0.512
G1 X-27.812 Y-8.318
G2 X-26.694 Y-8.106 I0.58 J-0.004
G1 X-26.407 Y-8.898
X-25.687 Y-10.875
X-25.656 Y-10.974
X-25.64 Y-11.073
Y-11.172
X-25.658 Y-11.271
X-25.678 Y-11.33
X-25.705 Y-11.389
X-25.755 Y-11.468
X-25.789 Y-11.509
X-25.829 Y-11.549
X-25.903 Y-11.605
X-26.101 Y-11.721
X-28.76 Y-13.256
G2 X-29.474 Y-13.12 I-0.272 J0.512
G1 X-29.533 Y-13.051 Z-7.993
X-29.59 Y-12.983 Z-7.972
X-29.645 Y-12.919 Z-7.937
X-29.695 Y-12.86 Z-7.889
X-29.74 Y-12.808 Z-7.83
X-29.778 Y-12.763 Z-7.761
X-29.809 Y-12.726 Z-7.683
X-29.832 Y-12.7 Z-7.599
X-29.845 Y-12.684 Z-7.511
X-29.85 Y-12.678 Z-7.42
G0 Z5.
X-32.384 Y-18.016
Z-6.84
G1 Z-7.42 F1440.
X-32.377 Y-18.02 Z-7.511
X-32.358 Y-18.029 Z-7.599
X-32.327 Y-18.044 Z-7.683
X-32.284 Y-18.065 Z-7.761
X-32.231 Y-18.092 Z-7.83
X-32.169 Y-18.122 Z-7.889
X-32.1 Y-18.156 Z-7.937
X-32.024 Y-18.194 Z-7.972
X-31.945 Y-18.233 Z-7.993
X-31.864 Y-18.273 Z-8.
G2 X-31.268 Y-18.784 I-0.7 J-1.419
G1 X-29.855 Y-20.96
X-29.721 Y-21.157
X-29.462 Y-21.533
X-29.364 Y-21.691
X-29.197 Y-21.99
X-29.019 Y-22.37
X-28.835 Y-22.847
X-28.643 Y-23.474
X-28.448 Y-24.323
X-28.276 Y-25.177
X-27.857 Y-25.94
X-27.221 Y-26.536
X-26.468 Y-26.974
X-25.656 Y-27.288
X-24.813 Y-27.509
X-24.081 Y-27.639
X-23.846 Y-27.702
X-23.624 Y-27.803
X-23.423 Y-27.94
G2 X-23.294 Y-28.655 I-0.381 J-0.438
G1 X-23.338 Y-28.735 Z-7.993
X-23.38 Y-28.812 Z-7.972
X-23.42 Y-28.886 Z-7.937
X-23.457 Y-28.954 Z-7.889
X-23.491 Y-29.015 Z-7.83
X-23.519 Y-29.067 Z-7.761
X-23.542 Y-29.109 Z-7.683
X-23.558 Y-29.139 Z-7.599
X-23.568 Y-29.158 Z-7.511
X-23.572 Y-29.164 Z-7.42
G0 Z5.
X-30.599 Y-20.796
Z-6.84
G1 Z-7.42 F1440.
X-30.592 Y-20.799 Z-7.511
X-30.573 Y-20.808 Z-7.599
X-30.541 Y-20.823 Z-7.683
X-30.498 Y-20.843 Z-7.761
X-30.445 Y-20.867 Z-7.83
X-30.382 Y-20.896 Z-7.889
X-30.311 Y-20.929 Z-7.937
X-30.235 Y-20.964 Z-7.972
X-30.154 Y-21.001 Z-7.993
X-30.072 Y-21.039 Z-8.
G2 X-29.462 Y-21.533 I-0.661 J-1.438
G1 X-29.449 Y-21.553
X-29.294 Y-21.75
X-27.287 Y-24.229
X-27.204 Y-24.321
X-26.837 Y-24.716
X-24.716 Y-26.837
X-24.321 Y-27.204
X-24.229 Y-27.287
X-21.75 Y-29.294
X-21.553 Y-29.449
X-21.157 Y-29.721
X-20.956 Y-29.857
X-20.464 Y-30.177
X-20.453 Y-30.188
X-20.446 Y-30.201
G3 X-19.711 Y-31.401 I3.073 J1.058
X-19.418 Y-31.564 I0.417 J0.403
G1 X-16.535 Y-32.2
G3 X-16.201 Y-32.174 I0.125 J0.566
X-15.03 Y-31.395 I-1.172 J3.031
G1 X-15.028 Y-31.393
X-14.83 Y-31.223
X-14.657 Y-31.044
X-14.554 Y-30.932
X-14.488 Y-30.846
X-14.242 Y-30.451
X-14.171 Y-30.349
X-14.073 Y-30.221
X-13.947 Y-30.079
X-13.783 Y-29.919
X-13.593 Y-29.757
X-13.359 Y-29.586
X-13.065 Y-29.401
X-12.717 Y-29.216
X-12.276 Y-29.019
X-11.718 Y-28.817
X-10.996 Y-28.613
X-10.143 Y-28.435
X-9.281 Y-28.309
X-8.415 Y-28.219
X-7.546 Y-28.156
X-6.676 Y-28.11
X-5.806 Y-28.078
X-4.935 Y-28.055
X-4.064 Y-28.038
X-3.193 Y-28.027
X-2.322 Y-28.018
X-1.451 Y-28.013
X-0.58 Y-28.008
X1.162 Y-28.003
X3.776 Y-28.
X9.873 Y-27.999
X10.745
X11.616 Y-28.005
X12.1 Y-28.038
X12.379 Y-28.085
X12.644 Y-28.186
X12.884 Y-28.336
X13.091 Y-28.53
X13.256 Y-28.76
X14.039 Y-30.116
X14.119 Y-30.253
X14.386 Y-30.682
G2 X13.874 Y-31.551 I-0.503 J-0.289
G1 X-14.531 Y-31.126
X-14.565 Y-31.132
X-14.592 Y-31.152
X-14.609 Y-31.182
X-14.612 Y-31.216
X-14.6 Y-31.248
X-14.577 Y-31.272
X-14.545 Y-31.285
X-14.511 Y-31.283
X-14.481 Y-31.267
X-14.46 Y-31.24
X-14.452 Y-31.207
G2 X-14.242 Y-30.451 I1.582 J-0.033
G1 X-14.119 Y-30.253
X-13.547 Y-29.264
X-13.319 Y-28.869
X-13.245 Y-28.754
X-13.133 Y-28.599
X-12.986 Y-28.421
X-12.822 Y-28.249
X-12.614 Y-28.061
X-12.353 Y-27.856
X-12.059 Y-27.657
X-11.681 Y-27.439
X-11.242 Y-27.226
X-10.683 Y-27.003
X-9.973 Y-26.775
X-9.126 Y-26.57
X-9.052 Y-26.557
X-8.802 Y-26.535
X-8.551 Y-26.556
X-8.308 Y-26.621
G2 X-8.28 Y-27.685 I-0.216 J-0.538
G1 X-12.563 Y-29.667
G2 X-13.319 Y-28.869 I-0.244 J0.526
G1 X-12.291 Y-27.089
X-12.207 Y-26.959
X-12.093 Y-26.793
X-11.944 Y-26.609
X-11.778 Y-26.429
X-11.562 Y-26.228
X-11.526 Y-26.199
X-11.276 Y-26.036
X-10.998 Y-25.928
X-10.704 Y-25.878
X-10.407 Y-25.89
X-10.118 Y-25.963
G2 X-10.038 Y-26.999 I-0.217 J-0.538
G1 X-11.482 Y-27.86
G2 X-12.291 Y-27.089 I-0.297 J0.498
G1 X-11.666 Y-26.006
X-11.605 Y-25.903
X-11.549 Y-25.829
X-11.509 Y-25.789
X-11.468 Y-25.755
X-11.389 Y-25.705
X-11.33 Y-25.678
X-11.271 Y-25.658
X-11.172 Y-25.64
X-11.073
X-10.974 Y-25.656
X-10.875 Y-25.687
X-8.502 Y-26.55
X-8.106 Y-26.694
X-7.909 Y-26.748
X-7.514 Y-26.847
X-7.316 Y-26.895
X-5.536 Y-27.317
X-5.339 Y-27.363
X-4.943 Y-27.452
X-4.778 Y-27.485
X-4.152 Y-27.562
X-2.373 Y-27.77
X-2.175 Y-27.793
X-1.78 Y-27.835
X-1.582 Y-27.853
X-0.989 Y-27.858
X0.989
X1.582 Y-27.853
X1.78 Y-27.835
X2.175 Y-27.793
X3.164 Y-27.678
X4.152 Y-27.562
X4.778 Y-27.485
X4.943 Y-27.452
X5.339 Y-27.363
X5.734 Y-27.27
X7.333 Y-26.891
X7.514 Y-26.847
X7.909 Y-26.748
X8.106 Y-26.694
X8.526 Y-26.577
X9.273 Y-26.411
X9.999 Y-26.303
X10.574 Y-26.259
X11.021 Y-26.257
X11.069 Y-26.26
X11.349 Y-26.306
X11.615 Y-26.406
X11.856 Y-26.557
X12.064 Y-26.751
X12.229 Y-26.982
G2 X11.713 Y-27.834 I-0.512 J-0.272
G1 X8.318 Y-27.812
G2 X8.106 Y-26.694 I0.004 J0.58
G1 X8.898 Y-26.407
X10.875 Y-25.687
X10.974 Y-25.656
X11.073 Y-25.64
X11.172
X11.271 Y-25.658
X11.33 Y-25.678
X11.389 Y-25.705
X11.468 Y-25.755
X11.509 Y-25.789
X11.549 Y-25.829
X11.605 Y-25.903
X11.721 Y-26.101
X13.256 Y-28.76
G2 X13.12 Y-29.474 I-0.512 J-0.272
G1 X13.051 Y-29.533 Z-7.993
X12.983 Y-29.59 Z-7.972
X12.919 Y-29.645 Z-7.937
X12.86 Y-29.695 Z-7.889
X12.808 Y-29.74 Z-7.83
X12.763 Y-29.778 Z-7.761
X12.726 Y-29.809 Z-7.683
X12.7 Y-29.832 Z-7.599
X12.684 Y-29.845 Z-7.511
X12.678 Y-29.85 Z-7.42
G0 Z5.
X18.016 Y-32.384
Z-6.84
G1 Z-7.42 F1440.
X18.02 Y-32.377 Z-7.511
X18.029 Y-32.358 Z-7.599
X18.044 Y-32.327 Z-7.683
X18.065 Y-32.284 Z-7.761
X18.092 Y-32.231 Z-7.83
X18.122 Y-32.169 Z-7.889
X18.156 Y-32.1 Z-7.937
X18.194 Y-32.024 Z-7.972
X18.233 Y-31.945 Z-7.993
X18.273 Y-31.864 Z-8.
G2 X18.784 Y-31.268 I1.419 J-0.7
G1 X20.96 Y-29.855
X21.157 Y-29.721
X21.533 Y-29.462
X21.691 Y-29.364
X21.99 Y-29.197
X22.37 Y-29.019
X22.847 Y-28.835
X23.474 Y-28.643
X24.323 Y-28.448
X25.177 Y-28.276
X25.94 Y-27.857
X26.536 Y-27.221
X26.974 Y-26.468
X27.288 Y-25.656
X27.509 Y-24.813
X27.639 Y-24.081
X27.702 Y-23.846
X27.803 Y-23.624
X27.94 Y-23.423
G2 X28.655 Y-23.294 I0.438 J-0.381
G1 X28.735 Y-23.338 Z-7.993
X28.812 Y-23.38 Z-7.972
X28.886 Y-23.42 Z-7.937
X28.954 Y-23.457 Z-7.889
X29.015 Y-23.491 Z-7.83
X29.067 Y-23.519 Z-7.761
X29.109 Y-23.542 Z-7.683
X29.139 Y-23.558 Z-7.599
X29.158 Y-23.568 Z-7.511
X29.164 Y-23.572 Z-7.42
G0 Z5.
X20.796 Y-30.599
Z-6.84
G1 Z-7.42 F1440.
X20.799 Y-30.592 Z-7.511
X20.808 Y-30.573 Z-7.599
X20.823 Y-30.541 Z-7.683
X20.843 Y-30.498 Z-7.761
X20.867 Y-30.445 Z-7.83
X20.896 Y-30.382 Z-7.889
X20.929 Y-30.311 Z-7.937
X20.964 Y-30.235 Z-7.972
X21.001 Y-30.154 Z-7.993
X21.039 Y-30.072 Z-8.
G2 X21.533 Y-29.462 I1.438 J-0.661
G1 X21.553 Y-29.449
X21.75 Y-29.294
X24.229 Y-27.287
X24.321 Y-27.204
X24.716 Y-26.837
X26.837 Y-24.716
X27.204 Y-24.321
X27.287 Y-24.229
X29.294 Y-21.75
X29.449 Y-21.553
X29.721 Y-21.157
X29.857 Y-20.956
X30.177 Y-20.464
X30.188 Y-20.453
X30.201 Y-20.446
G3 X31.401 Y-19.711 I-1.058 J3.073
X31.564 Y-19.418 I-0.403 J0.417
G1 X32.2 Y-16.535
G3 X32.174 Y-16.201 I-0.566 J0.125
X31.395 Y-15.03 I-3.031 J-1.172
G1 X31.393 Y-15.028
X31.223 Y-14.83
X31.044 Y-14.657
X30.932 Y-14.554
X30.846 Y-14.488
X30.451 Y-14.242
X30.349 Y-14.171
X30.221 Y-14.073
X30.079 Y-13.947
X29.919 Y-13.783
X29.757 Y-13.593
X29.586 Y-13.359
X29.401 Y-13.065
X29.216 Y-12.717
X29.019 Y-12.276
X28.817 Y-11.718
X28.613 Y-10.996
X28.435 Y-10.143
X28.309 Y-9.281
X28.219 Y-8.415
X28.156 Y-7.546
X28.11 Y-6.676
X28.078 Y-5.806
X28.055 Y-4.935
X28.038 Y-4.064
X28.027 Y-3.193
X28.018 Y-2.322
X28.013 Y-1.451
X28.008 Y-0.58
X28.003 Y1.162
X28. Y3.776
X27.999 Y9.873
Y10.745
X28.005 Y11.616
X28.038 Y12.1
X28.085 Y12.379
X28.186 Y12.644
X28.336 Y12.884
X28.53 Y13.091
X28.76 Y13.256
X30.116 Y14.039
X30.253 Y14.119
X30.682 Y14.386
G2 X31.551 Y13.874 I0.289 J-0.503
G1 X31.126 Y-14.531
X31.132 Y-14.565
X31.152 Y-14.592
X31.182 Y-14.609
X31.216 Y-14.612
X31.248 Y-14.6
X31.272 Y-14.577
X31.285 Y-14.545
X31.283 Y-14.511
X31.267 Y-14.481
X31.24 Y-14.46
X31.207 Y-14.452
G2 X30.451 Y-14.242 I0.033 J1.582
G1 X30.253 Y-14.119
X29.264 Y-13.547
X28.869 Y-13.319
X28.754 Y-13.245
X28.599 Y-13.133
X28.421 Y-12.986
X28.249 Y-12.822
X28.061 Y-12.614
X27.856 Y-12.353
X27.657 Y-12.059
X27.439 Y-11.681
X27.226 Y-11.242
X27.003 Y-10.683
X26.775 Y-9.973
X26.57 Y-9.126
X26.557 Y-9.052
X26.535 Y-8.802
X26.556 Y-8.551
X26.621 Y-8.308
G2 X27.685 Y-8.28 I0.538 J-0.216
G1 X29.667 Y-12.563
G2 X28.869 Y-13.319 I-0.526 J-0.244
G1 X27.089 Y-12.291
X26.959 Y-12.207
X26.793 Y-12.093
X26.609 Y-11.944
X26.429 Y-11.778
X26.228 Y-11.562
X26.199 Y-11.526
X26.036 Y-11.276
X25.928 Y-10.998
X25.878 Y-10.704
X25.89 Y-10.407
X25.963 Y-10.118
G2 X26.999 Y-10.038 I0.538 J-0.217
G1 X27.86 Y-11.482
G2 X27.089 Y-12.291 I-0.498 J-0.297
G1 X26.006 Y-11.666
X25.903 Y-11.605
X25.829 Y-11.549
X25.789 Y-11.509
X25.755 Y-11.468
X25.705 Y-11.389
X25.678 Y-11.33
X25.658 Y-11.271
X25.64 Y-11.172
Y-11.073
X25.656 Y-10.974
X25.687 Y-10.875
X26.55 Y-8.502
X26.694 Y-8.106
X26.748 Y-7.909
X26.847 Y-7.514
X26.895 Y-7.316
X27.317 Y-5.536
X27.363 Y-5.339
X27.452 Y-4.943
X27.485 Y-4.778
X27.562 Y-4.152
X27.77 Y-2.373
X27.793 Y-2.175
X27.835 Y-1.78
X27.853 Y-1.582
X27.858 Y-0.989
Y0.989
X27.853 Y1.582
X27.835 Y1.78
X27.793 Y2.175
X27.678 Y3.164
X27.562 Y4.152
X27.485 Y4.778
X27.452 Y4.943
X27.363 Y5.339
X27.27 Y5.734
X26.891 Y7.333
X26.847 Y7.514
X26.748 Y7.909
X26.694 Y8.106
X26.577 Y8.526
X26.411 Y9.273
X26.303 Y9.999
X26.259 Y10.574
X26.257 Y11.021
X26.26 Y11.069
X26.306 Y11.349
X26.406 Y11.615
X26.557 Y11.856
X26.751 Y12.064
X26.982 Y12.229
G2 X27.834 Y11.713 I0.272 J-0.512
G1 X27.812 Y8.318
G2 X26.694 Y8.106 I-0.58 J0.004
G1 X26.407 Y8.898
X25.687 Y10.875
X25.656 Y10.974
X25.64 Y11.073
Y11.172
X25.658 Y11.271
X25.678 Y11.33
X25.705 Y11.389
X25.755 Y11.468
X25.789 Y11.509
X25.829 Y11.549
X25.903 Y11.605
X26.101 Y11.721
X28.76 Y13.256
G2 X29.474 Y13.12 I0.272 J-0.512
G1 X29.533 Y13.051 Z-7.993
X29.59 Y12.983 Z-7.972
X29.645 Y12.919 Z-7.937
X29.695 Y12.86 Z-7.889
X29.74 Y12.808 Z-7.83
X29.778 Y12.763 Z-7.761
X29.809 Y12.726 Z-7.683
X29.832 Y12.7 Z-7.599
X29.845 Y12.684 Z-7.511
X29.85 Y12.678 Z-7.42
G0 Z5.
X32.384 Y18.016
Z-6.84
G1 Z-7.42 F1440.
X32.377 Y18.02 Z-7.511
X32.358 Y18.029 Z-7.599
X32.327 Y18.044 Z-7.683
X32.284 Y18.065 Z-7.761
X32.231 Y18.092 Z-7.83
X32.169 Y18.122 Z-7.889
X32.1 Y18.156 Z-7.937
X32.024 Y18.194 Z-7.972
X31.945 Y18.233 Z-7.993
X31.864 Y18.273 Z-8.
G2 X31.268 Y18.784 I0.7 J1.419
G1 X29.855 Y20.96
X29.721 Y21.157
X29.462 Y21.533
X29.364 Y21.691
X29.197 Y21.99
X29.019 Y22.37
X28.835 Y22.847
X28.643 Y23.474
X28.448 Y24.323
X28.276 Y25.177
X27.857 Y25.94
X27.221 Y26.536
X26.468 Y26.974
X25.656 Y27.288
X24.813 Y27.509
X24.081 Y27.639
X23.846 Y27.702
X23.624 Y27.803
X23.423 Y27.94
G2 X23.294 Y28.655 I0.381 J0.438
G1 X23.338 Y28.735 Z-7.993
X23.38 Y28.812 Z-7.972
X23.42 Y28.886 Z-7.937
X23.457 Y28.954 Z-7.889
X23.491 Y29.015 Z-7.83
X23.519 Y29.067 Z-7.761
X23.542 Y29.109 Z-7.683
X23.558 Y29.139 Z-7.599
X23.568 Y29.158 Z-7.511
X23.572 Y29.164 Z-7.42
G0 Z5.
X30.599 Y20.796
Z-6.84
G1 Z-7.42 F1440.
X30.592 Y20.799 Z-7.511
X30.573 Y20.808 Z-7.599
X30.541 Y20.823 Z-7.683
X30.498 Y20.843 Z-7.761
X30.445 Y20.867 Z-7.83
X30.382 Y20.896 Z-7.889
X30.311 Y20.929 Z-7.937
X30.235 Y20.964 Z-7.972
X30.154 Y21.001 Z-7.993
X30.072 Y21.039 Z-8.
G2 X29.462 Y21.533 I0.661 J1.438
G1 X29.449 Y21.553
X29.294 Y21.75
X27.287 Y24.229
X27.204 Y24.321
X26.837 Y24.716
X24.716 Y26.837
X24.321 Y27.204
X24.229 Y27.287
X21.75 Y29.294
X21.553 Y29.449
X21.157 Y29.721
X20.956 Y29.857
X20.464 Y30.177
X20.453 Y30.188
X20.446 Y30.201
G3 X19.711 Y31.401 I-3.073 J-1.058
X19.418 Y31.564 I-0.417 J-0.403
G1 X16.535 Y32.2
G3 X16.201 Y32.174 I-0.125 J-0.566
X15.03 Y31.395 I1.172 J-3.031
G1 X15.028 Y31.393
X14.83 Y31.223
X14.657 Y31.044
X14.554 Y30.932
X14.488 Y30.846
X14.242 Y30.451
X14.171 Y30.349
X14.073 Y30.221
X13.947 Y30.079
X13.783 Y29.919
X13.593 Y29.757
X13.359 Y29.586
X13.065 Y29.401
X12.717 Y29.216
X12.276 Y29.019
X11.718 Y28.817
X10.996 Y28.613
X10.143 Y28.435
X9.281 Y28.309
X8.415 Y28.219
X7.546 Y28.156
X6.676 Y28.11
X5.806 Y28.078
X4.935 Y28.055
X4.064 Y28.038
X3.193 Y28.027
X2.322 Y28.018
X1.451 Y28.013
X0.58 Y28.008
X-1.162 Y28.003
X-3.776 Y28.
X-9.873 Y27.999
X-10.745
X-11.616 Y28.005
X-12.1 Y28.038
X-12.379 Y28.085
X-12.644 Y28.186
X-12.884 Y28.336
X-13.091 Y28.53
X-13.256 Y28.76
X-14.039 Y30.116
X-14.119 Y30.253
X-14.386 Y30.682
G2 X-13.874 Y31.551 I0.503 J0.289
G1 X14.531 Y31.126
X14.565 Y31.132
X14.592 Y31.152
X14.609 Y31.182
X14.612 Y31.216
X14.6 Y31.248
X14.577 Y31.272
X14.545 Y31.285
X14.511 Y31.283
X14.481 Y31.267
X14.46 Y31.24
X14.452 Y31.207
G2 X14.242 Y30.451 I-1.582 J0.033
G1 X14.119 Y30.253
X13.547 Y29.264
X13.319 Y28.869
X13.245 Y28.754
X13.133 Y28.599
X12.986 Y28.421
X12.822 Y28.249
X12.614 Y28.061
X12.353 Y27.856
X12.059 Y27.657
X11.681 Y27.439
X11.242 Y27.226
X10.683 Y27.003
X9.973 Y26.775
X9.126 Y26.57
X9.052 Y26.557
X8.802 Y26.535
X8.551 Y26.556
X8.308 Y26.621
G2 X8.28 Y27.685 I0.216 J0.538
G1 X12.563 Y29.667
G2 X13.319 Y28.869 I0.244 J-0.526
G1 X12.291 Y27.089
X12.207 Y26.959
X12.093 Y26.793
X11.944 Y26.609
X11.778 Y26.429
X11.562 Y26.228
X11.526 Y26.199
X11.276 Y26.036
X10.998 Y25.928
X10.704 Y25.878
X10.407 Y25.89
X10.118 Y25.963
G2 X10.038 Y26.999 I0.217 J0.538
G1 X11.482 Y27.86
G2 X12.291 Y27.089 I0.297 J-0.498
G1 X11.666 Y26.006
X11.605 Y25.903
X11.549 Y25.829
X11.509 Y25.789
X11.468 Y25.755
X11.389 Y25.705
X11.33 Y25.678
X11.271 Y25.658
X11.172 Y25.64
X11.073
X10.974 Y25.656
X10.875 Y25.687
X8.502 Y26.55
X8.106 Y26.694
X7.909 Y26.748
X7.514 Y26.847
X7.316 Y26.895
X5.536 Y27.317
X5.339 Y27.363
X4.943 Y27.452
X4.778 Y27.485
X4.152 Y27.562
X2.373 Y27.77
X2.175 Y27.793
X1.78 Y27.835
X1.582 Y27.853
X0.989 Y27.858
X-0.989
X-1.582 Y27.853
X-1.78 Y27.835
X-2.175 Y27.793
X-3.164 Y27.678
X-4.152 Y27.562
X-4.778 Y27.485
X-4.943 Y27.452
X-5.339 Y27.363
X-5.734 Y27.27
X-7.333 Y26.891
X-7.514 Y26.847
X-7.909 Y26.748
X-8.106 Y26.694
X-8.526 Y26.577
X-9.273 Y26.411
X-9.999 Y26.303
X-10.574 Y26.259
X-11.021 Y26.257
X-11.069 Y26.26
X-11.349 Y26.306
X-11.615 Y26.406
X-11.856 Y26.557
X-12.064 Y26.751
X-12.229 Y26.982
G2 X-11.713 Y27.834 I0.512 J0.272
G1 X-8.318 Y27.812
G2 X-8.106 Y26.694 I-0.004 J-0.58
G1 X-8.898 Y26.407
X-10.875 Y25.687
X-10.974 Y25.656
X-11.073 Y25.64
X-11.172
X-11.271 Y25.658
X-11.33 Y25.678
X-11.389 Y25.705
X-11.468 Y25.755
X-11.509 Y25.789
X-11.549 Y25.829
X-11.605 Y25.903
X-11.721 Y26.101
X-13.256 Y28.76
G2 X-13.12 Y29.474 I0.512 J0.272
G1 X-13.051 Y29.533 Z-7.993
X-12.983 Y29.59 Z-7.972
X-12.919 Y29.645 Z-7.937
X-12.86 Y29.695 Z-7.889
X-12.808 Y29.74 Z-7.83
X-12.763 Y29.778 Z-7.761
X-12.726 Y29.809 Z-7.683
X-12.7 Y29.832 Z-7.599
X-12.684 Y29.845 Z-7.511
X-12.678 Y29.85 Z-7.42
G0 Z5.
X-18.016 Y32.384
Z-6.84
G1 Z-7.42 F1440.
X-18.02 Y32.377 Z-7.511
X-18.029 Y32.358 Z-7.599
X-18.044 Y32.327 Z-7.683
X-18.065 Y32.284 Z-7.761
X-18.092 Y32.231 Z-7.83
X-18.122 Y32.169 Z-7.889
X-18.156 Y32.1 Z-7.937
X-18.194 Y32.024 Z-7.972
X-18.233 Y31.945 Z-7.993
X-18.273 Y31.864 Z-8.
G2 X-18.784 Y31.268 I-1.419 J0.7
G1 X-20.96 Y29.855
X-21.157 Y29.721
X-21.533 Y29.462
X-21.691 Y29.364
X-21.99 Y29.197
X-22.383 Y29.013
X-23.196 Y28.699
X-24.021 Y28.421
X-24.706 Y27.882
X-25.179 Y27.151
X-25.49 Y26.337
X-25.577 Y26.1
X-25.703 Y25.882
X-25.865 Y25.689
G2 X-26.691 Y25.725 I-0.396 J0.424
X-26.641 Y26.55 I0.431 J0.388
G1 X-22.26 Y30.365
G2 X-21.299 Y29.928 I0.381 J-0.437
X-21.533 Y29.462 I-0.58 J0.
G1 X-21.553 Y29.449
X-21.75 Y29.294
X-24.229 Y27.287
X-24.321 Y27.204
X-24.716 Y26.837
X-26.837 Y24.716
X-27.204 Y24.321
X-27.287 Y24.229
X-28.322 Y22.951
X-28.37 Y22.902
X-28.423 Y22.859
X-28.481 Y22.823
X-28.55 Y22.8 Z-7.995
X-28.618 Y22.778 Z-7.982
X-28.684 Y22.757 Z-7.959
X-28.76 Y22.752 Z-7.922
X-28.822 Y22.763 Z-7.879
X-28.879 Y22.774 Z-7.828
X-28.928 Y22.783 Z-7.769
X-28.969 Y22.791 Z-7.705
X-28.999 Y22.804 Z-7.638
X-29.02 Y22.814 Z-7.567
X-29.033 Y22.82 Z-7.494
X-29.037 Y22.822 Z-7.42
G0 Z5.
X0. Y0.
Z-1.5
G1 Z-8. F300.
X-0.037 Y-0.003 F1440.
X-0.028 Y0.034
X0.007 Y0.047
X0.04 Y0.031
X0.052 Y-0.005
X0.039 Y-0.04
X0.013 Y-0.066
X-0.022 Y-0.079
X-0.06 Y-0.074
X-0.09 Y-0.052
X-0.112 Y-0.021
X-0.121 Y0.015
X-0.118 Y0.052
X-0.104 Y0.087
X-0.08 Y0.116
X-0.019 Y0.159
X0.056 Y0.166
X0.126 Y0.14
X0.178 Y0.086
X0.207 Y0.017
X0.211 Y-0.058
X0.191 Y-0.131
X0.149 Y-0.193
X0.092 Y-0.241
X0.023 Y-0.271
X-0.126 Y-0.29
X-0.265 Y-0.234
X-0.365 Y-0.122
X-0.412 Y0.02
X-0.405 Y0.17
X-0.346 Y0.308
X-0.246 Y0.42
X-0.117 Y0.496
X0.03 Y0.528
X0.179 Y0.518
X0.32 Y0.466
X0.443 Y0.38
X0.539 Y0.265
X0.604 Y0.13
X0.635 Y-0.017
X0.631 Y-0.167
X0.593 Y-0.312
X0.525 Y-0.446
X0.433 Y-0.564
X0.317 Y-0.66
X0.186 Y-0.732
X0.043 Y-0.777
X-0.107 Y-0.793
X-0.256 Y-0.782
X-0.401 Y-0.743
X-0.537 Y-0.68
X-0.66 Y-0.593
X-0.767 Y-0.488
X-0.854 Y-0.366
X-0.921 Y-0.232
X-0.966 Y-0.089
X-0.988 Y0.06
X-0.987 Y0.21
X-0.963 Y0.358
X-0.919 Y0.501
X-0.853 Y0.636
X-0.77 Y0.761
X-0.669 Y0.872
X-0.554 Y0.968
X-0.427 Y1.048
X-0.291 Y1.111
X-0.147 Y1.154
X0.001 Y1.179
X0.15 Y1.184
X0.3 Y1.171
X0.446 Y1.138
X0.588 Y1.089
X0.722 Y1.021
X0.847 Y0.939
X0.962 Y0.842
X1.065 Y0.733
X1.153 Y0.612
X1.228 Y0.482
X1.288 Y0.344
X1.332 Y0.201
X1.359 Y0.053
X1.371 Y-0.096
X1.366 Y-0.246
X1.346 Y-0.395
X1.31 Y-0.54
X1.259 Y-0.681
X1.194 Y-0.817
X1.115 Y-0.944
X1.024 Y-1.064
X0.922 Y-1.173
X0.809 Y-1.272
X0.687 Y-1.359
X0.557 Y-1.434
X0.42 Y-1.496
X0.278 Y-1.544
X0.132 Y-1.579
X-0.016 Y-1.6
X-0.166 Y-1.607
X-0.316 Y-1.601
X-0.464 Y-1.58
X-0.61 Y-1.546
X-0.753 Y-1.499
X-0.891 Y-1.44
X-1.023 Y-1.369
X-1.148 Y-1.286
X-1.265 Y-1.193
X-1.375 Y-1.09
X-1.474 Y-0.978
X-1.564 Y-0.858
X-1.644 Y-0.731
X-1.713 Y-0.598
X-1.77 Y-0.459
X-1.816 Y-0.316
X-1.85 Y-0.17
X-1.872 Y-0.022
X-1.882 Y0.128
X-1.88 Y0.278
X-1.866 Y0.427
X-1.84 Y0.575
X-1.803 Y0.72
X-1.755 Y0.862
X-1.695 Y1.
X-1.626 Y1.133
X-1.546 Y1.26
X-1.457 Y1.381
X-1.359 Y1.495
X-1.253 Y1.601
X-1.14 Y1.698
X-1.019 Y1.788
X-0.892 Y1.868
X-0.76 Y1.938
X-0.623 Y1.999
X-0.482 Y2.05
X-0.335 Y2.091
X-0.188 Y2.121
X-0.036 Y2.141
X0.115 Y2.15
X0.266 Y2.148
X0.422 Y2.135
X0.572 Y2.111
X0.726 Y2.076
X0.875 Y2.03
X1.02 Y1.974
X1.165 Y1.906
X1.302 Y1.83
X1.436 Y1.741
X1.564 Y1.643
X1.684 Y1.537
X1.8 Y1.419
X1.905 Y1.295
X2.002 Y1.164
X2.091 Y1.021
X2.169 Y0.875
X2.237 Y0.724
X2.296 Y0.563
X2.342 Y0.401
X2.376 Y0.236
X2.4 Y0.063
X2.411 Y-0.108
X2.41 Y-0.279
X2.396 Y-0.455
X2.37 Y-0.629
X2.332 Y-0.798
X2.281 Y-0.969
X2.217 Y-1.137
X2.143 Y-1.298
X2.056 Y-1.454
X1.957 Y-1.608
X1.847 Y-1.753
X1.728 Y-1.889
X1.598 Y-2.018
X1.457 Y-2.14
X1.308 Y-2.251
X1.152 Y-2.35
X0.987 Y-2.439
X0.814 Y-2.518
X0.636 Y-2.584
X0.454 Y-2.637
X0.268 Y-2.677
X0.076 Y-2.704
X-0.118 Y-2.718
X-0.312
X-0.506 Y-2.704
X-0.699 Y-2.676
X-0.894 Y-2.634
X-1.085 Y-2.577
X-1.272 Y-2.508
X-1.454 Y-2.425
X-1.63 Y-2.329
X-1.801 Y-2.22
X-1.965 Y-2.097
X-2.12 Y-1.963
X-2.266 Y-1.817
X-2.402 Y-1.662
X-2.526 Y-1.496
X-2.639 Y-1.322
X-2.74 Y-1.138
X-2.829 Y-0.946
X-2.904 Y-0.747
X-2.965 Y-0.542
X-3.011 Y-0.333
X-3.043 Y-0.121
X-3.059 Y0.095
X-3.061 Y0.311
X-3.046 Y0.528
X-3.016 Y0.745
X-2.971 Y0.96
X-2.91 Y1.173
X-2.833 Y1.382
X-2.742 Y1.586
X-2.635 Y1.784
X-2.515 Y1.975
X-2.38 Y2.158
X-2.232 Y2.331
X-2.072 Y2.494
X-1.899 Y2.646
X-1.716 Y2.786
X-1.522 Y2.913
X-1.318 Y3.026
X-1.107 Y3.126
X-0.887 Y3.21
X-0.661 Y3.279
X-0.43 Y3.332
X-0.195 Y3.368
X0.044 Y3.388
X0.284 Y3.39
X0.525 Y3.376
X0.766 Y3.344
X1.004 Y3.295
X1.24 Y3.229
X1.471 Y3.146
X1.697 Y3.046
X1.916 Y2.93
X2.127 Y2.798
X2.33 Y2.651
X2.522 Y2.489
X2.703 Y2.313
X2.872 Y2.124
X3.028 Y1.922
X3.169 Y1.709
X3.296 Y1.485
X3.407 Y1.252
X3.501 Y1.01
X3.578 Y0.762
X3.638 Y0.507
X3.68 Y0.247
X3.703 Y-0.016
X3.708 Y-0.28
X3.693 Y-0.546
X3.66 Y-0.812
X3.607 Y-1.075
X3.536 Y-1.334
X3.446 Y-1.59
X3.338 Y-1.839
X3.212 Y-2.081
X3.068 Y-2.314
X2.908 Y-2.537
X2.731 Y-2.75
X2.539 Y-2.95
X2.332 Y-3.136
X2.112 Y-3.308
X1.879 Y-3.465
X1.635 Y-3.605
X1.38 Y-3.728
X1.116 Y-3.833
X0.844 Y-3.919
X0.566 Y-3.986
X0.282 Y-4.034
X-0.005 Y-4.061
X-0.295 Y-4.067
X-0.585 Y-4.053
X-0.875 Y-4.019
X-1.163 Y-3.963
X-1.448 Y-3.887
X-1.727 Y-3.79
X-2. Y-3.674
X-2.265 Y-3.538
X-2.52 Y-3.382
X-2.765 Y-3.209
X-2.998 Y-3.017
X-3.128 Y-2.894
X-3.339 Y-2.676
X-3.535 Y-2.443
X-3.715 Y-2.196
X-3.877 Y-1.935
X-4.021 Y-1.663
X-4.145 Y-1.38
X-4.25 Y-1.087
X-4.333 Y-0.787
X-4.396 Y-0.481
X-4.436 Y-0.17
X-4.455 Y0.145
X-4.451 Y0.461
X-4.424 Y0.777
X-4.375 Y1.092
X-4.304 Y1.404
X-4.21 Y1.711
X-4.094 Y2.012
X-3.956 Y2.305
X-3.798 Y2.588
X-3.619 Y2.861
X-3.42 Y3.121
X-3.203 Y3.367
X-2.968 Y3.597
X-2.716 Y3.812
X-2.448 Y4.008
X-2.167 Y4.186
X-1.872 Y4.343
X-1.566 Y4.48
X-1.25 Y4.596
X-0.925 Y4.688
X-0.593 Y4.758
X-0.256 Y4.804
X0.085 Y4.826
X0.427 Y4.824
X0.77 Y4.797
X1.112 Y4.746
X1.45 Y4.671
X1.783 Y4.571
X2.109 Y4.447
X2.427 Y4.301
X2.734 Y4.131
X3.03 Y3.939
X3.312 Y3.726
X3.58 Y3.492
X3.831 Y3.239
X4.064 Y2.968
X4.279 Y2.68
X4.473 Y2.377
X4.645 Y2.059
X4.795 Y1.729
X4.922 Y1.388
X5.024 Y1.038
X5.101 Y0.679
X5.153 Y0.315
X5.179 Y-0.052
Y-0.423
X5.153 Y-0.793
X5.1 Y-1.162
X5.02 Y-1.527
X4.915 Y-1.887
X4.784 Y-2.24
X4.627 Y-2.583
X4.446 Y-2.916
X4.241 Y-3.236
X4.014 Y-3.542
X3.764 Y-3.831
X3.493 Y-4.103
X3.203 Y-4.356
X2.895 Y-4.589
X2.569 Y-4.799
X2.229 Y-4.987
X1.875 Y-5.15
X1.509 Y-5.288
X1.133 Y-5.4
X0.749 Y-5.486
X0.359 Y-5.544
X-0.036 Y-5.574
X-0.434 Y-5.576
X-0.831 Y-5.55
X-1.227 Y-5.496
X-1.62 Y-5.413
X-2.007 Y-5.302
X-2.376 Y-5.168
X-2.747 Y-5.001
X-3.107 Y-4.808
X-3.453 Y-4.589
X-3.784 Y-4.346
X-4.097 Y-4.079
X-4.391 Y-3.79
X-4.664 Y-3.48
X-4.916 Y-3.15
X-5.144 Y-2.802
X-5.347 Y-2.438
X-5.525 Y-2.06
X-5.676 Y-1.668
X-5.798 Y-1.266
X-5.892 Y-0.854
X-5.957 Y-0.436
X-5.992 Y-0.013
X-5.997 Y0.413
X-5.972 Y0.839
X-5.916 Y1.263
X-5.83 Y1.684
X-5.714 Y2.099
X-5.568 Y2.506
X-5.393 Y2.902
X-5.19 Y3.286
X-4.959 Y3.656
X-4.702 Y4.01
X-4.42 Y4.345
X-4.113 Y4.66
X-3.784 Y4.954
X-3.434 Y5.224
X-3.065 Y5.47
X-2.678 Y5.689
X-2.275 Y5.881
X-1.859 Y6.044
X-1.43 Y6.177
X-0.992 Y6.28
X-0.547 Y6.352
X-0.096 Y6.392
X0.358 Y6.4
X0.812 Y6.375
X1.265 Y6.319
X1.714 Y6.229
X2.157 Y6.108
X2.592 Y5.955
X3.015 Y5.772
X3.426 Y5.558
X3.822 Y5.314
X4.2 Y5.042
X4.535 Y4.764
X4.875 Y4.441
X5.191 Y4.094
X5.483 Y3.725
X5.749 Y3.334
X5.987 Y2.924
X6.196 Y2.498
X6.374 Y2.056
X6.521 Y1.601
X6.636 Y1.136
X6.718 Y0.663
X6.766 Y0.183
X6.779 Y-0.3
X6.759 Y-0.784
X6.703 Y-1.266
X6.614 Y-1.745
X6.49 Y-2.217
X6.333 Y-2.681
X6.142 Y-3.134
X5.919 Y-3.573
X5.665 Y-3.996
X5.381 Y-4.401
X5.068 Y-4.786
X4.727 Y-5.149
X4.361 Y-5.487
X3.97 Y-5.8
X3.557 Y-6.084
X3.124 Y-6.339
X2.673 Y-6.564
X2.205 Y-6.756
X1.724 Y-6.915
X1.231 Y-7.039
X0.73 Y-7.129
X0.222 Y-7.183
X-0.29 Y-7.2
X-0.801 Y-7.181
X-1.312 Y-7.126
X-1.819 Y-7.034
X-2.32 Y-6.906
X-2.813 Y-6.742
X-3.294 Y-6.543
X-3.761 Y-6.31
X-4.211 Y-6.043
X-4.643 Y-5.744
X-5.053 Y-5.415
X-5.44 Y-5.056
X-5.801 Y-4.669
X-6.134 Y-4.257
X-6.439 Y-3.821
X-6.712 Y-3.363
X-6.952 Y-2.886
X-7.159 Y-2.392
X-7.33 Y-1.884
X-7.465 Y-1.363
X-7.563 Y-0.832
X-7.623 Y-0.295
X-7.645 Y0.247
X-7.629 Y0.79
X-7.573 Y1.332
X-7.479 Y1.87
X-7.347 Y2.401
X-7.176 Y2.923
X-6.969 Y3.433
X-6.725 Y3.927
X-6.447 Y4.405
X-6.134 Y4.862
X-5.788 Y5.297
X-5.412 Y5.708
X-5.007 Y6.091
X-4.574 Y6.446
X-4.116 Y6.769
X-3.635 Y7.061
X-3.133 Y7.317
X-2.613 Y7.538
X-2.078 Y7.722
X-1.529 Y7.868
X-0.97 Y7.975
X-0.404 Y8.041
X0.168 Y8.068
X0.74 Y8.054
X1.312 Y7.999
X1.88 Y7.903
X2.441 Y7.766
X2.992 Y7.59
X3.531 Y7.375
X4.054 Y7.121
X4.56 Y6.83
X5.044 Y6.503
X5.505 Y6.141
X5.94 Y5.747
X6.347 Y5.322
X6.724 Y4.868
X7.068 Y4.387
X7.378 Y3.882
X7.652 Y3.354
X7.824 Y2.954
X8.032 Y2.397
X8.2 Y1.824
X8.327 Y1.239
X8.413 Y0.645
X8.456 Y0.045
X8.457 Y-0.558
X8.414 Y-1.161
X8.329 Y-1.76
X8.201 Y-2.354
X8.031 Y-2.938
X7.819 Y-3.51
X7.566 Y-4.067
X7.274 Y-4.606
X6.943 Y-5.124
X6.576 Y-5.618
X6.174 Y-6.085
X5.738 Y-6.524
X5.271 Y-6.932
X4.776 Y-7.307
X4.254 Y-7.646
X3.708 Y-7.947
X3.14 Y-8.21
X2.554 Y-8.432
X1.953 Y-8.613
X1.339 Y-8.75
X0.716 Y-8.844
X0.086 Y-8.893
X-0.547 Y-8.897
X-1.18 Y-8.856
X-1.81 Y-8.77
X-2.434 Y-8.64
X-3.049 Y-8.464
X-3.652 Y-8.245
X-4.238 Y-7.983
X-4.806 Y-7.68
X-5.352 Y-7.336
X-5.873 Y-6.953
X-6.367 Y-6.533
X-6.831 Y-6.078
X-7.262 Y-5.591
X-7.658 Y-5.073
X-8.018 Y-4.526
X-8.338 Y-3.955
X-8.617 Y-3.361
X-8.854 Y-2.747
X-9.048 Y-2.116
X-9.196 Y-1.472
X-9.298 Y-0.818
X-9.354 Y-0.157
X-9.362 Y0.508
X-9.323 Y1.173
X-9.237 Y1.835
X-9.104 Y2.491
X-8.924 Y3.137
X-8.698 Y3.769
X-8.427 Y4.386
X-8.113 Y4.982
X-7.756 Y5.556
X-7.358 Y6.105
X-6.922 Y6.625
X-6.448 Y7.113
X-5.94 Y7.567
X-5.401 Y7.986
X-4.831 Y8.365
X-4.235 Y8.704
X-3.615 Y9.
X-2.974 Y9.252
X-2.315 Y9.458
X-1.643 Y9.617
X-0.959 Y9.728
X-0.267 Y9.79
X0.428 Y9.803
X1.124 Y9.767
X1.817 Y9.681
X2.504 Y9.545
X3.181 Y9.361
X3.844 Y9.129
X4.244 Y8.956
X4.878 Y8.648
X5.489 Y8.296
X6.075 Y7.9
X6.633 Y7.463
X7.16 Y6.986
X7.652 Y6.471
X8.107 Y5.922
X8.521 Y5.345
X8.896 Y4.732
X9.228 Y4.094
X9.513 Y3.432
X9.752 Y2.752
X9.941 Y2.055
X10.081 Y1.344
X10.17 Y0.625
X10.208 Y-0.101
X10.194 Y-0.828
X10.129 Y-1.555
X10.011 Y-2.276
X9.843 Y-2.988
X9.623 Y-3.688
X9.355 Y-4.372
X9.037 Y-5.037
X8.672 Y-5.678
X8.262 Y-6.293
X7.809 Y-6.878
X7.314 Y-7.431
X6.78 Y-7.948
X6.209 Y-8.427
X5.605 Y-8.865
X4.97 Y-9.26
X4.307 Y-9.609
X3.62 Y-9.911
X2.912 Y-10.163
X2.187 Y-10.365
X1.448 Y-10.515
X0.698 Y-10.613
X-0.058 Y-10.657
X-0.816 Y-10.647
X-1.574 Y-10.583
X-2.327 Y-10.465
X-3.071 Y-10.294
X-3.802 Y-10.069
X-4.517 Y-9.793
X-5.212 Y-9.466
X-5.883 Y-9.09
X-6.527 Y-8.666
X-7.141 Y-8.196
X-7.72 Y-7.684
X-8.263 Y-7.13
X-8.766 Y-6.538
X-9.227 Y-5.91
X-9.642 Y-5.25
X-10.01 Y-4.561
X-10.329 Y-3.847
X-10.597 Y-3.11
X-10.812 Y-2.354
X-10.973 Y-1.584
X-11.08 Y-0.803
X-11.13 Y-0.015
X-11.125 Y0.776
X-11.063 Y1.566
X-10.945 Y2.352
X-10.771 Y3.128
X-10.542 Y3.891
X-10.258 Y4.637
X-10.075 Y5.033
X-9.721 Y5.733
X-9.316 Y6.412
X-8.861 Y7.063
X-8.358 Y7.684
X-7.811 Y8.269
X-7.221 Y8.816
X-6.592 Y9.321
X-5.927 Y9.781
X-5.229 Y10.194
X-4.502 Y10.557
X-3.75 Y10.868
X-2.976 Y11.125
X-2.183 Y11.327
X-1.377 Y11.473
X-0.562 Y11.561
X0.26 Y11.591
X1.083 Y11.562
X1.904 Y11.475
X2.69 Y11.334
X3.501 Y11.128
X4.294 Y10.866
X5.067 Y10.548
X5.815 Y10.176
X6.535 Y9.752
X7.224 Y9.276
X7.878 Y8.753
X8.494 Y8.184
X9.068 Y7.572
X9.599 Y6.918
X10.083 Y6.228
X10.518 Y5.504
X10.9 Y4.749
X11.228 Y3.968
X11.501 Y3.164
X11.716 Y2.341
X11.872 Y1.504
X11.969 Y0.657
X12.005 Y-0.197
X11.98 Y-1.053
X11.895 Y-1.905
X11.748 Y-2.752
X11.542 Y-3.587
X11.277 Y-4.406
X10.953 Y-5.206
X10.572 Y-5.983
X10.137 Y-6.731
X9.649 Y-7.448
X9.11 Y-8.13
X8.523 Y-8.772
X7.891 Y-9.372
X7.219 Y-9.926
X6.509 Y-10.43
X5.764 Y-10.883
X4.99 Y-11.282
X4.19 Y-11.626
X3.367 Y-11.912
X2.526 Y-12.14
X1.672 Y-12.309
X0.807 Y-12.417
X-0.063 Y-12.464
X-0.934 Y-12.45
X-1.801 Y-12.376
X-2.662 Y-12.241
X-3.511 Y-12.046
X-4.345 Y-11.793
X-5.159 Y-11.483
X-5.949 Y-11.118
X-6.713 Y-10.698
X-7.446 Y-10.227
X-8.144 Y-9.707
X-8.806 Y-9.14
X-9.427 Y-8.529
X-10.004 Y-7.877
X-10.536 Y-7.187
X-11.019 Y-6.462
X-11.453 Y-5.707
X-11.833 Y-4.923
X-12.16 Y-4.116
X-12.431 Y-3.288
X-12.646 Y-2.444
X-12.804 Y-1.587
X-12.903 Y-0.721
X-12.944 Y0.149
X-12.926 Y1.02
X-12.85 Y1.887
X-12.715 Y2.748
X-12.522 Y3.597
X-12.269 Y4.431
X-11.964 Y5.247
X-11.607 Y6.041
X-11.198 Y6.811
X-10.739 Y7.551
X-10.231 Y8.259
X-9.678 Y8.932
X-9.08 Y9.565
X-8.442 Y10.158
X-7.765 Y10.707
X-7.054 Y11.21
X-6.311 Y11.665
X-5.54 Y12.07
X-4.744 Y12.424
X-3.927 Y12.726
X-3.092 Y12.973
X-2.242 Y13.166
X-1.382 Y13.303
X-0.515 Y13.384
X0.356 Y13.408
X1.227 Y13.373
X2.093 Y13.281
X2.951 Y13.133
X3.798 Y12.93
X4.631 Y12.673
X5.445 Y12.363
X6.237 Y12.002
X7.006 Y11.591
X7.746 Y11.132
X8.455 Y10.627
X9.13 Y10.076
X9.768 Y9.482
X10.366 Y8.849
X10.923 Y8.179
X11.436 Y7.475
X11.903 Y6.74
X12.324 Y5.977
X12.695 Y5.189
X13.017 Y4.38
X13.286 Y3.551
X13.5 Y2.707
X13.66 Y1.85
X13.767 Y0.986
X13.818 Y0.116
X13.816 Y-0.755
X13.759 Y-1.624
X13.649 Y-2.488
X13.485 Y-3.344
X13.266 Y-4.187
X12.994 Y-5.015
X12.671 Y-5.823
X12.298 Y-6.611
X11.878 Y-7.374
X11.411 Y-8.109
X10.901 Y-8.815
X10.347 Y-9.488
X9.752 Y-10.124
X9.118 Y-10.721
X8.449 Y-11.278
X7.746 Y-11.793
X7.013 Y-12.265
X6.253 Y-12.691
X5.469 Y-13.07
X4.663 Y-13.4
X3.837 Y-13.678
X2.996 Y-13.904
X2.143 Y-14.079
X1.281 Y-14.202
X0.412 Y-14.272
X-0.459 Y-14.29
X-1.329 Y-14.256
X-2.196 Y-14.168
X-3.055 Y-14.026
X-3.904 Y-13.831
X-4.74 Y-13.586
X-5.56 Y-13.291
X-6.36 Y-12.947
X-7.139 Y-12.557
X-7.893 Y-12.12
X-8.619 Y-11.639
X-9.314 Y-11.114
X-9.976 Y-10.547
X-10.602 Y-9.942
X-11.192 Y-9.301
X-11.743 Y-8.626
X-12.253 Y-7.92
X-12.721 Y-7.186
X-13.144 Y-6.424
X-13.519 Y-5.638
X-13.847 Y-4.831
X-14.126 Y-4.005
X-14.356 Y-3.165
X-14.537 Y-2.313
X-14.668 Y-1.452
X-14.749 Y-0.585
X-14.778 Y0.286
X-14.753 Y1.157
X-14.677 Y2.024
X-14.549 Y2.886
X-14.371 Y3.739
X-14.143 Y4.58
X-13.868 Y5.406
X-13.546 Y6.216
X-13.177 Y7.005
X-12.762 Y7.77
X-12.302 Y8.51
X-11.8 Y9.222
X-11.257 Y9.903
X-10.676 Y10.552
X-10.058 Y11.166
X-9.406 Y11.744
X-8.878 Y12.159
X-8.744 Y12.259
X-8.305 Y12.588
X-8.208 Y12.655
X-7.872 Y12.853
X-7.712 Y12.941
X-6.525 Y13.589
X-6.408 Y13.643
X-5.932 Y13.847
X-5.734 Y13.928
X-4.548 Y14.371
X-4.349 Y14.434
X-3.757 Y14.589
X-2.571 Y14.847
X-2.373 Y14.888
X-1.78 Y14.961
X-1.582 Y14.979
X-0.395 Y15.064
X-0.198 Y15.068
X0.198
X0.395 Y15.064
X1.582 Y14.979
X1.78 Y14.961
X2.373 Y14.888
X2.571 Y14.847
X3.757 Y14.589
X4.35 Y14.434
X4.548 Y14.371
X5.734 Y13.928
X5.946 Y13.841
X6.408 Y13.643
X6.525 Y13.589
X7.712 Y12.941
X7.872 Y12.853
X8.208 Y12.655
X8.305 Y12.588
X9.293 Y11.847
X9.887 Y11.399
X10.019 Y11.271
X11.271 Y10.019
X11.399 Y9.887
X11.864 Y9.272
X12.588 Y8.305
X12.655 Y8.208
X12.853 Y7.872
X12.941 Y7.712
X13.589 Y6.525
X13.643 Y6.408
X13.847 Y5.932
X13.928 Y5.734
X14.371 Y4.548
X14.434 Y4.349
X14.589 Y3.757
X14.847 Y2.571
X14.888 Y2.373
X14.961 Y1.78
X14.979 Y1.582
X15.064 Y0.395
X15.068 Y0.198
Y-0.198
X15.064 Y-0.395
X14.979 Y-1.582
X14.961 Y-1.78
X14.888 Y-2.373
X14.847 Y-2.571
X14.589 Y-3.757
X14.434 Y-4.35
X14.371 Y-4.548
X13.928 Y-5.734
X13.841 Y-5.946
X13.643 Y-6.408
X13.589 Y-6.525
X12.941 Y-7.712
X12.853 Y-7.872
X12.655 Y-8.208
X12.588 Y-8.305
X11.847 Y-9.293
X11.399 Y-9.887
X11.271 Y-10.019
X10.019 Y-11.271
X9.887 Y-11.399
X9.272 Y-11.864
X8.305 Y-12.588
X8.208 Y-12.655
X7.872 Y-12.853
X7.712 Y-12.941
X6.525 Y-13.589
X6.408 Y-13.643
X5.932 Y-13.847
X5.734 Y-13.928
X4.548 Y-14.371
X4.349 Y-14.434
X3.757 Y-14.589
X2.571 Y-14.847
X2.373 Y-14.888
X1.78 Y-14.961
X1.582 Y-14.979
X0.395 Y-15.064
X0.198 Y-15.068
X-0.198
X-0.395 Y-15.064
X-1.582 Y-14.979
X-1.78 Y-14.961
X-2.373 Y-14.888
X-2.571 Y-14.847
X-3.757 Y-14.589
X-4.35 Y-14.434
X-4.548 Y-14.371
X-5.734 Y-13.928
X-5.946 Y-13.841
X-6.408 Y-13.643
X-6.525 Y-13.589
X-7.712 Y-12.941
X-7.872 Y-12.853
X-8.208 Y-12.655
X-8.305 Y-12.588
X-9.293 Y-11.847
X-9.887 Y-11.399
X-10.019 Y-11.271
X-11.271 Y-10.019
X-11.399 Y-9.887
X-11.864 Y-9.272
X-12.588 Y-8.305
X-12.655 Y-8.208
X-12.853 Y-7.872
X-12.941 Y-7.712
X-13.589 Y-6.525
X-13.643 Y-6.408
X-13.847 Y-5.932
X-13.928 Y-5.734
X-14.371 Y-4.548
X-14.434 Y-4.349
X-14.589 Y-3.757
X-14.847 Y-2.571
X-14.888 Y-2.373
X-14.961 Y-1.78
X-14.979 Y-1.582
X-15.064 Y-0.395
X-15.068 Y-0.198
Y0.198
X-15.064 Y0.395
X-14.979 Y1.582
X-14.961 Y1.78
X-14.888 Y2.373
X-14.847 Y2.571
X-14.589 Y3.757
X-14.434 Y4.35
X-14.371 Y4.548
X-13.928 Y5.734
X-13.841 Y5.946
X-13.643 Y6.408
X-13.589 Y6.525
X-12.941 Y7.712
X-12.853 Y7.872
X-12.655 Y8.208
X-12.588 Y8.305
X-11.847 Y9.293
X-11.399 Y9.887
X-11.271 Y10.019
X-10.019 Y11.271
X-9.887 Y11.399
X-9.272 Y11.864
X-8.878 Y12.159
X-8.82 Y12.194
X-8.758 Y12.223
X-8.693 Y12.244
X-8.619 Y12.253 Z-7.995
X-8.547 Y12.263 Z-7.981
X-8.473 Y12.249 Z-7.955
X-8.402 Y12.235 Z-7.919
X-8.338 Y12.223 Z-7.874
X-8.282 Y12.189 Z-7.812
X-8.234 Y12.16 Z-7.74
X-8.197 Y12.136 Z-7.661
X-8.171 Y12.12 Z-7.576
X-8.156 Y12.111 Z-7.488
X-8.153 Y12.108 Z-7.42
G0 Z5.
X-34.166 Y33.464
Z-10.84
G1 Z-11.42 F1440.
X-34.159 Y33.46 Z-11.511
X-34.141 Y33.449 Z-11.599
X-34.111 Y33.431 Z-11.683
X-34.07 Y33.407 Z-11.761
X-34.019 Y33.377 Z-11.83
X-33.96 Y33.342 Z-11.889
X-33.893 Y33.302 Z-11.937
X-33.821 Y33.259 Z-11.972
X-33.745 Y33.214 Z-11.993
X-33.667 Y33.168 Z-12.
G2 X-31.113 Y31.256 I-7.545 J-12.741
G1 X-31.037 Y31.181
X-30.879 Y30.824
X-30.712 Y30.359
X-30.537 Y29.737
X-30.361 Y28.883
X-30.244 Y28.02
X-30.165 Y27.153
X-30.112 Y26.283
X-30.076 Y25.413
X-30.051 Y24.542
X-30.035 Y23.671
X-30.023 Y22.8
X-30.015 Y21.929
X-30.011 Y21.158
X-30.036 Y20.879
X-30.115 Y20.609
X-30.245 Y20.36
X-31.439 Y18.52
X-31.523 Y18.389
X-31.528 Y18.383
G3 X-31.724 Y18.136 I1.312 J-1.247
G1 X-31.766 Y18.062
X-31.797 Y17.982
X-31.88 Y17.703
X-31.918 Y17.576
X-32.001 Y17.295
X-32.02 Y17.212
X-32.026 Y17.127
G3 X-31.997 Y16.812 I1.81 J0.009
G1 X-31.996 Y16.807
X-31.988 Y16.609
X-31.969 Y16.412
X-31.938 Y16.214
X-31.887 Y16.016
X-31.835 Y15.851
X-31.823 Y15.818
X-31.745 Y15.621
X-31.637 Y15.401
X-31.527 Y15.225
X-31.439 Y15.089
X-31.393 Y15.028
X-31.327 Y14.941
X-31.259 Y14.831
X-31.116 Y14.584
X-30.963 Y14.27
X-30.8 Y13.866
X-30.629 Y13.334
X-30.45 Y12.604
X-30.303 Y11.746
X-30.205 Y10.88
X-30.139 Y10.011
X-30.094 Y9.141
X-30.064 Y8.271
X-30.043 Y7.4
X-30.029 Y6.529
X-30.019 Y5.658
X-30.013 Y4.787
X-30.008 Y3.916
X-30.003 Y2.174
X-30. Y-0.44
X-29.999 Y-7.408
Y-13.155
X-30.028 Y-13.447
X-30.116 Y-13.727
X-30.258 Y-13.983
X-30.45 Y-14.206
X-30.682 Y-14.386
X-30.689 Y-14.389
G3 X-31.173 Y-14.651 I0.753 J-1.969
X-31.342 Y-14.844 I0.34 J-0.47
G1 X-31.972 Y-16.004
G3 X-32.041 Y-16.252 I0.51 J-0.277
X-31.997 Y-16.8 I2.106 J-0.107
G1 X-31.996 Y-16.807
X-31.99 Y-17.005
X-31.967 Y-17.203
X-31.932 Y-17.4
X-31.816 Y-17.796
X-31.736 Y-17.994
X-31.637 Y-18.194
X-31.523 Y-18.389
X-31.396 Y-18.587
X-31.268 Y-18.784
X-31.213 Y-18.879
X-31.067 Y-19.146
X-30.91 Y-19.486
X-30.745 Y-19.927
X-30.571 Y-20.514
X-30.39 Y-21.336
X-30.263 Y-22.198
X-30.178 Y-23.065
X-30.121 Y-23.934
X-30.082 Y-24.804
X-30.055 Y-25.675
X-30.037 Y-26.546
X-29.96 Y-26.974
X-29.826 Y-27.389
X-29.342 Y-28.113
X-28.655 Y-28.649
X-27.879 Y-29.044
X-27.056 Y-29.33
X-26.209 Y-29.533
X-25.35 Y-29.676
X-24.484 Y-29.776
X-23.616 Y-29.846
X-22.746 Y-29.894
X-21.876 Y-29.926
X-21.216 Y-29.944
X-20.952 Y-29.975
X-20.699 Y-30.054
X-20.464 Y-30.177
X-18.52 Y-31.439
X-18.389 Y-31.523
X-18.383 Y-31.528
G3 X-18.136 Y-31.724 I1.247 J1.312
G1 X-18.062 Y-31.766
X-17.982 Y-31.797
X-17.703 Y-31.88
X-17.576 Y-31.918
X-17.295 Y-32.001
X-17.212 Y-32.02
X-17.127 Y-32.026
G3 X-16.812 Y-31.997 I-0.009 J1.81
G1 X-16.807 Y-31.996
X-16.609 Y-31.988
X-16.412 Y-31.969
X-16.214 Y-31.938
X-16.016 Y-31.887
X-15.851 Y-31.835
X-15.818 Y-31.823
X-15.621 Y-31.745
X-15.401 Y-31.637
X-15.225 Y-31.527
X-15.089 Y-31.439
X-15.028 Y-31.393
X-14.941 Y-31.327
X-14.831 Y-31.259
X-14.584 Y-31.116
X-14.27 Y-30.963
X-13.866 Y-30.8
X-13.334 Y-30.629
X-12.604 Y-30.45
X-11.746 Y-30.303
X-10.88 Y-30.205
X-10.011 Y-30.139
X-9.141 Y-30.094
X-8.271 Y-30.064
X-7.4 Y-30.043
X-6.529 Y-30.029
X-5.658 Y-30.019
X-4.787 Y-30.013
X-3.916 Y-30.008
X-2.174 Y-30.003
X0.44 Y-30.
X7.408 Y-29.999
X13.155
X13.447 Y-30.028
X13.727 Y-30.116
X13.983 Y-30.258
X14.206 Y-30.45
X14.386 Y-30.682
X14.389 Y-30.689
G3 X14.651 Y-31.173 I1.969 J0.753
X14.844 Y-31.342 I0.47 J0.34
G1 X16.004 Y-31.972
G3 X16.252 Y-32.041 I0.277 J0.51
X16.8 Y-31.997 I0.107 J2.106
G1 X16.807 Y-31.996
X17.005 Y-31.99
X17.203 Y-31.967
X17.4 Y-31.932
X17.796 Y-31.816
X17.994 Y-31.736
X18.194 Y-31.637
X18.389 Y-31.523
X18.587 Y-31.396
X18.784 Y-31.268
X18.879 Y-31.213
X19.146 Y-31.067
X19.486 Y-30.91
X19.927 Y-30.745
X20.514 Y-30.571
X21.336 Y-30.39
X22.198 Y-30.263
X23.065 Y-30.178
X23.934 Y-30.121
X24.804 Y-30.082
X25.675 Y-30.055
X26.546 Y-30.037
X26.974 Y-29.96
X27.389 Y-29.826
X28.113 Y-29.342
X28.649 Y-28.655
X29.044 Y-27.879
X29.33 Y-27.056
X29.533 Y-26.209
X29.676 Y-25.35
X29.776 Y-24.484
X29.846 Y-23.616
X29.894 Y-22.746
X29.926 Y-21.876
X29.944 Y-21.216
X29.975 Y-20.952
X30.054 Y-20.699
X30.177 Y-20.464
X31.439 Y-18.52
X31.523 Y-18.389
X31.528 Y-18.383
G3 X31.724 Y-18.136 I-1.312 J1.247
G1 X31.766 Y-18.062
X31.797 Y-17.982
X31.88 Y-17.703
X31.918 Y-17.576
X32.001 Y-17.295
X32.02 Y-17.212
X32.026 Y-17.127
G3 X31.997 Y-16.812 I-1.81 J-0.009
G1 X31.996 Y-16.807
X31.988 Y-16.609
X31.969 Y-16.412
X31.938 Y-16.214
X31.887 Y-16.016
X31.835 Y-15.851
X31.823 Y-15.818
X31.745 Y-15.621
X31.637 Y-15.401
X31.527 Y-15.225
X31.439 Y-15.089
X31.393 Y-15.028
X31.327 Y-14.941
X31.259 Y-14.831
X31.116 Y-14.584
X30.963 Y-14.27
X30.8 Y-13.866
X30.629 Y-13.334
X30.45 Y-12.604
X30.303 Y-11.746
X30.205 Y-10.88
X30.139 Y-10.011
X30.094 Y-9.141
X30.064 Y-8.271
X30.043 Y-7.4
X30.029 Y-6.529
X30.019 Y-5.658
X30.013 Y-4.787
X30.008 Y-3.916
X30.003 Y-2.174
X30. Y0.44
X29.999 Y7.408
Y13.155
X30.028 Y13.447
X30.116 Y13.727
X30.258 Y13.983
X30.45 Y14.206
X30.682 Y14.386
X30.689 Y14.389
G3 X31.173 Y14.651 I-0.753 J1.969
X31.342 Y14.844 I-0.34 J0.47
G1 X31.972 Y16.004
G3 X32.041 Y16.252 I-0.51 J0.277
X31.997 Y16.8 I-2.106 J0.107
G1 X31.996 Y16.807
X31.99 Y17.005
X31.967 Y17.203
X31.932 Y17.4
X31.816 Y17.796
X31.736 Y17.994
X31.637 Y18.194
X31.523 Y18.389
X31.396 Y18.587
X31.268 Y18.784
X31.213 Y18.879
X31.067 Y19.146
X30.91 Y19.486
X30.745 Y19.927
X30.571 Y20.514
X30.39 Y21.336
X30.263 Y22.198
X30.178 Y23.065
X30.121 Y23.934
X30.082 Y24.804
X30.055 Y25.675
X30.037 Y26.546
X29.96 Y26.974
X29.826 Y27.389
X29.342 Y28.113
X28.655 Y28.649
X27.879 Y29.044
X27.056 Y29.33
X26.209 Y29.533
X25.35 Y29.676
X24.484 Y29.776
X23.616 Y29.846
X22.746 Y29.894
X21.876 Y29.926
X21.216 Y29.944
X20.952 Y29.975
X20.699 Y30.054
X20.464 Y30.177
X18.52 Y31.439
X18.389 Y31.523
X18.383 Y31.528
G3 X18.136 Y31.724 I-1.247 J-1.312
G1 X18.062 Y31.766
X17.982 Y31.797
X17.703 Y31.88
X17.576 Y31.918
X17.295 Y32.001
X17.212 Y32.02
X17.127 Y32.026
G3 X16.812 Y31.997 I0.009 J-1.81
G1 X16.807 Y31.996
X16.609 Y31.988
X16.412 Y31.969
X16.214 Y31.938
X16.016 Y31.887
X15.851 Y31.835
X15.818 Y31.823
X15.621 Y31.745
X15.401 Y31.637
X15.225 Y31.527
X15.089 Y31.439
X15.028 Y31.393
X14.941 Y31.327
X14.831 Y31.259
X14.584 Y31.116
X14.27 Y30.963
X13.866 Y30.8
X13.334 Y30.629
X12.604 Y30.45
X11.746 Y30.303
X10.88 Y30.205
X10.011 Y30.139
X9.141 Y30.094
X8.271 Y30.064
X7.4 Y30.043
X6.529 Y30.029
X5.658 Y30.019
X4.787 Y30.013
X3.916 Y30.008
X2.174 Y30.003
X-0.44 Y30.
X-7.408 Y29.999
X-13.155
X-13.447 Y30.028
X-13.727 Y30.116
X-13.983 Y30.258
X-14.206 Y30.45
X-14.386 Y30.682
X-14.389 Y30.689
G3 X-14.651 Y31.173 I-1.969 J-0.753
X-14.844 Y31.342 I-0.47 J-0.34
G1 X-16.004 Y31.972
G3 X-16.252 Y32.041 I-0.277 J-0.51
X-16.8 Y31.997 I-0.107 J-2.106
G1 X-16.807 Y31.996
X-17.005 Y31.99
X-17.203 Y31.967
X-17.4 Y31.932
X-17.796 Y31.816
X-17.994 Y31.736
X-18.194 Y31.637
X-18.389 Y31.523
X-18.587 Y31.396
X-18.784 Y31.268
X-18.879 Y31.213
X-19.146 Y31.067
X-19.486 Y30.91
X-19.927 Y30.745
X-20.514 Y30.571
X-21.336 Y30.39
X-22.198 Y30.263
X-23.065 Y30.178
X-23.934 Y30.121
X-24.804 Y30.082
X-25.669 Y29.975
X-26.082 Y29.838
X-26.293 Y29.784
X-26.494 Y29.699
X-26.679 Y29.585
X-26.845 Y29.444
X-27.132 Y29.116
X-27.53 Y28.341
X-27.756 Y27.5
X-27.881 Y26.638
X-27.947 Y25.769
X-27.981 Y24.899
X-27.998 Y24.028
X-27.999 Y23.852
X-28.038 Y23.53
X-28.147 Y23.225
X-28.322 Y22.951
X-29.294 Y21.75
X-29.449 Y21.553
X-29.721 Y21.157
X-29.857 Y20.956
X-30.245 Y20.36
X-30.255 Y20.349
X-30.269 Y20.342
G3 X-31.437 Y19.626 I1.031 J-2.994
X-31.602 Y19.329 I0.403 J-0.417
G1 X-32.203 Y16.497
G3 X-32.173 Y16.159 I0.567 J-0.12
X-31.396 Y15.03 I2.935 J1.188
G1 X-31.393 Y15.028
X-31.223 Y14.83
X-31.044 Y14.657
X-30.932 Y14.554
X-30.846 Y14.488
X-30.451 Y14.242
X-30.349 Y14.171
X-30.221 Y14.073
X-30.079 Y13.947
X-29.919 Y13.783
X-29.757 Y13.593
X-29.586 Y13.359
X-29.401 Y13.065
X-29.216 Y12.717
X-29.019 Y12.276
X-28.817 Y11.718
X-28.613 Y10.996
X-28.435 Y10.143
X-28.309 Y9.281
X-28.219 Y8.415
X-28.156 Y7.546
X-28.11 Y6.676
X-28.078 Y5.806
X-28.055 Y4.935
X-28.038 Y4.064
X-28.027 Y3.193
X-28.018 Y2.322
X-28.013 Y1.451
X-28.008 Y0.58
X-28.003 Y-1.162
X-28. Y-3.776
X-27.999 Y-9.873
Y-10.745
X-28.005 Y-11.616
X-28.038 Y-12.1
X-28.085 Y-12.379
X-28.186 Y-12.644
X-28.336 Y-12.884
X-28.53 Y-13.091
X-28.76 Y-13.256
X-30.116 Y-14.039
X-30.253 Y-14.119
X-30.682 Y-14.386
G2 X-31.551 Y-13.874 I-0.289 J0.503
G1 X-31.126 Y14.531
X-31.132 Y14.565
X-31.152 Y14.592
X-31.182 Y14.609
X-31.216 Y14.612
X-31.248 Y14.6
X-31.272 Y14.577
X-31.285 Y14.545
X-31.283 Y14.511
X-31.267 Y14.481
X-31.24 Y14.46
X-31.207 Y14.452
G2 X-30.451 Y14.242 I-0.033 J-1.582
G1 X-30.253 Y14.119
X-29.264 Y13.547
X-28.869 Y13.319
X-28.754 Y13.245
X-28.599 Y13.133
X-28.421 Y12.986
X-28.249 Y12.822
X-28.061 Y12.614
X-27.856 Y12.353
X-27.657 Y12.059
X-27.439 Y11.681
X-27.226 Y11.242
X-27.003 Y10.683
X-26.775 Y9.973
X-26.57 Y9.126
X-26.557 Y9.052
X-26.535 Y8.802
X-26.556 Y8.551
X-26.621 Y8.308
G2 X-27.685 Y8.28 I-0.538 J0.216
G1 X-29.667 Y12.563
G2 X-28.869 Y13.319 I0.526 J0.244
G1 X-27.089 Y12.291
X-26.959 Y12.207
X-26.793 Y12.093
X-26.609 Y11.944
X-26.429 Y11.778
X-26.228 Y11.562
X-26.199 Y11.526
X-26.036 Y11.276
X-25.928 Y10.998
X-25.878 Y10.704
X-25.89 Y10.407
X-25.963 Y10.118
G2 X-26.999 Y10.038 I-0.538 J0.217
G1 X-27.86 Y11.482
G2 X-27.089 Y12.291 I0.498 J0.297
G1 X-26.006 Y11.666
X-25.903 Y11.605
X-25.829 Y11.549
X-25.789 Y11.509
X-25.755 Y11.468
X-25.705 Y11.389
X-25.678 Y11.33
X-25.658 Y11.271
X-25.64 Y11.172
Y11.073
X-25.656 Y10.974
X-25.687 Y10.875
X-26.55 Y8.502
X-26.694 Y8.106
X-26.748 Y7.909
X-26.847 Y7.514
X-26.895 Y7.316
X-27.317 Y5.536
X-27.363 Y5.339
X-27.452 Y4.943
X-27.485 Y4.778
X-27.562 Y4.152
X-27.77 Y2.373
X-27.793 Y2.175
X-27.835 Y1.78
X-27.853 Y1.582
X-27.858 Y0.989
Y-0.989
X-27.853 Y-1.582
X-27.835 Y-1.78
X-27.793 Y-2.175
X-27.678 Y-3.164
X-27.562 Y-4.152
X-27.485 Y-4.778
X-27.452 Y-4.943
X-27.363 Y-5.339
X-27.27 Y-5.734
X-26.891 Y-7.333
X-26.847 Y-7.514
X-26.748 Y-7.909
X-26.694 Y-8.106
X-26.577 Y-8.526
X-26.411 Y-9.273
X-26.303 Y-9.999
X-26.259 Y-10.574
X-26.257 Y-11.021
X-26.26 Y-11.069
X-26.306 Y-11.349
X-26.406 Y-11.615
X-26.557 Y-11.856
X-26.751 Y-12.064
X-26.982 Y-12.229
G2 X-27.834 Y-11.713 I-0.272 J0.512
G1 X-27.812 Y-8.318
G2 X-26.694 Y-8.106 I0.58 J-0.004
G1 X-26.407 Y-8.898
X-25.687 Y-10.875
X-25.656 Y-10.974
X-25.64 Y-11.073
Y-11.172
X-25.658 Y-11.271
X-25.678 Y-11.33
X-25.705 Y-11.389
X-25.755 Y-11.468
X-25.789 Y-11.509
X-25.829 Y-11.549
X-25.903 Y-11.605
X-26.101 Y-11.721
X-28.76 Y-13.256
G2 X-29.474 Y-13.12 I-0.272 J0.512
G1 X-29.533 Y-13.051 Z-11.993
X-29.59 Y-12.983 Z-11.972
X-29.645 Y-12.919 Z-11.937
X-29.695 Y-12.86 Z-11.889
X-29.74 Y-12.808 Z-11.83
X-29.778 Y-12.763 Z-11.761
X-29.809 Y-12.726 Z-11.683
X-29.832 Y-12.7 Z-11.599
X-29.845 Y-12.684 Z-11.511
X-29.85 Y-12.678 Z-11.42
G0 Z5.
X-32.384 Y-18.016
Z-10.84
G1 Z-11.42 F1440.
X-32.377 Y-18.02 Z-11.511
X-32.358 Y-18.029 Z-11.599
X-32.327 Y-18.044 Z-11.683
X-32.284 Y-18.065 Z-11.761
X-32.231 Y-18.092 Z-11.83
X-32.169 Y-18.122 Z-11.889
X-32.1 Y-18.156 Z-11.937
X-32.024 Y-18.194 Z-11.972
X-31.945 Y-18.233 Z-11.993
X-31.864 Y-18.273 Z-12.
G2 X-31.268 Y-18.784 I-0.7 J-1.419
G1 X-29.855 Y-20.96
X-29.721 Y-21.157
X-29.462 Y-21.533
X-29.364 Y-21.691
X-29.197 Y-21.99
X-29.019 Y-22.37
X-28.835 Y-22.847
X-28.643 Y-23.474
X-28.448 Y-24.323
X-28.276 Y-25.177
X-27.857 Y-25.94
X-27.221 Y-26.536
X-26.468 Y-26.974
X-25.656 Y-27.288
X-24.813 Y-27.509
X-24.081 Y-27.639
X-23.846 Y-27.702
X-23.624 Y-27.803
X-23.423 Y-27.94
G2 X-23.294 Y-28.655 I-0.381 J-0.438
G1 X-23.338 Y-28.735 Z-11.993
X-23.38 Y-28.812 Z-11.972
X-23.42 Y-28.886 Z-11.937
X-23.457 Y-28.954 Z-11.889
X-23.491 Y-29.015 Z-11.83
X-23.519 Y-29.067 Z-11.761
X-23.542 Y-29.109 Z-11.683
X-23.558 Y-29.139 Z-11.599
X-23.568 Y-29.158 Z-11.511
X-23.572 Y-29.164 Z-11.42
G0 Z5.
X-30.599 Y-20.796
Z-10.84
G1 Z-11.42 F1440.
X-30.592 Y-20.799 Z-11.511
X-30.573 Y-20.808 Z-11.599
X-30.541 Y-20.823 Z-11.683
X-30.498 Y-20.843 Z-11.761
X-30.445 Y-20.867 Z-11.83
X-30.382 Y-20.896 Z-11.889
X-30.311 Y-20.929 Z-11.937
X-30.235 Y-20.964 Z-11.972
X-30.154 Y-21.001 Z-11.993
X-30.072 Y-21.039 Z-12.
G2 X-29.462 Y-21.533 I-0.661 J-1.438
G1 X-29.449 Y-21.553
X-29.294 Y-21.75
X-27.287 Y-24.229
X-27.204 Y-24.321
X-26.837 Y-24.716
X-24.716 Y-26.837
X-24.321 Y-27.204
X-24.229 Y-27.287
X-21.75 Y-29.294
X-21.553 Y-29.449
X-21.157 Y-29.721
X-20.956 Y-29.857
X-20.464 Y-30.177
X-20.453 Y-30.188
X-20.446 Y-30.201
G3 X-19.711 Y-31.401 I3.073 J1.058
X-19.418 Y-31.564 I0.417 J0.403
G1 X-16.535 Y-32.2
G3 X-16.201 Y-32.174 I0.125 J0.566
X-15.03 Y-31.395 I-1.172 J3.031
G1 X-15.028 Y-31.393
X-14.83 Y-31.223
X-14.657 Y-31.044
X-14.554 Y-30.932
X-14.488 Y-30.846
X-14.242 Y-30.451
X-14.171 Y-30.349
X-14.073 Y-30.221
X-13.947 Y-30.079
X-13.783 Y-29.919
X-13.593 Y-29.757
X-13.359 Y-29.586
X-13.065 Y-29.401
X-12.717 Y-29.216
X-12.276 Y-29.019
X-11.718 Y-28.817
X-10.996 Y-28.613
X-10.143 Y-28.435
X-9.281 Y-28.309
X-8.415 Y-28.219
X-7.546 Y-28.156
X-6.676 Y-28.11
X-5.806 Y-28.078
X-4.935 Y-28.055
X-4.064 Y-28.038
X-3.193 Y-28.027
X-2.322 Y-28.018
X-1.451 Y-28.013
X-0.58 Y-28.008
X1.162 Y-28.003
X3.776 Y-28.
X9.873 Y-27.999
X10.745
X11.616 Y-28.005
X12.1 Y-28.038
X12.379 Y-28.085
X12.644 Y-28.186
X12.884 Y-28.336
X13.091 Y-28.53
X13.256 Y-28.76
X14.039 Y-30.116
X14.119 Y-30.253
X14.386 Y-30.682
G2 X13.874 Y-31.551 I-0.503 J-0.289
G1 X-14.531 Y-31.126
X-14.565 Y-31.132
X-14.592 Y-31.152
X-14.609 Y-31.182
X-14.612 Y-31.216
X-14.6 Y-31.248
X-14.577 Y-31.272
X-14.545 Y-31.285
X-14.511 Y-31.283
X-14.481 Y-31.267
X-14.46 Y-31.24
X-14.452 Y-31.207
G2 X-14.242 Y-30.451 I1.582 J-0.033
G1 X-14.119 Y-30.253
X-13.547 Y-29.264
X-13.319 Y-28.869
X-13.245 Y-28.754
X-13.133 Y-28.599
X-12.986 Y-28.421
X-12.822 Y-28.249
X-12.614 Y-28.061
X-12.353 Y-27.856
X-12.059 Y-27.657
X-11.681 Y-27.439
X-11.242 Y-27.226
X-10.683 Y-27.003
X-9.973 Y-26.775
X-9.126 Y-26.57
X-9.052 Y-26.557
X-8.802 Y-26.535
X-8.551 Y-26.556
X-8.308 Y-26.621
G2 X-8.28 Y-27.685 I-0.216 J-0.538
G1 X-12.563 Y-29.667
G2 X-13.319 Y-28.869 I-0.244 J0.526
G1 X-12.291 Y-27.089
X-12.207 Y-26.959
X-12.093 Y-26.793
X-11.944 Y-26.609
X-11.778 Y-26.429
X-11.562 Y-26.228
X-11.526 Y-26.199
X-11.276 Y-26.036
X-10.998 Y-25.928
X-10.704 Y-25.878
X-10.407 Y-25.89
X-10.118 Y-25.963
G2 X-10.038 Y-26.999 I-0.217 J-0.538
G1 X-11.482 Y-27.86
G2 X-12.291 Y-27.089 I-0.297 J0.498
G1 X-11.666 Y-26.006
X-11.605 Y-25.903
X-11.549 Y-25.829
X-11.509 Y-25.789
X-11.468 Y-25.755
X-11.389 Y-25.705
X-11.33 Y-25.678
X-11.271 Y-25.658
X-11.172 Y-25.64
X-11.073
X-10.974 Y-25.656
X-10.875 Y-25.687
X-8.502 Y-26.55
X-8.106 Y-26.694
X-7.909 Y-26.748
X-7.514 Y-26.847
X-7.316 Y-26.895
X-5.536 Y-27.317
X-5.339 Y-27.363
X-4.943 Y-27.452
X-4.778 Y-27.485
X-4.152 Y-27.562
X-2.373 Y-27.77
X-2.175 Y-27.793
X-1.78 Y-27.835
X-1.582 Y-27.853
X-0.989 Y-27.858
X0.989
X1.582 Y-27.853
X1.78 Y-27.835
X2.175 Y-27.793
X3.164 Y-27.678
X4.152 Y-27.562
X4.778 Y-27.485
X4.943 Y-27.452
X5.339 Y-27.363
X5.734 Y-27.27
X7.333 Y-26.891
X7.514 Y-26.847
X7.909 Y-26.748
X8.106 Y-26.694
X8.526 Y-26.577
X9.273 Y-26.411
X9.999 Y-26.303
X10.574 Y-26.259
X11.021 Y-26.257
X11.069 Y-26.26
X11.349 Y-26.306
X11.615 Y-26.406
X11.856 Y-26.557
X12.064 Y-26.751
X12.229 Y-26.982
G2 X11.713 Y-27.834 I-0.512 J-0.272
G1 X8.318 Y-27.812
G2 X8.106 Y-26.694 I0.004 J0.58
G1 X8.898 Y-26.407
X10.875 Y-25.687
X10.974 Y-25.656
X11.073 Y-25.64
X11.172
X11.271 Y-25.658
X11.33 Y-25.678
X11.389 Y-25.705
X11.468 Y-25.755
X11.509 Y-25.789
X11.549 Y-25.829
X11.605 Y-25.903
X11.721 Y-26.101
X13.256 Y-28.76
G2 X13.12 Y-29.474 I-0.512 J-0.272
G1 X13.051 Y-29.533 Z-11.993
X12.983 Y-29.59 Z-11.972
X12.919 Y-29.645 Z-11.937
X12.86 Y-29.695 Z-11.889
X12.808 Y-29.74 Z-11.83
X12.763 Y-29.778 Z-11.761
X12.726 Y-29.809 Z-11.683
X12.7 Y-29.832 Z-11.599
X12.684 Y-29.845 Z-11.511
X12.678 Y-29.85 Z-11.42
G0 Z5.
X18.016 Y-32.384
Z-10.84
G1 Z-11.42 F1440.
X18.02 Y-32.377 Z-11.511
X18.029 Y-32.358 Z-11.599
X18.044 Y-32.327 Z-11.683
X18.065 Y-32.284 Z-11.761
X18.092 Y-32.231 Z-11.83
X18.122 Y-32.169 Z-11.889
X18.156 Y-32.1 Z-11.937
X18.194 Y-32.024 Z-11.972
X18.233 Y-31.945 Z-11.993
X18.273 Y-31.864 Z-12.
G2 X18.784 Y-31.268 I1.419 J-0.7
G1 X20.96 Y-29.855
X21.157 Y-29.721
X21.533 Y-29.462
X21.691 Y-29.364
X21.99 Y-29.197
X22.37 Y-29.019
X22.847 Y-28.835
X23.474 Y-28.643
X24.323 Y-28.448
X25.177 Y-28.276
X25.94 Y-27.857
X26.536 Y-27.221
X26.974 Y-26.468
