(1001)
(T1  D=5.8 CR=2.9 - ZMIN=-12. - BALL END MILL)
G90 G94 G91.1 G40 G49 G17
G21

(2D ADAPTIVE3)
M5
T1 M6
S10000 M3
G54
M8
G0 X-42.098 Y48.174
G43 Z15. H1
Z5.
Z-2.84
G1 Z-3.42 F1440.
X-42.096 Y48.167 Z-3.511
X-42.091 Y48.146 Z-3.599
X-42.082 Y48.112 Z-3.683
X-42.071 Y48.066 Z-3.761
X-42.056 Y48.009 Z-3.83
X-42.039 Y47.942 Z-3.889
X-42.019 Y47.867 Z-3.937
X-41.999 Y47.785 Z-3.972
X-41.977 Y47.7 Z-3.993
X-41.954 Y47.612 Z-4.
G2 X-41.5 Y44.454 I-14.344 J-3.674
G1 Y44.36
X-41.77 Y43.532
X-41.962 Y42.682
X-42.097 Y41.821
X-42.191 Y40.955
X-42.256 Y40.087
X-42.301 Y39.217
X-42.332 Y38.346
X-42.354 Y37.475
X-42.368 Y36.604
X-42.378 Y35.733
X-42.385 Y34.862
X-42.39 Y33.991
X-42.393 Y33.12
X-42.397 Y31.378
X-42.399 Y27.894
X-42.4 Y1.76
Y-6.079
Y-39.181
X-42.259 Y-39.594
X-42.077 Y-39.989
X-41.511 Y-40.651
X-40.798 Y-41.152
X-40.009 Y-41.52
X-39.179 Y-41.785
X-38.328 Y-41.972
X-37.467 Y-42.104
X-36.601 Y-42.196
X-35.732 Y-42.26
X-34.862 Y-42.304
X-33.992 Y-42.334
X-33.121 Y-42.355
X-32.25 Y-42.369
X-31.379 Y-42.379
X-30.508 Y-42.385
X-29.637 Y-42.39
X-27.894 Y-42.395
X-26.152 Y-42.398
X-21.797 Y-42.4
X24.372
X39.181
X39.593 Y-42.26
X39.989 Y-42.078
X40.651 Y-41.512
X41.152 Y-40.799
X41.52 Y-40.01
X41.784 Y-39.18
X41.972 Y-38.329
X42.104 Y-37.468
X42.196 Y-36.602
X42.26 Y-35.733
X42.304 Y-34.863
X42.334 Y-33.992
X42.355 Y-33.122
X42.369 Y-32.251
X42.379 Y-31.379
X42.385 Y-30.508
X42.39 Y-29.637
X42.395 Y-27.895
X42.399 Y-25.282
X42.4 Y-18.313
Y-7.86
Y39.18
X42.26 Y39.592
X42.078 Y39.988
X41.512 Y40.65
X40.8 Y41.152
X40.01 Y41.519
X39.18 Y41.784
X38.33 Y41.972
X37.469 Y42.104
X36.602 Y42.196
X35.734 Y42.26
X34.864 Y42.304
X33.993 Y42.334
X33.122 Y42.355
X32.251 Y42.369
X31.38 Y42.379
X30.509 Y42.385
X29.638 Y42.39
X27.896 Y42.395
X25.283 Y42.399
X18.314 Y42.4
X-10.433
X-36.566
X-37.434 Y42.328
X-38.267 Y42.075
X-38.634 Y41.84
X-39.251 Y41.225
X-39.659 Y40.455
X-39.923 Y39.625
X-40.093 Y38.771
X-40.202 Y37.906
X-40.272 Y37.038
X-40.317 Y36.168
X-40.346 Y35.298
X-40.365 Y34.427
X-40.377 Y33.556
X-40.385 Y32.685
X-40.39 Y31.814
X-40.393 Y30.942
X-40.397 Y29.2
X-40.399 Y25.716
X-40.4 Y20.489
Y-30.035
Y-37.004
X-40.329 Y-37.433
X-40.171 Y-37.839
X-39.706 Y-38.576
X-39.034 Y-39.13
X-38.257 Y-39.524
X-37.43 Y-39.799
X-36.58 Y-39.989
X-35.719 Y-40.119
X-34.852 Y-40.208
X-33.983 Y-40.269
X-33.113 Y-40.311
X-32.243 Y-40.339
X-31.372 Y-40.359
X-30.501 Y-40.372
X-29.63 Y-40.381
X-28.759 Y-40.387
X-27.888 Y-40.391
X-26.145 Y-40.396
X-23.532 Y-40.399
X-15.692 Y-40.4
X1.73
X37.01
X37.439 Y-40.328
X37.844 Y-40.168
X38.58 Y-39.702
X39.133 Y-39.029
X39.526 Y-38.251
X39.8 Y-37.424
X39.99 Y-36.574
X40.12 Y-35.713
X40.209 Y-34.846
X40.27 Y-33.977
X40.311 Y-33.107
X40.339 Y-32.237
X40.359 Y-31.366
X40.372 Y-30.495
X40.381 Y-29.624
X40.387 Y-28.753
X40.391 Y-27.881
X40.394 Y-27.01
X40.397 Y-25.268
X40.399 Y-21.784
X40.4 Y23.514
Y37.016
X40.327 Y37.445
X40.166 Y37.85
X39.698 Y38.584
X39.023 Y39.136
X38.246 Y39.528
X37.419 Y39.802
X36.568 Y39.991
X35.707 Y40.121
X34.84 Y40.209
X33.971 Y40.27
X33.101 Y40.311
X32.231 Y40.34
X31.36 Y40.359
X30.489 Y40.372
X29.618 Y40.381
X28.747 Y40.387
X27.875 Y40.391
X26.133 Y40.396
X23.52 Y40.399
X15.68 Y40.4
X5.227
X-34.844
X-35.715 Y40.381
X-36.121 Y40.223
X-36.846 Y39.741
X-37.365 Y39.041
X-37.718 Y38.245
X-37.954 Y37.406
X-38.109 Y36.549
X-38.21 Y35.684
X-38.277 Y34.815
X-38.32 Y33.945
X-38.348 Y33.075
X-38.366 Y32.204
X-38.378 Y31.333
X-38.385 Y30.462
X-38.39 Y29.591
X-38.394 Y28.72
X-38.397 Y26.977
X-38.399 Y23.493
X-38.4 Y-18.32
Y-34.871
X-38.374 Y-35.306
X-38.264 Y-35.727
X-38.068 Y-36.116
X-37.539 Y-36.808
X-36.827 Y-37.31
X-36.029 Y-37.66
X-35.192 Y-37.9
X-34.336 Y-38.063
X-33.472 Y-38.173
X-32.604 Y-38.247
X-31.734 Y-38.297
X-30.864 Y-38.33
X-29.993 Y-38.353
X-29.122 Y-38.368
X-28.251 Y-38.378
X-27.38 Y-38.385
X-26.509 Y-38.39
X-25.638 Y-38.393
X-23.896 Y-38.397
X-20.411 Y-38.399
X-6.474 Y-38.4
X35.339
X35.758 Y-38.279
X36.143 Y-38.075
X36.826 Y-37.535
X37.322 Y-36.819
X37.668 Y-36.02
X37.906 Y-35.182
X38.067 Y-34.326
X38.175 Y-33.461
X38.248 Y-32.593
X38.298 Y-31.723
X38.331 Y-30.853
X38.353 Y-29.982
X38.368 Y-29.111
X38.379 Y-28.24
X38.386 Y-27.369
X38.39 Y-26.498
X38.393 Y-25.627
X38.397 Y-23.885
X38.399 Y-20.4
X38.4 Y13.573
Y19.67
Y35.35
X38.277 Y35.768
X38.07 Y36.152
X37.528 Y36.833
X36.81 Y37.327
X36.01 Y37.672
X35.172 Y37.908
X34.316 Y38.068
X33.451 Y38.176
X32.583 Y38.249
X31.713 Y38.298
X30.843 Y38.331
X29.972 Y38.353
X29.101 Y38.369
X28.23 Y38.379
X27.359 Y38.386
X26.488 Y38.39
X25.617 Y38.393
X23.875 Y38.397
X20.39 Y38.399
X4.71 Y38.4
X-32.747
X-33.618 Y38.399
X-34.031 Y38.262
X-34.403 Y38.035
X-35.05 Y37.452
X-35.504 Y36.708
X-35.809 Y35.892
X-36.013 Y35.045
X-36.146 Y34.184
X-36.234 Y33.317
X-36.292 Y32.448
X-36.329 Y31.578
X-36.354 Y30.707
X-36.37 Y29.836
X-36.38 Y28.965
X-36.387 Y28.094
X-36.392 Y27.223
X-36.395 Y26.352
X-36.398 Y24.61
X-36.4 Y21.125
Y-23.301
Y-32.883
X-36.381 Y-33.318
X-36.282 Y-33.742
X-36.092 Y-34.134
X-35.57 Y-34.832
X-34.858 Y-35.334
X-34.06 Y-35.682
X-33.221 Y-35.918
X-32.365 Y-36.077
X-31.5 Y-36.184
X-30.632 Y-36.256
X-29.762 Y-36.304
X-28.892 Y-36.335
X-28.021 Y-36.357
X-27.15 Y-36.371
X-26.279 Y-36.38
X-25.408 Y-36.387
X-24.537 Y-36.391
X-22.795 Y-36.396
X-20.181 Y-36.399
X-11.47 Y-36.4
X2.467
X32.956
X33.391 Y-36.374
X33.811 Y-36.259
X34.196 Y-36.056
X34.878 Y-35.514
X35.367 Y-34.793
X35.705 Y-33.99
X35.934 Y-33.15
X36.088 Y-32.293
X36.192 Y-31.428
X36.261 Y-30.559
X36.307 Y-29.689
X36.338 Y-28.819
X36.358 Y-27.948
X36.372 Y-27.077
X36.381 Y-26.206
X36.387 Y-25.335
X36.391 Y-24.464
X36.396 Y-22.722
X36.399 Y-20.108
Y-18.366
X36.4 Y32.158
Y33.029
X36.364 Y33.463
X36.232 Y33.878
X36.016 Y34.256
X35.455 Y34.923
X34.725 Y35.399
X33.918 Y35.727
X33.076 Y35.949
X32.218 Y36.099
X31.353 Y36.199
X30.484 Y36.265
X29.614 Y36.31
X28.743 Y36.34
X27.873 Y36.36
X27.002 Y36.373
X26.131 Y36.382
X25.259 Y36.388
X24.388 Y36.392
X22.646 Y36.396
X20.033 Y36.399
X10.451 Y36.4
X-11.327
X-31.362
X-31.79 Y36.32
X-32.187 Y36.141
X-32.89 Y35.626
X-33.39 Y34.912
X-33.73 Y34.111
X-33.959 Y33.27
X-34.11 Y32.412
X-34.21 Y31.547
X-34.276 Y30.678
X-34.319 Y29.808
X-34.347 Y28.937
X-34.365 Y28.067
X-34.377 Y27.196
X-34.385 Y26.325
X-34.39 Y25.453
X-34.394 Y24.582
X-34.397 Y22.84
X-34.399 Y19.356
X-34.4 Y7.16
Y-31.168
X-34.342 Y-31.6
X-34.187 Y-32.007
X-33.716 Y-32.74
X-33.027 Y-33.273
X-32.238 Y-33.643
X-31.404 Y-33.894
X-30.55 Y-34.063
X-29.686 Y-34.175
X-28.818 Y-34.251
X-27.948 Y-34.301
X-27.078 Y-34.334
X-26.207 Y-34.356
X-25.336 Y-34.371
X-24.465 Y-34.38
X-23.594 Y-34.387
X-22.723 Y-34.391
X-20.981 Y-34.396
X-18.367 Y-34.399
X-9.656 Y-34.4
X26.93
X31.285
X31.713 Y-34.316
X32.11 Y-34.137
X32.819 Y-33.631
X33.329 Y-32.925
X33.681 Y-32.128
X33.92 Y-31.29
X34.08 Y-30.434
X34.187 Y-29.569
X34.258 Y-28.701
X34.306 Y-27.831
X34.337 Y-26.961
X34.358 Y-26.09
X34.372 Y-25.219
X34.381 Y-24.348
X34.388 Y-23.477
X34.392 Y-22.606
X34.396 Y-20.864
X34.399 Y-18.25
X34.4 Y-8.668
Y10.496
Y31.403
X34.287 Y31.823
X34.084 Y32.209
X33.544 Y32.892
X32.823 Y33.38
X32.019 Y33.716
X31.178 Y33.943
X30.32 Y34.096
X29.455 Y34.198
X28.587 Y34.266
X27.717 Y34.311
X26.846 Y34.341
X25.975 Y34.36
X25.104 Y34.374
X24.233 Y34.382
X23.362 Y34.388
X22.491 Y34.392
X20.749 Y34.396
X18.136 Y34.399
X7.682 Y34.4
X5.94
X-29.34
X-29.769 Y34.324
X-30.166 Y34.146
X-30.872 Y33.636
X-31.375 Y32.925
X-31.72 Y32.125
X-31.951 Y31.285
X-32.105 Y30.428
X-32.206 Y29.562
X-32.273 Y28.694
X-32.317 Y27.824
X-32.346 Y26.953
X-32.364 Y26.082
X-32.377 Y25.211
X-32.385 Y24.34
X-32.39 Y23.469
X-32.393 Y22.598
X-32.397 Y20.856
X-32.399 Y17.371
X-32.4 Y-29.233
X-32.338 Y-29.664
X-32.174 Y-30.067
X-31.688 Y-30.79
X-30.99 Y-31.311
X-30.196 Y-31.671
X-29.36 Y-31.915
X-28.504 Y-32.078
X-27.64 Y-32.187
X-26.772 Y-32.259
X-25.902 Y-32.306
X-25.032 Y-32.338
X-24.161 Y-32.359
X-23.29 Y-32.373
X-22.419 Y-32.382
X-21.548 Y-32.388
X-20.677 Y-32.392
X-18.934 Y-32.396
X-16.321 Y-32.399
X-5.868 Y-32.4
X16.781
X28.976
X29.411 Y-32.383
X29.834 Y-32.276
X30.221 Y-32.076
X30.905 Y-31.537
X31.392 Y-30.815
X31.727 Y-30.011
X31.953 Y-29.169
X32.104 Y-28.312
X32.204 Y-27.446
X32.27 Y-26.578
X32.314 Y-25.708
X32.343 Y-24.837
X32.362 Y-23.966
X32.375 Y-23.095
X32.383 Y-22.224
X32.389 Y-21.353
X32.393 Y-20.482
X32.397 Y-18.74
X32.399 Y-15.255
X32.4 Y3.909
Y29.171
X32.348 Y29.603
X32.197 Y30.012
X31.729 Y30.747
X31.041 Y31.281
X30.252 Y31.651
X29.418 Y31.901
X28.563 Y32.068
X27.699 Y32.18
X26.831 Y32.254
X25.961 Y32.303
X25.091 Y32.336
X24.22 Y32.358
X23.349 Y32.372
X22.478 Y32.381
X21.607 Y32.388
X20.736 Y32.392
X18.994 Y32.396
X16.38 Y32.399
X8.541 Y32.4
X-27.175
X-27.608 Y32.359
X-28.02 Y32.217
X-28.39 Y31.987
X-29.036 Y31.403
X-29.49 Y30.659
X-29.798 Y29.845
X-30.004 Y28.998
X-30.14 Y28.138
X-30.229 Y27.271
X-30.288 Y26.402
X-30.327 Y25.532
X-30.352 Y24.661
X-30.369 Y23.79
X-30.38 Y22.919
X-30.387 Y22.048
X-30.391 Y21.177
X-30.393 Y20.555
X-30.421 Y20.28
X-30.5 Y20.015
X-30.627 Y19.77
X-31.195 Y18.896
X-31.361 Y18.636
X-31.571 Y18.302
X-31.685 Y18.104
X-31.757 Y17.956
X-31.777 Y17.906
X-31.848 Y17.708
X-31.906 Y17.511
X-31.95 Y17.313
X-31.979 Y17.115
X-31.992 Y16.917
X-31.994 Y16.719
X-31.984 Y16.521
X-31.954 Y16.312
X-31.915 Y16.126
X-31.86 Y15.928
X-31.789 Y15.73
X-31.757 Y15.644
X-31.703 Y15.532
X-31.595 Y15.334
X-31.508 Y15.174
X-31.354 Y14.855
X-31.191 Y14.444
X-31.02 Y13.903
X-30.84 Y13.157
X-30.697 Y12.298
X-30.602 Y11.432
X-30.537 Y10.563
X-30.493 Y9.693
X-30.464 Y8.822
X-30.444 Y7.951
X-30.43 Y7.08
X-30.42 Y6.209
X-30.414 Y5.338
X-30.409 Y4.467
X-30.404 Y2.725
X-30.401 Y0.112
X-30.4 Y-6.857
Y-13.435
X-30.435 Y-13.751
X-30.538 Y-14.051
X-30.703 Y-14.322
X-30.924 Y-14.551
X-30.965 Y-14.585
X-31.163 Y-14.771
X-31.317 Y-14.938
X-31.47 Y-15.136
X-31.559 Y-15.274
X-31.595 Y-15.334
X-31.703 Y-15.532
X-31.757 Y-15.644
X-31.789 Y-15.73
X-31.86 Y-15.928
X-31.915 Y-16.126
X-31.954 Y-16.312
X-31.984 Y-16.521
X-31.994 Y-16.719
X-31.992 Y-16.917
X-31.979 Y-17.115
X-31.95 Y-17.313
X-31.906 Y-17.511
X-31.848 Y-17.708
X-31.777 Y-17.906
X-31.757 Y-17.956
X-31.685 Y-18.104
X-31.571 Y-18.302
X-31.498 Y-18.432
X-31.344 Y-18.756
X-31.18 Y-19.174
X-31.008 Y-19.727
X-30.828 Y-20.491
X-30.689 Y-21.351
X-30.596 Y-22.217
X-30.533 Y-23.086
X-30.491 Y-23.956
X-30.462 Y-24.827
X-30.442 Y-25.698
X-30.429 Y-26.569
X-30.417 Y-27.44
X-30.304 Y-27.86
X-30.099 Y-28.244
X-29.553 Y-28.923
X-28.828 Y-29.406
X-28.022 Y-29.738
X-27.18 Y-29.961
X-26.322 Y-30.11
X-25.457 Y-30.208
X-24.588 Y-30.274
X-23.718 Y-30.317
X-22.847 Y-30.345
X-21.976 Y-30.364
X-21.105 Y-30.376
X-20.566 Y-30.381
X-20.294 Y-30.409
X-20.032 Y-30.488
X-19.79 Y-30.615
X-18.896 Y-31.195
X-18.636 Y-31.361
X-18.302 Y-31.571
X-18.104 Y-31.685
X-17.956 Y-31.757
X-17.906 Y-31.777
X-17.708 Y-31.848
X-17.511 Y-31.906
X-17.313 Y-31.95
X-17.115 Y-31.979
X-16.917 Y-31.992
X-16.719 Y-31.994
X-16.521 Y-31.984
X-16.312 Y-31.954
X-16.126 Y-31.915
X-15.928 Y-31.86
X-15.73 Y-31.789
X-15.644 Y-31.757
X-15.532 Y-31.703
X-15.334 Y-31.595
X-15.173 Y-31.508
X-14.855 Y-31.354
X-14.444 Y-31.191
X-13.903 Y-31.02
X-13.158 Y-30.84
X-12.298 Y-30.697
X-11.433 Y-30.602
X-10.564 Y-30.537
X-9.694 Y-30.493
X-8.823 Y-30.464
X-7.952 Y-30.444
X-7.081 Y-30.43
X-6.21 Y-30.42
X-5.339 Y-30.414
X-4.468 Y-30.409
X-2.726 Y-30.404
X-0.113 Y-30.401
X6.856 Y-30.4
X13.435
X13.751 Y-30.435
X14.051 Y-30.538
X14.322 Y-30.703
X14.551 Y-30.924
X14.585 Y-30.965
X14.771 Y-31.163
X14.938 Y-31.317
X15.136 Y-31.47
X15.274 Y-31.559
X15.334 Y-31.595
X15.532 Y-31.703
X15.644 Y-31.757
X15.73 Y-31.789
X15.928 Y-31.86
X16.126 Y-31.915
X16.312 Y-31.954
X16.521 Y-31.984
X16.719 Y-31.994
X16.917 Y-31.992
X17.115 Y-31.979
X17.313 Y-31.95
X17.511 Y-31.906
X17.708 Y-31.848
X17.906 Y-31.777
X17.956 Y-31.757
X18.104 Y-31.685
X18.302 Y-31.571
X18.432 Y-31.498
X18.756 Y-31.344
X19.174 Y-31.18
X19.727 Y-31.008
X20.491 Y-30.828
X21.351 Y-30.689
X22.217 Y-30.596
X23.086 Y-30.533
X23.956 Y-30.491
X24.827 Y-30.462
X25.698 Y-30.442
X26.569 Y-30.429
X27.44 Y-30.417
X27.859 Y-30.301
X28.243 Y-30.096
X28.922 Y-29.55
X29.405 Y-28.825
X29.736 Y-28.019
X29.959 Y-27.177
X30.108 Y-26.319
X30.207 Y-25.453
X30.273 Y-24.585
X30.316 Y-23.715
X30.345 Y-22.844
X30.363 Y-21.973
X30.376 Y-21.102
X30.381 Y-20.566
X30.409 Y-20.294
X30.488 Y-20.032
X30.615 Y-19.79
X31.195 Y-18.896
X31.361 Y-18.636
X31.571 Y-18.302
X31.685 Y-18.104
X31.757 Y-17.956
X31.777 Y-17.906
X31.848 Y-17.708
X31.906 Y-17.511
X31.95 Y-17.313
X31.979 Y-17.115
X31.992 Y-16.917
X31.994 Y-16.719
X31.984 Y-16.521
X31.954 Y-16.312
X31.915 Y-16.126
X31.86 Y-15.928
X31.789 Y-15.73
X31.757 Y-15.644
X31.703 Y-15.532
X31.595 Y-15.334
X31.508 Y-15.173
X31.354 Y-14.855
X31.191 Y-14.444
X31.02 Y-13.903
X30.84 Y-13.158
X30.697 Y-12.298
X30.602 Y-11.433
X30.537 Y-10.564
X30.493 Y-9.694
X30.464 Y-8.823
X30.444 Y-7.952
X30.43 Y-7.081
X30.42 Y-6.21
X30.414 Y-5.339
X30.409 Y-4.468
X30.404 Y-2.726
X30.401 Y-0.113
X30.4 Y6.856
Y13.435
X30.435 Y13.751
X30.538 Y14.051
X30.703 Y14.322
X30.924 Y14.551
X30.965 Y14.585
X31.163 Y14.771
X31.317 Y14.938
X31.47 Y15.136
X31.559 Y15.274
X31.595 Y15.334
X31.703 Y15.532
X31.757 Y15.644
X31.789 Y15.73
X31.86 Y15.928
X31.915 Y16.126
X31.954 Y16.312
X31.984 Y16.521
X31.994 Y16.719
X31.992 Y16.917
X31.979 Y17.115
X31.95 Y17.313
X31.906 Y17.511
X31.848 Y17.708
X31.777 Y17.906
X31.757 Y17.956
X31.685 Y18.104
X31.571 Y18.302
X31.498 Y18.432
X31.344 Y18.756
X31.18 Y19.174
X31.008 Y19.727
X30.828 Y20.491
X30.689 Y21.351
X30.596 Y22.217
X30.533 Y23.086
X30.491 Y23.956
X30.462 Y24.827
X30.442 Y25.698
X30.429 Y26.569
X30.417 Y27.44
X30.304 Y27.86
X30.099 Y28.244
X29.553 Y28.923
X28.828 Y29.406
X28.022 Y29.738
X27.18 Y29.961
X26.322 Y30.11
X25.456 Y30.208
X24.588 Y30.273
X23.718 Y30.316
X22.847 Y30.345
X21.976 Y30.364
X21.105 Y30.376
X20.566 Y30.381
X20.294 Y30.409
X20.032 Y30.488
X19.79 Y30.615
X18.896 Y31.195
X18.636 Y31.361
X18.302 Y31.571
X18.104 Y31.685
X17.956 Y31.757
X17.906 Y31.777
X17.708 Y31.848
X17.511 Y31.906
X17.313 Y31.95
X17.115 Y31.979
X16.917 Y31.992
X16.719 Y31.994
X16.521 Y31.984
X16.312 Y31.954
X16.126 Y31.915
X15.928 Y31.86
X15.73 Y31.789
X15.644 Y31.757
X15.532 Y31.703
X15.334 Y31.595
X15.173 Y31.508
X14.855 Y31.354
X14.444 Y31.191
X13.903 Y31.02
X13.158 Y30.84
X12.298 Y30.697
X11.433 Y30.602
X10.564 Y30.537
X9.694 Y30.493
X8.823 Y30.464
X7.952 Y30.444
X7.081 Y30.43
X6.21 Y30.42
X5.339 Y30.414
X4.468 Y30.409
X2.726 Y30.404
X0.113 Y30.401
X-6.856 Y30.4
X-13.435
X-13.751 Y30.435
X-14.051 Y30.538
X-14.322 Y30.703
X-14.551 Y30.924
X-14.585 Y30.965
X-14.771 Y31.163
X-14.938 Y31.317
X-15.136 Y31.47
X-15.274 Y31.559
X-15.334 Y31.595
X-15.532 Y31.703
X-15.644 Y31.757
X-15.73 Y31.789
X-15.928 Y31.86
X-16.126 Y31.915
X-16.312 Y31.954
X-16.521 Y31.984
X-16.719 Y31.994
X-16.917 Y31.992
X-17.115 Y31.979
X-17.313 Y31.95
X-17.511 Y31.906
X-17.708 Y31.848
X-17.906 Y31.777
X-17.956 Y31.757
X-18.104 Y31.685
X-18.302 Y31.571
X-18.432 Y31.498
X-18.756 Y31.344
X-19.174 Y31.18
X-19.727 Y31.008
X-20.491 Y30.828
X-21.351 Y30.689
X-22.217 Y30.596
X-23.086 Y30.533
X-23.956 Y30.491
X-24.827 Y30.462
X-25.262 Y30.45
X-25.691 Y30.376
X-26.093 Y30.208
X-26.811 Y29.715
X-27.332 Y29.016
X-27.689 Y28.222
X-27.929 Y27.384
X-28.089 Y26.528
X-28.196 Y25.663
X-28.266 Y24.795
X-28.312 Y23.925
X-28.33 Y23.405
X-28.374 Y23.097
X-28.483 Y22.805
X-28.652 Y22.543
X-29.203 Y21.864
X-29.515 Y21.468
X-29.58 Y21.379
X-29.911 Y20.874
X-30.627 Y19.77
X-30.644 Y19.755
G3 X-31.618 Y18.924 I1.388 J-2.611
G1 X-31.663 Y18.854
X-31.698 Y18.777
X-31.722 Y18.697
X-32.142 Y16.745
X-32.154 Y16.662
Y16.579
X-32.141 Y16.496
G3 X-31.597 Y15.337 I2.885 J0.648
G1 X-31.595 Y15.334
X-31.559 Y15.274
X-31.47 Y15.136
X-31.317 Y14.938
X-31.163 Y14.771
X-30.965 Y14.585
X-30.915 Y14.543
X-30.767 Y14.435
X-30.642 Y14.345
X-30.568 Y14.292
X-30.429 Y14.17
X-30.284 Y14.024
X-30.132 Y13.848
X-29.964 Y13.621
X-29.793 Y13.354
X-29.61 Y13.016
X-29.423 Y12.602
X-29.226 Y12.071
X-29.025 Y11.379
X-28.841 Y10.528
X-28.712 Y9.666
X-28.621 Y8.8
X-28.557 Y7.931
X-28.511 Y7.061
X-28.479 Y6.191
X-28.456 Y5.32
X-28.439 Y4.449
X-28.428 Y3.578
X-28.42 Y2.707
X-28.414 Y1.836
X-28.41 Y0.965
X-28.405 Y-0.777
X-28.402 Y-3.391
X-28.4 Y-9.488
Y-11.231
X-28.414 Y-12.059
X-28.44 Y-12.357
X-28.49 Y-12.63
X-28.592 Y-12.889
X-28.742 Y-13.123
X-28.933 Y-13.325
X-29.159 Y-13.486
X-30.174 Y-14.073
X-30.642 Y-14.345
X-30.843 Y-14.49
X-30.915 Y-14.543
X-30.924 Y-14.551
G2 X-31.859 Y-14.079 I-0.355 J0.459
G1 X-31.225 Y14.711
G3 X-31.585 Y14.719 I-0.18 J0.004
X-31.404 Y14.535 I0.18 J-0.004
G2 X-30.642 Y14.345 I0.009 J-1.583
G1 X-29.961 Y13.949
X-29.275 Y13.553
X-29.15 Y13.472
X-28.996 Y13.366
X-28.827 Y13.23
X-28.661 Y13.075
X-28.473 Y12.875
X-28.277 Y12.632
X-28.081 Y12.351
X-27.868 Y11.994
X-27.659 Y11.577
X-27.439 Y11.051
X-27.215 Y10.385
X-26.997 Y9.541
X-26.837 Y8.685
X-26.775 Y8.226
X-26.762 Y8.042
X-26.774 Y7.857
X-26.81 Y7.676
G2 X-27.905 Y7.606 I-0.559 J0.153
G1 X-30.083 Y12.818
G2 X-29.275 Y13.553 I0.535 J0.224
G1 X-27.404 Y12.473
X-27.29 Y12.399
X-27.114 Y12.271
X-26.943 Y12.127
X-26.75 Y11.939
X-26.541 Y11.705
X-26.339 Y11.443
X-26.189 Y11.217
X-26.061 Y10.978
X-25.98 Y10.72
X-25.948 Y10.451
X-25.967 Y10.181
X-26.035 Y9.919
G2 X-27.069 Y9.837 I-0.538 J0.217
G1 X-28.172 Y11.661
G2 X-27.404 Y12.473 I0.496 J0.3
G1 X-26.019 Y11.673
X-25.862 Y11.575
X-25.821 Y11.539
X-25.783 Y11.498
X-25.751 Y11.458
X-25.703 Y11.377
X-25.68 Y11.327
X-25.663 Y11.278
X-25.642 Y11.179
X-25.639 Y11.08
X-25.653 Y10.981
X-25.721 Y10.783
X-26.585 Y8.409
X-26.612 Y8.326
X-26.773 Y7.815
X-26.81 Y7.676
X-27.404 Y5.172
X-27.427 Y5.045
X-27.497 Y4.65
X-27.527 Y4.452
X-27.805 Y2.078
X-27.825 Y1.88
X-27.847 Y1.484
X-27.858 Y1.286
Y-1.286
X-27.836 Y-1.682
X-27.825 Y-1.88
X-27.805 Y-2.078
X-27.527 Y-4.452
X-27.497 Y-4.65
X-27.427 Y-5.045
X-27.404 Y-5.172
X-27.012 Y-6.826
X-26.853 Y-7.683
X-26.706 Y-8.541
X-26.608 Y-9.407
X-26.546 Y-10.276
X-26.538 Y-10.917
X-26.557 Y-11.231
X-26.602 Y-11.514
X-26.701 Y-11.782
X-26.852 Y-12.025
X-27.047 Y-12.234
X-27.279 Y-12.401
G2 X-28.132 Y-11.891 I-0.272 J0.512
G1 X-28.151 Y-6.982
G2 X-27.012 Y-6.826 I0.58 J0.002
G1 X-26.81 Y-7.676
X-26.773 Y-7.815
X-26.612 Y-8.326
X-26.585 Y-8.409
X-25.793 Y-10.586
X-25.754 Y-10.71
X-25.718 Y-10.952
X-25.746 Y-11.195
X-25.838 Y-11.422
X-25.985 Y-11.617
X-26.179 Y-11.766
G2 X-27.012 Y-11.104 I-0.272 J0.512
G1 X-26.891 Y-10.653
G2 X-25.793 Y-10.586 I0.56 J-0.15
G1 X-25.721 Y-10.783
X-25.653 Y-10.981
X-25.639 Y-11.08
X-25.642 Y-11.179
X-25.663 Y-11.278
X-25.68 Y-11.327
X-25.703 Y-11.377
X-25.751 Y-11.458
X-25.783 Y-11.498
X-25.821 Y-11.539
X-25.862 Y-11.575
X-26.019 Y-11.673
X-29.159 Y-13.486
G2 X-29.873 Y-13.35 I-0.272 J0.512
G1 X-29.932 Y-13.281 Z-3.993
X-29.989 Y-13.214 Z-3.972
X-30.044 Y-13.15 Z-3.937
X-30.094 Y-13.091 Z-3.889
X-30.139 Y-13.038 Z-3.83
X-30.177 Y-12.993 Z-3.761
X-30.208 Y-12.957 Z-3.683
X-30.231 Y-12.93 Z-3.599
X-30.244 Y-12.914 Z-3.511
X-30.249 Y-12.909 Z-3.42
G0 Z5.
X-32.676 Y-17.518
Z-2.84
G1 Z-3.42 F1440.
X-32.67 Y-17.522 Z-3.511
X-32.651 Y-17.531 Z-3.599
X-32.62 Y-17.547 Z-3.683
X-32.578 Y-17.569 Z-3.761
X-32.525 Y-17.596 Z-3.83
X-32.463 Y-17.627 Z-3.889
X-32.394 Y-17.662 Z-3.937
X-32.319 Y-17.701 Z-3.972
X-32.241 Y-17.741 Z-3.993
X-32.16 Y-17.782 Z-4.
G2 X-31.571 Y-18.302 I-0.72 J-1.409
G1 X-31.322 Y-18.698
X-31.163 Y-18.946
X-29.781 Y-21.072
X-29.691 Y-21.226
X-29.519 Y-21.558
X-29.34 Y-21.972
X-29.152 Y-22.508
X-28.958 Y-23.221
X-28.789 Y-24.075
X-28.672 Y-24.939
X-28.619 Y-25.371
X-28.501 Y-25.79
X-28.302 Y-26.177
X-27.768 Y-26.866
X-27.051 Y-27.362
X-26.251 Y-27.704
X-25.411 Y-27.937
X-24.554 Y-28.092
X-23.689 Y-28.196
X-23.491 Y-28.212
X-23.206 Y-28.264
X-22.936 Y-28.371
X-22.694 Y-28.531
X-21.864 Y-29.203
X-21.468 Y-29.515
X-21.379 Y-29.58
X-20.874 Y-29.911
X-19.79 Y-30.615
X-19.774 Y-30.632
G3 X-18.938 Y-31.611 I2.627 J1.397
G1 X-18.868 Y-31.657
X-18.792 Y-31.692
X-18.712 Y-31.715
X-16.753 Y-32.141
X-16.671 Y-32.153
X-16.587
X-16.505 Y-32.141
G3 X-15.337 Y-31.597 I-0.642 J2.906
G1 X-15.334 Y-31.595
X-15.274 Y-31.559
X-15.136 Y-31.47
X-14.938 Y-31.317
X-14.771 Y-31.163
X-14.585 Y-30.965
X-14.543 Y-30.915
X-14.435 Y-30.767
X-14.345 Y-30.642
X-14.292 Y-30.568
X-14.17 Y-30.429
X-14.024 Y-30.284
X-13.848 Y-30.132
X-13.621 Y-29.964
X-13.354 Y-29.793
X-13.016 Y-29.61
X-12.602 Y-29.423
X-12.071 Y-29.226
X-11.38 Y-29.025
X-10.528 Y-28.841
X-9.667 Y-28.712
X-8.8 Y-28.621
X-7.932 Y-28.557
X-7.062 Y-28.511
X-6.191 Y-28.479
X-5.32 Y-28.456
X-4.449 Y-28.439
X-3.578 Y-28.428
X-2.707 Y-28.42
X-1.836 Y-28.414
X-0.965 Y-28.41
X0.777 Y-28.405
X3.39 Y-28.402
X9.488 Y-28.4
X11.23
X12.059 Y-28.414
X12.357 Y-28.44
X12.63 Y-28.49
X12.889 Y-28.592
X13.123 Y-28.742
X13.325 Y-28.933
X13.486 Y-29.159
X14.073 Y-30.174
X14.345 Y-30.642
X14.49 Y-30.843
X14.543 Y-30.915
X14.551 Y-30.924
G2 X14.079 Y-31.859 I-0.459 J-0.355
G1 X-14.711 Y-31.225
G3 X-14.719 Y-31.585 I-0.004 J-0.18
X-14.535 Y-31.404 I0.004 J0.18
G2 X-14.345 Y-30.642 I1.583 J0.009
G1 X-13.949 Y-29.961
X-13.553 Y-29.275
X-13.472 Y-29.15
X-13.365 Y-28.996
X-13.23 Y-28.827
X-13.075 Y-28.661
X-12.875 Y-28.473
X-12.632 Y-28.277
X-12.351 Y-28.081
X-11.994 Y-27.868
X-11.577 Y-27.659
X-11.052 Y-27.439
X-10.385 Y-27.215
X-9.542 Y-26.997
X-8.685 Y-26.837
X-8.226 Y-26.775
X-8.042 Y-26.762
X-7.857 Y-26.774
X-7.676 Y-26.81
G2 X-7.606 Y-27.905 I-0.153 J-0.559
G1 X-12.818 Y-30.083
G2 X-13.553 Y-29.275 I-0.224 J0.535
G1 X-12.473 Y-27.404
X-12.399 Y-27.29
X-12.271 Y-27.114
X-12.127 Y-26.943
X-11.939 Y-26.75
X-11.705 Y-26.541
X-11.443 Y-26.339
X-11.217 Y-26.189
X-10.978 Y-26.061
X-10.72 Y-25.98
X-10.451 Y-25.948
X-10.181 Y-25.967
X-9.919 Y-26.035
G2 X-9.837 Y-27.069 I-0.217 J-0.538
G1 X-11.661 Y-28.172
G2 X-12.473 Y-27.404 I-0.3 J0.496
G1 X-11.673 Y-26.019
X-11.575 Y-25.862
X-11.539 Y-25.821
X-11.498 Y-25.783
X-11.458 Y-25.751
X-11.377 Y-25.703
X-11.327 Y-25.68
X-11.278 Y-25.663
X-11.179 Y-25.642
X-11.08 Y-25.639
X-10.981 Y-25.653
X-10.783 Y-25.721
X-8.409 Y-26.585
X-8.326 Y-26.612
X-7.815 Y-26.773
X-7.676 Y-26.81
X-5.172 Y-27.404
X-5.045 Y-27.427
X-4.65 Y-27.497
X-4.452 Y-27.527
X-2.078 Y-27.805
X-1.88 Y-27.825
X-1.484 Y-27.847
X-1.286 Y-27.858
X1.286
X1.682 Y-27.836
X1.88 Y-27.825
X2.078 Y-27.805
X4.452 Y-27.527
X4.65 Y-27.497
X5.045 Y-27.427
X5.172 Y-27.404
X6.826 Y-27.012
X7.683 Y-26.853
X8.541 Y-26.706
X9.407 Y-26.608
X10.276 Y-26.546
X10.917 Y-26.538
X11.231 Y-26.557
X11.514 Y-26.602
X11.782 Y-26.701
X12.025 Y-26.852
X12.234 Y-27.047
X12.401 Y-27.279
G2 X11.891 Y-28.132 I-0.512 J-0.272
G1 X6.982 Y-28.151
G2 X6.826 Y-27.012 I-0.002 J0.58
G1 X7.676 Y-26.81
X7.815 Y-26.773
X8.326 Y-26.612
X8.409 Y-26.585
X10.586 Y-25.793
X10.71 Y-25.754
X10.952 Y-25.718
X11.195 Y-25.746
X11.422 Y-25.838
X11.617 Y-25.985
X11.766 Y-26.179
G2 X11.104 Y-27.012 I-0.512 J-0.272
G1 X10.653 Y-26.891
G2 X10.586 Y-25.793 I0.15 J0.56
G1 X10.783 Y-25.721
X10.981 Y-25.653
X11.08 Y-25.639
X11.179 Y-25.642
X11.278 Y-25.663
X11.327 Y-25.68
X11.377 Y-25.703
X11.458 Y-25.751
X11.498 Y-25.783
X11.539 Y-25.821
X11.575 Y-25.862
X11.673 Y-26.019
X13.486 Y-29.159
G2 X13.35 Y-29.873 I-0.512 J-0.272
G1 X13.281 Y-29.932 Z-3.993
X13.214 Y-29.989 Z-3.972
X13.15 Y-30.044 Z-3.937
X13.091 Y-30.094 Z-3.889
X13.038 Y-30.139 Z-3.83
X12.993 Y-30.177 Z-3.761
X12.957 Y-30.208 Z-3.683
X12.93 Y-30.231 Z-3.599
X12.914 Y-30.244 Z-3.511
X12.909 Y-30.249 Z-3.42
G0 Z5.
X17.518 Y-32.676
Z-2.84
G1 Z-3.42 F1440.
X17.522 Y-32.67 Z-3.511
X17.531 Y-32.651 Z-3.599
X17.547 Y-32.62 Z-3.683
X17.569 Y-32.578 Z-3.761
X17.596 Y-32.525 Z-3.83
X17.627 Y-32.463 Z-3.889
X17.662 Y-32.394 Z-3.937
X17.701 Y-32.319 Z-3.972
X17.741 Y-32.241 Z-3.993
X17.782 Y-32.16 Z-4.
G2 X18.302 Y-31.571 I1.409 J-0.72
G1 X18.698 Y-31.322
X18.946 Y-31.163
X21.072 Y-29.781
X21.226 Y-29.691
X21.558 Y-29.519
X21.972 Y-29.34
X22.508 Y-29.152
X23.221 Y-28.958
X24.075 Y-28.789
X24.939 Y-28.672
X25.371 Y-28.618
X25.79 Y-28.5
X26.177 Y-28.3
X26.865 Y-27.765
X27.361 Y-27.049
X27.703 Y-26.248
X27.936 Y-25.409
X28.092 Y-24.552
X28.196 Y-23.687
X28.211 Y-23.492
X28.263 Y-23.207
X28.371 Y-22.937
X28.53 Y-22.695
X29.203 Y-21.864
X29.515 Y-21.468
X29.58 Y-21.379
X29.911 Y-20.874
X30.615 Y-19.79
X30.632 Y-19.775
G3 X31.611 Y-18.938 I-1.397 J2.628
G1 X31.657 Y-18.868
X31.691 Y-18.792
X31.715 Y-18.712
X32.141 Y-16.753
X32.153 Y-16.671
Y-16.587
X32.141 Y-16.505
G3 X31.597 Y-15.337 I-2.906 J-0.642
G1 X31.595 Y-15.334
X31.559 Y-15.274
X31.47 Y-15.136
X31.317 Y-14.938
X31.163 Y-14.771
X30.965 Y-14.585
X30.915 Y-14.543
X30.767 Y-14.435
X30.642 Y-14.345
X30.568 Y-14.292
X30.429 Y-14.17
X30.284 Y-14.024
X30.132 Y-13.848
X29.964 Y-13.621
X29.793 Y-13.354
X29.61 Y-13.016
X29.423 Y-12.602
X29.226 Y-12.071
X29.025 Y-11.38
X28.841 Y-10.528
X28.712 Y-9.667
X28.621 Y-8.8
X28.557 Y-7.932
X28.511 Y-7.062
X28.479 Y-6.191
X28.456 Y-5.32
X28.439 Y-4.449
X28.428 Y-3.578
X28.42 Y-2.707
X28.414 Y-1.836
X28.41 Y-0.965
X28.405 Y0.777
X28.402 Y3.39
X28.4 Y9.488
Y11.23
X28.414 Y12.059
X28.44 Y12.357
X28.49 Y12.63
X28.592 Y12.889
X28.742 Y13.123
X28.933 Y13.325
X29.159 Y13.486
X30.174 Y14.073
X30.642 Y14.345
X30.843 Y14.49
X30.915 Y14.543
X30.924 Y14.551
G2 X31.859 Y14.079 I0.355 J-0.459
G1 X31.225 Y-14.711
G3 X31.585 Y-14.719 I0.18 J-0.004
X31.404 Y-14.535 I-0.18 J0.004
G2 X30.642 Y-14.345 I-0.009 J1.583
G1 X29.961 Y-13.949
X29.275 Y-13.553
X29.15 Y-13.472
X28.996 Y-13.365
X28.827 Y-13.23
X28.661 Y-13.075
X28.473 Y-12.875
X28.277 Y-12.632
X28.081 Y-12.351
X27.868 Y-11.994
X27.659 Y-11.577
X27.439 Y-11.052
X27.215 Y-10.385
X26.997 Y-9.542
X26.837 Y-8.685
X26.775 Y-8.226
X26.762 Y-8.042
X26.774 Y-7.857
X26.81 Y-7.676
G2 X27.905 Y-7.606 I0.559 J-0.153
G1 X30.083 Y-12.818
G2 X29.275 Y-13.553 I-0.535 J-0.224
G1 X27.404 Y-12.473
X27.29 Y-12.399
X27.114 Y-12.271
X26.943 Y-12.127
X26.75 Y-11.939
X26.541 Y-11.705
X26.339 Y-11.443
X26.189 Y-11.217
X26.061 Y-10.978
X25.98 Y-10.72
X25.948 Y-10.451
X25.967 Y-10.181
X26.035 Y-9.919
G2 X27.069 Y-9.837 I0.538 J-0.217
G1 X28.172 Y-11.661
G2 X27.404 Y-12.473 I-0.496 J-0.3
G1 X26.019 Y-11.673
X25.862 Y-11.575
X25.821 Y-11.539
X25.783 Y-11.498
X25.751 Y-11.458
X25.703 Y-11.377
X25.68 Y-11.327
X25.663 Y-11.278
X25.642 Y-11.179
X25.639 Y-11.08
X25.653 Y-10.981
X25.721 Y-10.783
X26.585 Y-8.409
X26.612 Y-8.326
X26.773 Y-7.815
X26.81 Y-7.676
X27.404 Y-5.172
X27.427 Y-5.045
X27.497 Y-4.65
X27.527 Y-4.452
X27.805 Y-2.078
X27.825 Y-1.88
X27.847 Y-1.484
X27.858 Y-1.286
Y1.286
X27.836 Y1.682
X27.825 Y1.88
X27.805 Y2.078
X27.527 Y4.452
X27.497 Y4.65
X27.427 Y5.045
X27.404 Y5.172
X27.012 Y6.826
X26.853 Y7.683
X26.706 Y8.541
X26.608 Y9.407
X26.546 Y10.276
X26.538 Y10.917
X26.557 Y11.231
X26.602 Y11.514
X26.701 Y11.782
X26.852 Y12.025
X27.047 Y12.234
X27.279 Y12.401
G2 X28.132 Y11.891 I0.272 J-0.512
G1 X28.151 Y6.982
G2 X27.012 Y6.826 I-0.58 J-0.002
G1 X26.81 Y7.676
X26.773 Y7.815
X26.612 Y8.326
X26.585 Y8.409
X25.793 Y10.586
X25.754 Y10.71
X25.718 Y10.952
X25.746 Y11.195
X25.838 Y11.422
X25.985 Y11.617
X26.179 Y11.766
G2 X27.012 Y11.104 I0.272 J-0.512
G1 X26.891 Y10.653
G2 X25.793 Y10.586 I-0.56 J0.15
G1 X25.721 Y10.783
X25.653 Y10.981
X25.639 Y11.08
X25.642 Y11.179
X25.663 Y11.278
X25.68 Y11.327
X25.703 Y11.377
X25.751 Y11.458
X25.783 Y11.498
X25.821 Y11.539
X25.862 Y11.575
X26.019 Y11.673
X29.159 Y13.486
G2 X29.873 Y13.35 I0.272 J-0.512
G1 X29.932 Y13.281 Z-3.993
X29.989 Y13.214 Z-3.972
X30.044 Y13.15 Z-3.937
X30.094 Y13.091 Z-3.889
X30.139 Y13.038 Z-3.83
X30.177 Y12.993 Z-3.761
X30.208 Y12.957 Z-3.683
X30.231 Y12.93 Z-3.599
X30.244 Y12.914 Z-3.511
X30.249 Y12.909 Z-3.42
G0 Z5.
X32.676 Y17.518
Z-2.84
G1 Z-3.42 F1440.
X32.67 Y17.522 Z-3.511
X32.651 Y17.531 Z-3.599
X32.62 Y17.547 Z-3.683
X32.578 Y17.569 Z-3.761
X32.525 Y17.596 Z-3.83
X32.463 Y17.627 Z-3.889
X32.394 Y17.662 Z-3.937
X32.319 Y17.701 Z-3.972
X32.241 Y17.741 Z-3.993
X32.16 Y17.782 Z-4.
G2 X31.571 Y18.302 I0.72 J1.409
G1 X31.322 Y18.698
X31.163 Y18.946
X29.781 Y21.072
X29.691 Y21.226
X29.519 Y21.558
X29.34 Y21.972
X29.152 Y22.508
X28.958 Y23.221
X28.789 Y24.075
X28.672 Y24.939
X28.619 Y25.371
X28.501 Y25.79
X28.302 Y26.178
X27.768 Y26.866
X27.052 Y27.362
X26.251 Y27.704
X25.411 Y27.937
X24.554 Y28.092
X23.689 Y28.196
X23.492 Y28.212
X23.206 Y28.264
X22.936 Y28.371
X22.694 Y28.53
X21.864 Y29.203
X21.468 Y29.515
X21.379 Y29.58
X20.874 Y29.911
X19.79 Y30.615
X19.775 Y30.632
G3 X18.938 Y31.611 I-2.628 J-1.397
G1 X18.868 Y31.657
X18.792 Y31.691
X18.712 Y31.715
X16.753 Y32.141
X16.671 Y32.153
X16.587
X16.505 Y32.141
G3 X15.337 Y31.597 I0.642 J-2.906
G1 X15.334 Y31.595
X15.274 Y31.559
X15.136 Y31.47
X14.938 Y31.317
X14.771 Y31.163
X14.585 Y30.965
X14.543 Y30.915
X14.435 Y30.767
X14.345 Y30.642
X14.292 Y30.568
X14.17 Y30.429
X14.024 Y30.284
X13.848 Y30.132
X13.621 Y29.964
X13.354 Y29.793
X13.016 Y29.61
X12.602 Y29.423
X12.071 Y29.226
X11.38 Y29.025
X10.528 Y28.841
X9.667 Y28.712
X8.8 Y28.621
X7.932 Y28.557
X7.062 Y28.511
X6.191 Y28.479
X5.32 Y28.456
X4.449 Y28.439
X3.578 Y28.428
X2.707 Y28.42
X1.836 Y28.414
X0.965 Y28.41
X-0.777 Y28.405
X-3.39 Y28.402
X-9.488 Y28.4
X-11.23
X-12.059 Y28.414
X-12.357 Y28.44
X-12.63 Y28.49
X-12.889 Y28.592
X-13.123 Y28.742
X-13.325 Y28.933
X-13.486 Y29.159
X-14.073 Y30.174
X-14.345 Y30.642
X-14.49 Y30.843
X-14.543 Y30.915
X-14.551 Y30.924
G2 X-14.079 Y31.859 I0.459 J0.355
G1 X14.711 Y31.225
G3 X14.719 Y31.585 I0.004 J0.18
X14.535 Y31.404 I-0.004 J-0.18
G2 X14.345 Y30.642 I-1.583 J-0.009
G1 X13.949 Y29.961
X13.553 Y29.275
X13.472 Y29.15
X13.365 Y28.996
X13.23 Y28.827
X13.075 Y28.661
X12.875 Y28.473
X12.632 Y28.277
X12.351 Y28.081
X11.994 Y27.868
X11.577 Y27.659
X11.052 Y27.439
X10.385 Y27.215
X9.542 Y26.997
X8.685 Y26.837
X8.226 Y26.775
X8.042 Y26.762
X7.857 Y26.774
X7.676 Y26.81
G2 X7.606 Y27.905 I0.153 J0.559
G1 X12.818 Y30.083
G2 X13.553 Y29.275 I0.224 J-0.535
G1 X12.473 Y27.404
X12.399 Y27.29
X12.271 Y27.114
X12.127 Y26.943
X11.939 Y26.75
X11.705 Y26.541
X11.443 Y26.339
X11.217 Y26.189
X10.978 Y26.061
X10.72 Y25.98
X10.451 Y25.948
X10.181 Y25.967
X9.919 Y26.035
G2 X9.837 Y27.069 I0.217 J0.538
G1 X11.661 Y28.172
G2 X12.473 Y27.404 I0.3 J-0.496
G1 X11.673 Y26.019
X11.575 Y25.862
X11.539 Y25.821
X11.498 Y25.783
X11.458 Y25.751
X11.377 Y25.703
X11.327 Y25.68
X11.278 Y25.663
X11.179 Y25.642
X11.08 Y25.639
X10.981 Y25.653
X10.783 Y25.721
X8.409 Y26.585
X8.326 Y26.612
X7.815 Y26.773
X7.676 Y26.81
X5.172 Y27.404
X5.045 Y27.427
X4.65 Y27.497
X4.452 Y27.527
X2.078 Y27.805
X1.88 Y27.825
X1.484 Y27.847
X1.286 Y27.858
X-1.286
X-1.682 Y27.836
X-1.88 Y27.825
X-2.078 Y27.805
X-4.452 Y27.527
X-4.65 Y27.497
X-5.045 Y27.427
X-5.172 Y27.404
X-6.826 Y27.012
X-7.683 Y26.853
X-8.541 Y26.706
X-9.407 Y26.608
X-10.276 Y26.546
X-10.917 Y26.538
X-11.231 Y26.557
X-11.514 Y26.602
X-11.782 Y26.701
X-12.025 Y26.852
X-12.234 Y27.047
X-12.401 Y27.279
G2 X-11.891 Y28.132 I0.512 J0.272
G1 X-6.982 Y28.151
G2 X-6.826 Y27.012 I0.002 J-0.58
G1 X-7.676 Y26.81
X-7.815 Y26.773
X-8.326 Y26.612
X-8.409 Y26.585
X-10.586 Y25.793
X-10.71 Y25.754
X-10.952 Y25.718
X-11.195 Y25.746
X-11.422 Y25.838
X-11.617 Y25.985
X-11.766 Y26.179
G2 X-11.104 Y27.012 I0.512 J0.272
G1 X-10.653 Y26.891
G2 X-10.586 Y25.793 I-0.15 J-0.56
G1 X-10.783 Y25.721
X-10.981 Y25.653
X-11.08 Y25.639
X-11.179 Y25.642
X-11.278 Y25.663
X-11.327 Y25.68
X-11.377 Y25.703
X-11.458 Y25.751
X-11.498 Y25.783
X-11.539 Y25.821
X-11.575 Y25.862
X-11.673 Y26.019
X-13.486 Y29.159
G2 X-13.35 Y29.873 I0.512 J0.272
G1 X-13.281 Y29.932 Z-3.993
X-13.214 Y29.989 Z-3.972
X-13.15 Y30.044 Z-3.937
X-13.091 Y30.094 Z-3.889
X-13.038 Y30.139 Z-3.83
X-12.993 Y30.177 Z-3.761
X-12.957 Y30.208 Z-3.683
X-12.93 Y30.231 Z-3.599
X-12.914 Y30.244 Z-3.511
X-12.909 Y30.249 Z-3.42
G0 Z5.
X-17.518 Y32.676
Z-2.84
G1 Z-3.42 F1440.
X-17.522 Y32.67 Z-3.511
X-17.531 Y32.651 Z-3.599
X-17.547 Y32.62 Z-3.683
X-17.569 Y32.578 Z-3.761
X-17.596 Y32.525 Z-3.83
X-17.627 Y32.463 Z-3.889
X-17.662 Y32.394 Z-3.937
X-17.701 Y32.319 Z-3.972
X-17.741 Y32.241 Z-3.993
X-17.782 Y32.16 Z-4.
G2 X-18.302 Y31.571 I-1.409 J0.72
G1 X-18.698 Y31.322
X-18.946 Y31.163
X-21.072 Y29.781
X-21.226 Y29.691
X-21.558 Y29.519
X-21.972 Y29.34
X-22.794 Y29.052
X-23.632 Y28.814
X-24.417 Y28.435
X-25.028 Y27.815
X-25.467 Y27.063
X-25.772 Y26.247
X-25.827 Y26.023
X-25.913 Y25.774
X-26.042 Y25.546
X-26.21 Y25.344
G2 X-27.037 Y25.381 I-0.396 J0.424
X-26.985 Y26.207 I0.432 J0.387
G1 X-21.786 Y30.694
G2 X-20.95 Y30.612 I0.379 J-0.439
X-21.072 Y29.781 I-0.457 J-0.357
G1 X-21.379 Y29.58
X-21.468 Y29.515
X-21.886 Y29.184
X-24.238 Y27.28
X-24.323 Y27.206
X-24.634 Y26.919
X-24.942 Y26.612
X-26.81 Y24.744
X-26.919 Y24.634
X-27.206 Y24.323
X-27.28 Y24.238
X-28.652 Y22.543
G2 X-29.367 Y22.415 I-0.438 J0.381
G1 X-29.447 Y22.458 Z-3.993
X-29.525 Y22.5 Z-3.972
X-29.599 Y22.541 Z-3.937
X-29.667 Y22.578 Z-3.889
X-29.728 Y22.611 Z-3.83
X-29.78 Y22.639 Z-3.761
X-29.821 Y22.662 Z-3.683
X-29.852 Y22.679 Z-3.599
X-29.871 Y22.689 Z-3.511
X-29.877 Y22.692 Z-3.42
G0 Z5.
X-30.901 Y-20.309
Z-2.84
G1 Z-3.42 F1440.
X-30.895 Y-20.312 Z-3.511
X-30.876 Y-20.322 Z-3.599
X-30.844 Y-20.337 Z-3.683
X-30.802 Y-20.358 Z-3.761
X-30.748 Y-20.384 Z-3.83
X-30.686 Y-20.414 Z-3.889
X-30.617 Y-20.448 Z-3.937
X-30.541 Y-20.485 Z-3.972
X-30.461 Y-20.524 Z-3.993
X-30.38 Y-20.563 Z-4.
G2 X-29.781 Y-21.072 I-0.694 J-1.422
G1 X-29.58 Y-21.379
X-29.515 Y-21.468
X-29.184 Y-21.886
X-27.28 Y-24.238
X-27.206 Y-24.323
X-26.919 Y-24.634
X-26.612 Y-24.942
X-24.744 Y-26.81
X-24.634 Y-26.919
X-24.323 Y-27.206
X-24.238 Y-27.28
X-22.694 Y-28.531
G2 X-22.565 Y-29.246 I-0.381 J-0.438
G1 X-22.608 Y-29.325 Z-3.993
X-22.651 Y-29.403 Z-3.972
X-22.691 Y-29.477 Z-3.937
X-22.728 Y-29.545 Z-3.889
X-22.761 Y-29.606 Z-3.83
X-22.789 Y-29.658 Z-3.761
X-22.812 Y-29.7 Z-3.683
X-22.829 Y-29.73 Z-3.599
X-22.839 Y-29.749 Z-3.511
X-22.842 Y-29.755 Z-3.42
G0 Z5.
X20.309 Y-30.901
Z-2.84
G1 Z-3.42 F1440.
X20.312 Y-30.895 Z-3.511
X20.322 Y-30.876 Z-3.599
X20.337 Y-30.844 Z-3.683
X20.358 Y-30.802 Z-3.761
X20.384 Y-30.748 Z-3.83
X20.414 Y-30.686 Z-3.889
X20.448 Y-30.617 Z-3.937
X20.485 Y-30.541 Z-3.972
X20.524 Y-30.461 Z-3.993
X20.563 Y-30.38 Z-4.
G2 X21.072 Y-29.781 I1.422 J-0.694
G1 X21.379 Y-29.58
X21.468 Y-29.515
X21.886 Y-29.184
X24.238 Y-27.28
X24.323 Y-27.206
X24.634 Y-26.919
X24.942 Y-26.612
X26.81 Y-24.744
X26.919 Y-24.634
X27.206 Y-24.323
X27.28 Y-24.238
X28.53 Y-22.695
G2 X29.245 Y-22.566 I0.438 J-0.381
G1 X29.325 Y-22.609 Z-3.993
X29.402 Y-22.652 Z-3.972
X29.476 Y-22.692 Z-3.937
X29.544 Y-22.729 Z-3.889
X29.605 Y-22.762 Z-3.83
X29.657 Y-22.79 Z-3.761
X29.699 Y-22.813 Z-3.683
X29.729 Y-22.83 Z-3.599
X29.748 Y-22.84 Z-3.511
X29.754 Y-22.843 Z-3.42
G0 Z5.
X30.901 Y20.309
Z-2.84
G1 Z-3.42 F1440.
X30.895 Y20.312 Z-3.511
X30.876 Y20.322 Z-3.599
X30.844 Y20.337 Z-3.683
X30.802 Y20.358 Z-3.761
X30.748 Y20.384 Z-3.83
X30.686 Y20.414 Z-3.889
X30.617 Y20.448 Z-3.937
X30.541 Y20.485 Z-3.972
X30.461 Y20.524 Z-3.993
X30.38 Y20.563 Z-4.
G2 X29.781 Y21.072 I0.694 J1.422
G1 X29.58 Y21.379
X29.515 Y21.468
X29.184 Y21.886
X27.28 Y24.238
X27.206 Y24.323
X26.919 Y24.634
X26.612 Y24.942
X24.744 Y26.81
X24.634 Y26.919
X24.323 Y27.206
X24.238 Y27.28
X22.694 Y28.53
X22.645 Y28.578
X22.602 Y28.632
X22.566 Y28.69
X22.543 Y28.759 Z-3.995
X22.521 Y28.826 Z-3.982
X22.499 Y28.892 Z-3.959
X22.494 Y28.968 Z-3.922
X22.506 Y29.031 Z-3.879
X22.517 Y29.087 Z-3.828
X22.526 Y29.136 Z-3.769
X22.534 Y29.178 Z-3.705
X22.547 Y29.207 Z-3.638
X22.557 Y29.228 Z-3.567
X22.563 Y29.241 Z-3.494
X22.565 Y29.246 Z-3.42
G0 Z5.
X0. Y0.
Z2.5
G1 Z-4. F300.
X-0.027 Y-0.027 F1440.
X-0.044 Y0.007
X-0.026 Y0.04
X0.01 Y0.05
X0.042 Y0.031
X0.056 Y-0.004
X0.053 Y-0.042
X0.035 Y-0.074
X0.003 Y-0.095
X-0.034 Y-0.099
X-0.071 Y-0.089
X-0.101 Y-0.068
X-0.123 Y-0.038
X-0.136 Y-0.002
X-0.137 Y0.035
X-0.119 Y0.108
X-0.067 Y0.162
X0.003 Y0.188
X0.078 Y0.181
X0.145 Y0.148
X0.197 Y0.094
X0.23 Y0.026
X0.239 Y-0.048
X0.227 Y-0.122
X0.195 Y-0.19
X0.095 Y-0.302
X-0.047 Y-0.351
X-0.196 Y-0.331
X-0.325 Y-0.255
X-0.417 Y-0.137
X-0.463 Y0.006
X-0.461 Y0.156
X-0.413 Y0.298
X-0.324 Y0.419
X-0.204 Y0.508
X-0.064 Y0.562
X0.086 Y0.577
X0.234 Y0.553
X0.371 Y0.494
X0.491 Y0.403
X0.586 Y0.287
X0.653 Y0.153
X0.689 Y0.007
X0.696 Y-0.143
X0.672 Y-0.291
X0.619 Y-0.431
X0.541 Y-0.559
X0.439 Y-0.669
X0.318 Y-0.759
X0.183 Y-0.824
X0.039 Y-0.865
X-0.11 Y-0.88
X-0.26 Y-0.871
X-0.406 Y-0.836
X-0.544 Y-0.779
X-0.672 Y-0.699
X-0.786 Y-0.602
X-0.883 Y-0.488
X-0.962 Y-0.361
X-1.022 Y-0.223
X-1.061 Y-0.078
X-1.08 Y0.071
X-1.077 Y0.221
X-1.053 Y0.369
X-1.009 Y0.512
X-0.947 Y0.649
X-0.867 Y0.776
X-0.772 Y0.891
X-0.662 Y0.993
X-0.54 Y1.081
X-0.408 Y1.152
X-0.269 Y1.208
X-0.123 Y1.245
X0.025 Y1.265
X0.175 Y1.266
X0.325 Y1.251
X0.471 Y1.218
X0.613 Y1.169
X0.748 Y1.103
X0.875 Y1.024
X0.992 Y0.93
X1.099 Y0.825
X1.194 Y0.709
X1.276 Y0.583
X1.344 Y0.449
X1.398 Y0.309
X1.437 Y0.165
X1.461 Y0.017
X1.471 Y-0.133
X1.465 Y-0.283
X1.444 Y-0.431
X1.409 Y-0.577
X1.36 Y-0.719
X1.297 Y-0.855
X1.222 Y-0.985
X1.134 Y-1.107
X1.036 Y-1.22
X0.927 Y-1.323
X0.81 Y-1.417
X0.684 Y-1.498
X0.551 Y-1.568
X0.413 Y-1.626
X0.27 Y-1.672
X0.123 Y-1.704
X-0.025 Y-1.724
X-0.175 Y-1.73
X-0.325 Y-1.724
X-0.474 Y-1.705
X-0.62 Y-1.673
X-0.764 Y-1.629
X-0.903 Y-1.573
X-1.037 Y-1.506
X-1.165 Y-1.428
X-1.287 Y-1.34
X-1.4 Y-1.242
X-1.506 Y-1.136
X-1.603 Y-1.021
X-1.69 Y-0.899
X-1.767 Y-0.771
X-1.834 Y-0.636
X-1.891 Y-0.497
X-1.936 Y-0.354
X-1.971 Y-0.208
X-1.994 Y-0.06
X-2.006 Y0.089
Y0.239
X-1.995 Y0.389
X-1.974 Y0.537
X-1.941 Y0.684
X-1.897 Y0.827
X-1.844 Y0.967
X-1.78 Y1.103
X-1.707 Y1.234
X-1.623 Y1.361
X-1.531 Y1.48
X-1.429 Y1.594
X-1.321 Y1.7
X-1.205 Y1.798
X-1.079 Y1.89
X-0.951 Y1.97
X-0.811 Y2.044
X-0.668 Y2.107
X-0.522 Y2.16
X-0.368 Y2.203
X-0.215 Y2.235
X-0.055 Y2.256
X0.106 Y2.266
X0.266 Y2.264
X0.431 Y2.251
X0.592 Y2.226
X0.75 Y2.19
X0.912 Y2.141
X1.066 Y2.082
X1.217 Y2.012
X1.366 Y1.929
X1.507 Y1.836
X1.642 Y1.734
X1.772 Y1.619
X1.893 Y1.497
X2.004 Y1.367
X2.109 Y1.225
X2.203 Y1.077
X2.285 Y0.924
X2.358 Y0.761
X2.42 Y0.593
X2.469 Y0.422
X2.506 Y0.248
X2.531 Y0.066
X2.544 Y-0.115
X2.543 Y-0.296
X2.529 Y-0.479
X2.502 Y-0.663
X2.462 Y-0.845
X2.409 Y-1.021
X2.343 Y-1.197
X2.264 Y-1.37
X2.173 Y-1.536
X2.07 Y-1.695
X1.956 Y-1.847
X1.829 Y-1.994
X1.691 Y-2.131
X1.544 Y-2.258
X1.388 Y-2.375
X1.224 Y-2.48
X1.049 Y-2.576
X0.868 Y-2.659
X0.68 Y-2.728
X0.489 Y-2.785
X0.293 Y-2.828
X0.093 Y-2.857
X-0.111 Y-2.872
X-0.317
X-0.523 Y-2.858
X-0.727 Y-2.829
X-0.929 Y-2.785
X-1.129 Y-2.728
X-1.326 Y-2.655
X-1.519 Y-2.568
X-1.706 Y-2.466
X-1.886 Y-2.352
X-2.058 Y-2.224
X-2.221 Y-2.084
X-2.374 Y-1.932
X-2.517 Y-1.769
X-2.648 Y-1.596
X-2.767 Y-1.413
X-2.874 Y-1.22
X-2.967 Y-1.019
X-3.046 Y-0.811
X-3.111 Y-0.597
X-3.16 Y-0.378
X-3.194 Y-0.154
X-3.212 Y0.072
X-3.214 Y0.3
X-3.199 Y0.528
X-3.168 Y0.756
X-3.121 Y0.982
X-3.058 Y1.205
X-2.978 Y1.424
X-2.883 Y1.637
X-2.773 Y1.845
X-2.647 Y2.045
X-2.507 Y2.236
X-2.353 Y2.418
X-2.185 Y2.589
X-2.005 Y2.748
X-1.814 Y2.895
X-1.611 Y3.029
X-1.399 Y3.148
X-1.178 Y3.252
X-0.948 Y3.341
X-0.713 Y3.413
X-0.471 Y3.469
X-0.225 Y3.508
X0.024 Y3.529
X0.276 Y3.533
X0.528 Y3.518
X0.779 Y3.486
X1.029 Y3.435
X1.276 Y3.367
X1.518 Y3.281
X1.755 Y3.177
X1.984 Y3.056
X2.206 Y2.919
X2.418 Y2.765
X2.619 Y2.597
X2.809 Y2.413
X2.986 Y2.216
X3.149 Y2.006
X3.297 Y1.783
X3.43 Y1.55
X3.546 Y1.307
X3.646 Y1.055
X3.727 Y0.796
X3.79 Y0.531
X3.834 Y0.261
X3.859 Y-0.014
X3.865 Y-0.29
X3.85 Y-0.567
X3.816 Y-0.843
X3.763 Y-1.117
X3.689 Y-1.388
X3.596 Y-1.654
X3.484 Y-1.914
X3.354 Y-2.166
X3.205 Y-2.409
X3.038 Y-2.642
X2.855 Y-2.864
X2.655 Y-3.072
X2.441 Y-3.267
X2.212 Y-3.447
X1.97 Y-3.61
X1.716 Y-3.757
X1.451 Y-3.886
X1.177 Y-3.996
X0.894 Y-4.086
X0.605 Y-4.157
X0.31 Y-4.207
X0.011 Y-4.236
X-0.29 Y-4.244
X-0.469 Y-4.235
X-0.771 Y-4.209
X-1.072 Y-4.161
X-1.37 Y-4.092
X-1.663 Y-4.001
X-1.95 Y-3.889
X-2.229 Y-3.757
X-2.5 Y-3.605
X-2.759 Y-3.433
X-3.007 Y-3.242
X-3.242 Y-3.034
X-3.462 Y-2.808
X-3.666 Y-2.567
X-3.853 Y-2.31
X-4.022 Y-2.04
X-4.172 Y-1.757
X-4.302 Y-1.464
X-4.412 Y-1.16
X-4.499 Y-0.849
X-4.565 Y-0.531
X-4.608 Y-0.208
X-4.628 Y0.119
X-4.625 Y0.447
X-4.599 Y0.775
X-4.549 Y1.102
X-4.475 Y1.426
X-4.379 Y1.744
X-4.259 Y2.057
X-4.118 Y2.361
X-3.954 Y2.655
X-3.769 Y2.937
X-3.564 Y3.207
X-3.34 Y3.463
X-3.097 Y3.703
X-2.836 Y3.925
X-2.56 Y4.13
X-2.268 Y4.315
X-1.963 Y4.479
X-1.646 Y4.622
X-1.319 Y4.742
X-0.983 Y4.839
X-0.639 Y4.912
X-0.29 Y4.961
X0.063 Y4.985
X0.419 Y4.984
X0.774 Y4.957
X1.128 Y4.905
X1.478 Y4.828
X1.823 Y4.725
X2.162 Y4.598
X2.491 Y4.447
X2.81 Y4.272
X3.117 Y4.074
X3.41 Y3.854
X3.688 Y3.613
X3.949 Y3.352
X4.191 Y3.072
X4.413 Y2.775
X4.615 Y2.462
X4.794 Y2.134
X4.95 Y1.792
X5.082 Y1.44
X5.189 Y1.078
X5.27 Y0.708
X5.325 Y0.332
X5.352 Y-0.048
X5.353 Y-0.431
X5.327 Y-0.814
X5.273 Y-1.195
X5.192 Y-1.572
X5.084 Y-1.944
X4.95 Y-2.309
X4.789 Y-2.664
X4.603 Y-3.008
X4.393 Y-3.339
X4.159 Y-3.655
X3.901 Y-3.955
X3.623 Y-4.236
X3.324 Y-4.498
X3.006 Y-4.739
X2.671 Y-4.957
X2.32 Y-5.152
X1.956 Y-5.321
X1.589 Y-5.461
X1.199 Y-5.579
X0.8 Y-5.668
X0.396 Y-5.73
X-0.014 Y-5.762
X-0.425 Y-5.766
X-0.837 Y-5.74
X-1.246 Y-5.685
X-1.652 Y-5.6
X-2.053 Y-5.487
X-2.445 Y-5.345
X-2.827 Y-5.175
X-3.197 Y-4.977
X-3.553 Y-4.754
X-3.894 Y-4.504
X-4.217 Y-4.231
X-4.52 Y-3.934
X-4.803 Y-3.615
X-5.062 Y-3.277
X-5.298 Y-2.919
X-5.509 Y-2.545
X-5.693 Y-2.155
X-5.849 Y-1.753
X-5.976 Y-1.338
X-6.074 Y-0.915
X-6.142 Y-0.485
X-6.179 Y-0.049
X-6.186 Y0.389
X-6.161 Y0.828
X-6.104 Y1.266
X-6.017 Y1.699
X-5.898 Y2.127
X-5.749 Y2.546
X-5.571 Y2.954
X-5.363 Y3.35
X-5.126 Y3.732
X-4.863 Y4.096
X-4.573 Y4.442
X-4.258 Y4.768
X-3.921 Y5.071
X-3.561 Y5.35
X-3.182 Y5.604
X-2.784 Y5.831
X-2.37 Y6.029
X-1.941 Y6.198
X-1.501 Y6.337
X-1.05 Y6.444
X-0.592 Y6.519
X-0.128 Y6.561
X0.308 Y6.57
X0.776 Y6.549
X1.242 Y6.494
X1.705 Y6.406
X2.161 Y6.284
X2.609 Y6.131
X3.047 Y5.945
X3.471 Y5.728
X3.88 Y5.481
X4.271 Y5.204
X4.643 Y4.9
X4.993 Y4.569
X5.32 Y4.213
X5.621 Y3.834
X5.895 Y3.433
X6.141 Y3.012
X6.357 Y2.574
X6.542 Y2.121
X6.694 Y1.654
X6.813 Y1.176
X6.898 Y0.69
X6.949 Y0.198
X6.964 Y-0.298
X6.944 Y-0.795
X6.889 Y-1.291
X6.798 Y-1.783
X6.673 Y-2.269
X6.512 Y-2.745
X6.318 Y-3.21
X6.091 Y-3.662
X5.831 Y-4.097
X5.54 Y-4.514
X5.22 Y-4.91
X4.871 Y-5.283
X4.496 Y-5.632
X4.097 Y-5.952
X3.675 Y-6.245
X3.232 Y-6.507
X2.769 Y-6.739
X2.29 Y-6.937
X1.796 Y-7.102
X1.29 Y-7.231
X0.775 Y-7.325
X0.253 Y-7.381
X-0.273 Y-7.401
X-0.8 Y-7.383
X-1.326 Y-7.327
X-1.848 Y-7.234
X-2.364 Y-7.104
X-2.87 Y-6.937
X-3.364 Y-6.734
X-3.844 Y-6.496
X-4.306 Y-6.224
X-4.75 Y-5.919
X-5.171 Y-5.582
X-5.569 Y-5.215
X-5.94 Y-4.82
X-6.283 Y-4.398
X-6.596 Y-3.953
X-6.877 Y-3.484
X-7.125 Y-2.996
X-7.338 Y-2.491
X-7.515 Y-1.97
X-7.655 Y-1.436
X-7.757 Y-0.893
X-7.82 Y-0.342
X-7.844 Y0.213
X-7.828 Y0.769
X-7.773 Y1.325
X-7.678 Y1.876
X-7.544 Y2.421
X-7.371 Y2.956
X-7.16 Y3.478
X-6.912 Y3.986
X-6.627 Y4.475
X-6.308 Y4.945
X-5.955 Y5.391
X-5.571 Y5.813
X-5.157 Y6.207
X-4.715 Y6.571
X-4.246 Y6.904
X-3.754 Y7.204
X-3.241 Y7.468
X-2.709 Y7.696
X-2.161 Y7.886
X-1.599 Y8.037
X-1.027 Y8.147
X-0.446 Y8.217
X0.139 Y8.246
X0.726 Y8.233
X1.312 Y8.178
X1.894 Y8.082
X2.469 Y7.944
X3.034 Y7.765
X3.586 Y7.546
X3.978 Y7.357
X4.501 Y7.071
X5.003 Y6.748
X5.482 Y6.39
X5.936 Y5.997
X6.361 Y5.572
X6.756 Y5.117
X7.119 Y4.633
X7.447 Y4.124
X7.739 Y3.591
X7.993 Y3.038
X8.208 Y2.467
X8.381 Y1.881
X8.513 Y1.282
X8.603 Y0.675
X8.649 Y0.061
X8.651 Y-0.556
X8.609 Y-1.173
X8.523 Y-1.787
X8.394 Y-2.394
X8.222 Y-2.992
X8.006 Y-3.578
X7.75 Y-4.148
X7.452 Y-4.7
X7.116 Y-5.23
X6.742 Y-5.736
X6.332 Y-6.215
X5.889 Y-6.664
X5.413 Y-7.082
X4.908 Y-7.466
X4.375 Y-7.814
X3.818 Y-8.124
X3.238 Y-8.394
X2.64 Y-8.623
X2.025 Y-8.809
X1.397 Y-8.951
X0.759 Y-9.049
X0.115 Y-9.101
X-0.534 Y-9.107
X-1.182 Y-9.067
X-1.827 Y-8.981
X-2.466 Y-8.849
X-3.095 Y-8.671
X-3.712 Y-8.449
X-4.312 Y-8.183
X-4.893 Y-7.874
X-5.452 Y-7.524
X-5.986 Y-7.135
X-6.491 Y-6.707
X-6.966 Y-6.244
X-7.408 Y-5.747
X-7.814 Y-5.219
X-8.183 Y-4.662
X-8.511 Y-4.079
X-8.798 Y-3.474
X-9.042 Y-2.847
X-9.241 Y-2.204
X-9.394 Y-1.547
X-9.5 Y-0.88
X-9.559 Y-0.205
X-9.569 Y0.474
X-9.531 Y1.153
X-9.445 Y1.829
X-9.311 Y2.498
X-9.129 Y3.158
X-8.9 Y3.805
X-8.626 Y4.434
X-8.306 Y5.044
X-7.944 Y5.631
X-7.539 Y6.192
X-7.095 Y6.724
X-6.613 Y7.224
X-6.096 Y7.689
X-5.546 Y8.117
X-4.966 Y8.506
X-4.359 Y8.854
X-3.726 Y9.158
X-3.073 Y9.416
X-2.658 Y9.548
X-1.977 Y9.73
X-1.285 Y9.864
X-0.582 Y9.949
X0.126 Y9.984
X0.836 Y9.968
X1.545 Y9.901
X2.249 Y9.785
X2.939 Y9.619
X3.624 Y9.402
X4.293 Y9.137
X4.942 Y8.824
X5.568 Y8.465
X6.167 Y8.063
X6.738 Y7.618
X7.277 Y7.132
X7.78 Y6.609
X8.247 Y6.05
X8.673 Y5.458
X9.056 Y4.836
X9.395 Y4.187
X9.688 Y3.515
X9.933 Y2.822
X10.128 Y2.112
X10.272 Y1.388
X10.365 Y0.655
X10.406 Y-0.085
X10.394 Y-0.826
X10.329 Y-1.567
X10.211 Y-2.303
X10.041 Y-3.029
X9.82 Y-3.743
X9.548 Y-4.441
X9.226 Y-5.119
X8.856 Y-5.774
X8.44 Y-6.401
X7.98 Y-6.999
X7.477 Y-7.563
X6.935 Y-8.091
X6.355 Y-8.581
X5.741 Y-9.029
X5.095 Y-9.433
X4.42 Y-9.79
X3.721 Y-10.1
X2.999 Y-10.359
X2.26 Y-10.567
X1.506 Y-10.722
X0.742 Y-10.824
X-0.029 Y-10.871
X-0.803 Y-10.863
X-1.576 Y-10.8
X-2.344 Y-10.682
X-3.103 Y-10.509
X-3.849 Y-10.282
X-4.578 Y-10.003
X-5.287 Y-9.671
X-5.972 Y-9.29
X-6.63 Y-8.86
X-7.256 Y-8.383
X-7.848 Y-7.863
X-8.402 Y-7.3
X-8.916 Y-6.699
X-9.387 Y-6.061
X-9.811 Y-5.39
X-10.188 Y-4.69
X-10.515 Y-3.963
X-10.79 Y-3.213
X-10.91 Y-2.795
X-11.102 Y-2.033
X-11.24 Y-1.255
X-11.322 Y-0.465
X-11.349 Y0.333
X-11.318 Y1.134
X-11.231 Y1.933
X-11.086 Y2.727
X-10.885 Y3.51
X-10.628 Y4.279
X-10.316 Y5.03
X-9.951 Y5.758
X-9.534 Y6.459
X-9.068 Y7.131
X-8.554 Y7.768
X-7.995 Y8.369
X-7.394 Y8.93
X-6.753 Y9.447
X-6.076 Y9.919
X-5.389 Y10.327
X-4.642 Y10.703
X-3.871 Y11.024
X-3.079 Y11.29
X-2.27 Y11.499
X-1.447 Y11.649
X-0.615 Y11.741
X0.222 Y11.774
X1.059 Y11.747
X1.895 Y11.661
X2.724 Y11.515
X3.542 Y11.31
X4.344 Y11.047
X5.128 Y10.727
X5.887 Y10.352
X6.62 Y9.922
X7.321 Y9.442
X7.987 Y8.911
X8.615 Y8.334
X9.202 Y7.713
X9.743 Y7.05
X10.237 Y6.349
X10.681 Y5.614
X11.072 Y4.848
X11.408 Y4.054
X11.687 Y3.238
X11.908 Y2.402
X12.069 Y1.551
X12.17 Y0.69
X12.209 Y-0.178
X12.186 Y-1.048
X12.101 Y-1.915
X11.955 Y-2.774
X11.749 Y-3.62
X11.483 Y-4.45
X11.16 Y-5.259
X10.78 Y-6.043
X10.346 Y-6.798
X9.859 Y-7.521
X9.324 Y-8.208
X8.741 Y-8.855
X8.115 Y-9.46
X7.448 Y-10.021
X6.743 Y-10.533
X6.004 Y-10.994
X5.235 Y-11.403
X4.439 Y-11.758
X3.621 Y-12.057
X2.784 Y-12.298
X1.933 Y-12.481
X1.07 Y-12.605
X0.202 Y-12.669
X-0.67 Y-12.674
X-1.539 Y-12.619
X-2.402 Y-12.504
X-3.256 Y-12.331
X-4.096 Y-12.1
X-4.918 Y-11.813
X-5.719 Y-11.47
X-6.495 Y-11.074
X-7.242 Y-10.626
X-7.957 Y-10.128
X-8.637 Y-9.584
X-9.279 Y-8.995
X-9.88 Y-8.364
X-10.437 Y-7.694
X-10.947 Y-6.988
X-11.409 Y-6.25
X-11.819 Y-5.481
X-12.174 Y-4.686
X-12.478 Y-3.869
X-12.728 Y-3.035
X-12.923 Y-2.186
X-13.061 Y-1.326
X-13.141 Y-0.458
X-13.163 Y0.412
X-13.126 Y1.283
X-13.032 Y2.149
X-12.88 Y3.006
X-12.672 Y3.852
X-12.409 Y4.683
X-12.091 Y5.494
X-11.722 Y6.283
X-11.301 Y7.046
X-10.832 Y7.78
X-10.317 Y8.482
X-9.756 Y9.149
X-9.154 Y9.778
X-8.511 Y10.366
X-7.831 Y10.91
X-7.116 Y11.408
X-6.37 Y11.858
X-5.597 Y12.259
X-4.8 Y12.61
X-3.981 Y12.909
X-3.146 Y13.155
X-2.296 Y13.347
X-1.436 Y13.486
X-0.569 Y13.568
X0.302 Y13.594
X1.172 Y13.563
X2.039 Y13.476
X2.899 Y13.334
X3.747 Y13.138
X4.582 Y12.888
X5.399 Y12.587
X6.196 Y12.235
X6.969 Y11.834
X7.715 Y11.384
X8.43 Y10.886
X9.112 Y10.344
X9.758 Y9.76
X10.367 Y9.137
X10.935 Y8.477
X11.462 Y7.783
X11.945 Y7.058
X12.381 Y6.304
X12.768 Y5.523
X13.104 Y4.72
X13.39 Y3.897
X13.623 Y3.058
X13.805 Y2.206
X13.934 Y1.344
X14.011 Y0.476
X14.033 Y-0.394
X14. Y-1.265
X13.912 Y-2.131
X13.771 Y-2.991
X13.577 Y-3.84
X13.332 Y-4.676
X13.036 Y-5.496
X12.692 Y-6.296
X12.299 Y-7.073
X11.857 Y-7.824
X11.37 Y-8.546
X10.839 Y-9.237
X10.268 Y-9.894
X9.658 Y-10.516
X9.011 Y-11.1
X8.331 Y-11.644
X7.618 Y-12.145
X6.876 Y-12.601
X6.107 Y-13.01
X5.314 Y-13.372
X4.502 Y-13.685
X3.672 Y-13.95
X2.828 Y-14.165
X1.972 Y-14.329
X1.108 Y-14.44
X0.239 Y-14.498
X-0.632 Y-14.504
X-1.502 Y-14.457
X-2.368 Y-14.359
X-3.226 Y-14.209
X-4.074 Y-14.01
X-4.909 Y-13.761
X-5.727 Y-13.462
X-6.525 Y-13.114
X-7.301 Y-12.718
X-8.053 Y-12.278
X-8.777 Y-11.794
X-9.472 Y-11.268
X-10.135 Y-10.703
X-10.764 Y-10.101
X-11.355 Y-9.461
X-11.907 Y-8.787
X-12.418 Y-8.081
X-12.885 Y-7.346
X-13.309 Y-6.585
X-13.688 Y-5.801
X-14.021 Y-4.996
X-14.308 Y-4.173
X-14.546 Y-3.335
X-14.733 Y-2.485
X-14.87 Y-1.625
X-14.957 Y-0.758
X-14.993 Y0.113
X-14.978 Y0.984
X-14.914 Y1.852
X-14.799 Y2.716
X-14.673 Y3.371
X-14.653 Y3.463
X-14.524 Y4.056
X-14.466 Y4.254
X-14.404 Y4.452
X-14.333 Y4.65
X-13.816 Y6.035
X-13.751 Y6.203
X-13.739 Y6.233
X-13.641 Y6.43
X-13.101 Y7.42
X-12.96 Y7.673
X-12.655 Y8.211
X-12.564 Y8.337
X-11.621 Y9.596
X-11.377 Y9.904
X-11.298 Y9.992
X-9.992 Y11.298
X-9.904 Y11.377
X-9.596 Y11.621
X-8.337 Y12.564
X-8.211 Y12.655
X-7.618 Y12.991
X-7.315 Y13.158
X-6.43 Y13.641
X-6.233 Y13.739
X-6.203 Y13.751
X-6.035 Y13.816
X-4.618 Y14.345
X-4.452 Y14.404
X-4.254 Y14.466
X-4.056 Y14.524
X-2.869 Y14.782
X-2.671 Y14.824
X-2.078 Y14.941
X-1.88 Y14.958
X-0.099 Y15.086
X0.099
X1.88 Y14.958
X2.078 Y14.941
X2.671 Y14.824
X2.869 Y14.782
X4.056 Y14.524
X4.254 Y14.466
X4.452 Y14.404
X4.65 Y14.333
X6.035 Y13.816
X6.203 Y13.751
X6.233 Y13.739
X6.43 Y13.641
X7.42 Y13.101
X7.673 Y12.96
X8.211 Y12.655
X8.337 Y12.564
X9.596 Y11.621
X9.904 Y11.377
X9.992 Y11.298
X11.298 Y9.992
X11.377 Y9.904
X11.621 Y9.596
X12.564 Y8.337
X12.655 Y8.211
X12.991 Y7.618
X13.158 Y7.315
X13.641 Y6.43
X13.739 Y6.233
X13.751 Y6.203
X13.816 Y6.035
X14.345 Y4.618
X14.404 Y4.452
X14.466 Y4.254
X14.524 Y4.056
X14.782 Y2.869
X14.824 Y2.671
X14.941 Y2.078
X14.958 Y1.88
X15.086 Y0.099
Y-0.099
X14.958 Y-1.88
X14.941 Y-2.078
X14.824 Y-2.671
X14.782 Y-2.869
X14.524 Y-4.056
X14.466 Y-4.254
X14.404 Y-4.452
X14.333 Y-4.65
X13.816 Y-6.035
X13.751 Y-6.203
X13.739 Y-6.233
X13.641 Y-6.43
X13.101 Y-7.42
X12.96 Y-7.673
X12.655 Y-8.211
X12.564 Y-8.337
X11.621 Y-9.596
X11.377 Y-9.904
X11.298 Y-9.992
X9.992 Y-11.298
X9.904 Y-11.377
X9.596 Y-11.621
X8.337 Y-12.564
X8.211 Y-12.655
X7.618 Y-12.991
X7.315 Y-13.158
X6.43 Y-13.641
X6.233 Y-13.739
X6.203 Y-13.751
X6.035 Y-13.816
X4.618 Y-14.345
X4.452 Y-14.404
X4.254 Y-14.466
X4.056 Y-14.524
X2.869 Y-14.782
X2.671 Y-14.824
X2.078 Y-14.941
X1.88 Y-14.958
X0.099 Y-15.086
X-0.099
X-1.88 Y-14.958
X-2.078 Y-14.941
X-2.671 Y-14.824
X-2.869 Y-14.782
X-4.056 Y-14.524
X-4.254 Y-14.466
X-4.452 Y-14.404
X-4.65 Y-14.333
X-6.035 Y-13.816
X-6.203 Y-13.751
X-6.233 Y-13.739
X-6.43 Y-13.641
X-7.42 Y-13.101
X-7.673 Y-12.96
X-8.211 Y-12.655
X-8.337 Y-12.564
X-9.596 Y-11.621
X-9.904 Y-11.377
X-9.992 Y-11.298
X-11.298 Y-9.992
X-11.377 Y-9.904
X-11.621 Y-9.596
X-12.564 Y-8.337
X-12.655 Y-8.211
X-12.991 Y-7.618
X-13.158 Y-7.315
X-13.641 Y-6.43
X-13.739 Y-6.233
X-13.751 Y-6.203
X-13.816 Y-6.035
X-14.345 Y-4.618
X-14.404 Y-4.452
X-14.466 Y-4.254
X-14.524 Y-4.056
X-14.782 Y-2.869
X-14.824 Y-2.671
X-14.941 Y-2.078
X-14.958 Y-1.88
X-15.086 Y-0.099
Y0.099
X-14.958 Y1.88
X-14.941 Y2.078
X-14.824 Y2.671
X-14.782 Y2.869
X-14.673 Y3.371
X-14.652 Y3.437
X-14.624 Y3.499
X-14.588 Y3.557
X-14.537 Y3.609 Z-3.995
X-14.486 Y3.659 Z-3.982
X-14.437 Y3.708 Z-3.959
X-14.365 Y3.739 Z-3.92
X-14.3 Y3.768 Z-3.87
X-14.242 Y3.793 Z-3.81
X-14.185 Y3.8 Z-3.737
X-14.141 Y3.805 Z-3.655
X-14.111 Y3.808 Z-3.567
X-14.097 Z-3.494
X-14.092 Z-3.42
G0 Z5.
X-42.098 Y48.174
Z-6.84
G1 Z-7.42 F1440.
X-42.096 Y48.167 Z-7.511
X-42.091 Y48.146 Z-7.599
X-42.082 Y48.112 Z-7.683
X-42.071 Y48.066 Z-7.761
X-42.056 Y48.009 Z-7.83
X-42.039 Y47.942 Z-7.889
X-42.019 Y47.867 Z-7.937
X-41.999 Y47.785 Z-7.972
X-41.977 Y47.7 Z-7.993
X-41.954 Y47.612 Z-8.
G2 X-41.5 Y44.454 I-14.344 J-3.674
G1 Y44.36
X-41.77 Y43.532
X-41.962 Y42.682
X-42.097 Y41.821
X-42.191 Y40.955
X-42.256 Y40.087
X-42.301 Y39.217
X-42.332 Y38.346
X-42.354 Y37.475
X-42.368 Y36.604
X-42.378 Y35.733
X-42.385 Y34.862
X-42.39 Y33.991
X-42.393 Y33.12
X-42.397 Y31.378
X-42.399 Y27.894
X-42.4 Y1.76
Y-6.079
Y-39.181
X-42.259 Y-39.594
X-42.077 Y-39.989
X-41.511 Y-40.651
X-40.798 Y-41.152
X-40.009 Y-41.52
X-39.179 Y-41.785
X-38.328 Y-41.972
X-37.467 Y-42.104
X-36.601 Y-42.196
X-35.732 Y-42.26
X-34.862 Y-42.304
X-33.992 Y-42.334
X-33.121 Y-42.355
X-32.25 Y-42.369
X-31.379 Y-42.379
X-30.508 Y-42.385
X-29.637 Y-42.39
X-27.894 Y-42.395
X-26.152 Y-42.398
X-21.797 Y-42.4
X24.372
X39.181
X39.593 Y-42.26
X39.989 Y-42.078
X40.651 Y-41.512
X41.152 Y-40.799
X41.52 Y-40.01
X41.784 Y-39.18
X41.972 Y-38.329
X42.104 Y-37.468
X42.196 Y-36.602
X42.26 Y-35.733
X42.304 Y-34.863
X42.334 Y-33.992
X42.355 Y-33.122
X42.369 Y-32.251
X42.379 Y-31.379
X42.385 Y-30.508
X42.39 Y-29.637
X42.395 Y-27.895
X42.399 Y-25.282
X42.4 Y-18.313
Y-7.86
Y39.18
X42.26 Y39.592
X42.078 Y39.988
X41.512 Y40.65
X40.8 Y41.152
X40.01 Y41.519
X39.18 Y41.784
X38.33 Y41.972
X37.469 Y42.104
X36.602 Y42.196
X35.734 Y42.26
X34.864 Y42.304
X33.993 Y42.334
X33.122 Y42.355
X32.251 Y42.369
X31.38 Y42.379
X30.509 Y42.385
X29.638 Y42.39
X27.896 Y42.395
X25.283 Y42.399
X18.314 Y42.4
X-10.433
X-36.566
X-37.434 Y42.328
X-38.267 Y42.075
X-38.634 Y41.84
X-39.251 Y41.225
X-39.659 Y40.455
X-39.923 Y39.625
X-40.093 Y38.771
X-40.202 Y37.906
X-40.272 Y37.038
X-40.317 Y36.168
X-40.346 Y35.298
X-40.365 Y34.427
X-40.377 Y33.556
X-40.385 Y32.685
X-40.39 Y31.814
X-40.393 Y30.942
X-40.397 Y29.2
X-40.399 Y25.716
X-40.4 Y20.489
Y-30.035
Y-37.004
X-40.329 Y-37.433
X-40.171 Y-37.839
X-39.706 Y-38.576
X-39.034 Y-39.13
X-38.257 Y-39.524
X-37.43 Y-39.799
X-36.58 Y-39.989
X-35.719 Y-40.119
X-34.852 Y-40.208
X-33.983 Y-40.269
X-33.113 Y-40.311
X-32.243 Y-40.339
X-31.372 Y-40.359
X-30.501 Y-40.372
X-29.63 Y-40.381
X-28.759 Y-40.387
X-27.888 Y-40.391
X-26.145 Y-40.396
X-23.532 Y-40.399
X-15.692 Y-40.4
X1.73
X37.01
X37.439 Y-40.328
X37.844 Y-40.168
X38.58 Y-39.702
X39.133 Y-39.029
X39.526 Y-38.251
X39.8 Y-37.424
X39.99 Y-36.574
X40.12 Y-35.713
X40.209 Y-34.846
X40.27 Y-33.977
X40.311 Y-33.107
X40.339 Y-32.237
X40.359 Y-31.366
X40.372 Y-30.495
X40.381 Y-29.624
X40.387 Y-28.753
X40.391 Y-27.881
X40.394 Y-27.01
X40.397 Y-25.268
X40.399 Y-21.784
X40.4 Y23.514
Y37.016
X40.327 Y37.445
X40.166 Y37.85
X39.698 Y38.584
X39.023 Y39.136
X38.246 Y39.528
X37.419 Y39.802
X36.568 Y39.991
X35.707 Y40.121
X34.84 Y40.209
X33.971 Y40.27
X33.101 Y40.311
X32.231 Y40.34
X31.36 Y40.359
X30.489 Y40.372
X29.618 Y40.381
X28.747 Y40.387
X27.875 Y40.391
X26.133 Y40.396
X23.52 Y40.399
X15.68 Y40.4
X5.227
X-34.844
X-35.715 Y40.381
X-36.121 Y40.223
X-36.846 Y39.741
X-37.365 Y39.041
X-37.718 Y38.245
X-37.954 Y37.406
X-38.109 Y36.549
X-38.21 Y35.684
X-38.277 Y34.815
X-38.32 Y33.945
X-38.348 Y33.075
X-38.366 Y32.204
X-38.378 Y31.333
X-38.385 Y30.462
X-38.39 Y29.591
X-38.394 Y28.72
X-38.397 Y26.977
X-38.399 Y23.493
X-38.4 Y-18.32
Y-34.871
X-38.374 Y-35.306
X-38.264 Y-35.727
X-38.068 Y-36.116
X-37.539 Y-36.808
X-36.827 Y-37.31
X-36.029 Y-37.66
X-35.192 Y-37.9
X-34.336 Y-38.063
X-33.472 Y-38.173
X-32.604 Y-38.247
X-31.734 Y-38.297
X-30.864 Y-38.33
X-29.993 Y-38.353
X-29.122 Y-38.368
X-28.251 Y-38.378
X-27.38 Y-38.385
X-26.509 Y-38.39
X-25.638 Y-38.393
X-23.896 Y-38.397
X-20.411 Y-38.399
X-6.474 Y-38.4
X35.339
X35.758 Y-38.279
X36.143 Y-38.075
X36.826 Y-37.535
X37.322 Y-36.819
X37.668 Y-36.02
X37.906 Y-35.182
X38.067 Y-34.326
X38.175 Y-33.461
X38.248 Y-32.593
X38.298 Y-31.723
X38.331 Y-30.853
X38.353 Y-29.982
X38.368 Y-29.111
X38.379 Y-28.24
X38.386 Y-27.369
X38.39 Y-26.498
X38.393 Y-25.627
X38.397 Y-23.885
X38.399 Y-20.4
X38.4 Y13.573
Y19.67
Y35.35
X38.277 Y35.768
X38.07 Y36.152
X37.528 Y36.833
X36.81 Y37.327
X36.01 Y37.672
X35.172 Y37.908
X34.316 Y38.068
X33.451 Y38.176
X32.583 Y38.249
X31.713 Y38.298
X30.843 Y38.331
X29.972 Y38.353
X29.101 Y38.369
X28.23 Y38.379
X27.359 Y38.386
X26.488 Y38.39
X25.617 Y38.393
X23.875 Y38.397
X20.39 Y38.399
X4.71 Y38.4
X-32.747
X-33.618 Y38.399
X-34.031 Y38.262
X-34.403 Y38.035
X-35.05 Y37.452
X-35.504 Y36.708
X-35.809 Y35.892
X-36.013 Y35.045
X-36.146 Y34.184
X-36.234 Y33.317
X-36.292 Y32.448
X-36.329 Y31.578
X-36.354 Y30.707
X-36.37 Y29.836
X-36.38 Y28.965
X-36.387 Y28.094
X-36.392 Y27.223
X-36.395 Y26.352
X-36.398 Y24.61
X-36.4 Y21.125
Y-23.301
Y-32.883
X-36.381 Y-33.318
X-36.282 Y-33.742
X-36.092 Y-34.134
X-35.57 Y-34.832
X-34.858 Y-35.334
X-34.06 Y-35.682
X-33.221 Y-35.918
X-32.365 Y-36.077
X-31.5 Y-36.184
X-30.632 Y-36.256
X-29.762 Y-36.304
X-28.892 Y-36.335
X-28.021 Y-36.357
X-27.15 Y-36.371
X-26.279 Y-36.38
X-25.408 Y-36.387
X-24.537 Y-36.391
X-22.795 Y-36.396
X-20.181 Y-36.399
X-11.47 Y-36.4
X2.467
X32.956
X33.391 Y-36.374
X33.811 Y-36.259
X34.196 Y-36.056
X34.878 Y-35.514
X35.367 Y-34.793
X35.705 Y-33.99
X35.934 Y-33.15
X36.088 Y-32.293
X36.192 Y-31.428
X36.261 Y-30.559
X36.307 Y-29.689
X36.338 Y-28.819
X36.358 Y-27.948
X36.372 Y-27.077
X36.381 Y-26.206
X36.387 Y-25.335
X36.391 Y-24.464
X36.396 Y-22.722
X36.399 Y-20.108
Y-18.366
X36.4 Y32.158
Y33.029
X36.364 Y33.463
X36.232 Y33.878
X36.016 Y34.256
X35.455 Y34.923
X34.725 Y35.399
X33.918 Y35.727
X33.076 Y35.949
X32.218 Y36.099
X31.353 Y36.199
X30.484 Y36.265
X29.614 Y36.31
X28.743 Y36.34
X27.873 Y36.36
X27.002 Y36.373
X26.131 Y36.382
X25.259 Y36.388
X24.388 Y36.392
X22.646 Y36.396
X20.033 Y36.399
X10.451 Y36.4
X-11.327
X-31.362
X-31.79 Y36.32
X-32.187 Y36.141
X-32.89 Y35.626
X-33.39 Y34.912
X-33.73 Y34.111
X-33.959 Y33.27
X-34.11 Y32.412
X-34.21 Y31.547
X-34.276 Y30.678
X-34.319 Y29.808
X-34.347 Y28.937
X-34.365 Y28.067
X-34.377 Y27.196
X-34.385 Y26.325
X-34.39 Y25.453
X-34.394 Y24.582
X-34.397 Y22.84
X-34.399 Y19.356
X-34.4 Y7.16
Y-31.168
X-34.342 Y-31.6
X-34.187 Y-32.007
X-33.716 Y-32.74
X-33.027 Y-33.273
X-32.238 Y-33.643
X-31.404 Y-33.894
X-30.55 Y-34.063
X-29.686 Y-34.175
X-28.818 Y-34.251
X-27.948 Y-34.301
X-27.078 Y-34.334
X-26.207 Y-34.356
X-25.336 Y-34.371
X-24.465 Y-34.38
X-23.594 Y-34.387
X-22.723 Y-34.391
X-20.981 Y-34.396
X-18.367 Y-34.399
X-9.656 Y-34.4
X26.93
X31.285
X31.713 Y-34.316
X32.11 Y-34.137
X32.819 Y-33.631
X33.329 Y-32.925
X33.681 Y-32.128
X33.92 Y-31.29
X34.08 Y-30.434
X34.187 Y-29.569
X34.258 Y-28.701
X34.306 Y-27.831
X34.337 Y-26.961
X34.358 Y-26.09
X34.372 Y-25.219
X34.381 Y-24.348
X34.388 Y-23.477
X34.392 Y-22.606
X34.396 Y-20.864
X34.399 Y-18.25
X34.4 Y-8.668
Y10.496
Y31.403
X34.287 Y31.823
X34.084 Y32.209
X33.544 Y32.892
X32.823 Y33.38
X32.019 Y33.716
X31.178 Y33.943
X30.32 Y34.096
X29.455 Y34.198
X28.587 Y34.266
X27.717 Y34.311
X26.846 Y34.341
X25.975 Y34.36
X25.104 Y34.374
X24.233 Y34.382
X23.362 Y34.388
X22.491 Y34.392
X20.749 Y34.396
X18.136 Y34.399
X7.682 Y34.4
X5.94
X-29.34
X-29.769 Y34.324
X-30.166 Y34.146
X-30.872 Y33.636
X-31.375 Y32.925
X-31.72 Y32.125
X-31.951 Y31.285
X-32.105 Y30.428
X-32.206 Y29.562
X-32.273 Y28.694
X-32.317 Y27.824
X-32.346 Y26.953
X-32.364 Y26.082
X-32.377 Y25.211
X-32.385 Y24.34
X-32.39 Y23.469
X-32.393 Y22.598
X-32.397 Y20.856
X-32.399 Y17.371
X-32.4 Y-29.233
X-32.338 Y-29.664
X-32.174 Y-30.067
X-31.688 Y-30.79
X-30.99 Y-31.311
X-30.196 Y-31.671
X-29.36 Y-31.915
X-28.504 Y-32.078
X-27.64 Y-32.187
X-26.772 Y-32.259
X-25.902 Y-32.306
X-25.032 Y-32.338
X-24.161 Y-32.359
X-23.29 Y-32.373
X-22.419 Y-32.382
X-21.548 Y-32.388
X-20.677 Y-32.392
X-18.934 Y-32.396
X-16.321 Y-32.399
X-5.868 Y-32.4
X16.781
X28.976
X29.411 Y-32.383
X29.834 Y-32.276
X30.221 Y-32.076
X30.905 Y-31.537
X31.392 Y-30.815
X31.727 Y-30.011
X31.953 Y-29.169
X32.104 Y-28.312
X32.204 Y-27.446
X32.27 Y-26.578
X32.314 Y-25.708
X32.343 Y-24.837
X32.362 Y-23.966
X32.375 Y-23.095
X32.383 Y-22.224
X32.389 Y-21.353
X32.393 Y-20.482
X32.397 Y-18.74
X32.399 Y-15.255
X32.4 Y3.909
Y29.171
X32.348 Y29.603
X32.197 Y30.012
X31.729 Y30.747
X31.041 Y31.281
X30.252 Y31.651
X29.418 Y31.901
X28.563 Y32.068
X27.699 Y32.18
X26.831 Y32.254
X25.961 Y32.303
X25.091 Y32.336
X24.22 Y32.358
X23.349 Y32.372
X22.478 Y32.381
X21.607 Y32.388
X20.736 Y32.392
X18.994 Y32.396
X16.38 Y32.399
X8.541 Y32.4
X-27.175
X-27.608 Y32.359
X-28.02 Y32.217
X-28.39 Y31.987
X-29.036 Y31.403
X-29.49 Y30.659
X-29.798 Y29.845
X-30.004 Y28.998
X-30.14 Y28.138
X-30.229 Y27.271
X-30.288 Y26.402
X-30.327 Y25.532
X-30.352 Y24.661
X-30.369 Y23.79
X-30.38 Y22.919
X-30.387 Y22.048
X-30.391 Y21.177
X-30.393 Y20.555
X-30.421 Y20.28
X-30.5 Y20.015
X-30.627 Y19.77
X-31.195 Y18.896
X-31.361 Y18.636
X-31.571 Y18.302
X-31.685 Y18.104
X-31.757 Y17.956
X-31.777 Y17.906
X-31.848 Y17.708
X-31.906 Y17.511
X-31.95 Y17.313
X-31.979 Y17.115
X-31.992 Y16.917
X-31.994 Y16.719
X-31.984 Y16.521
X-31.954 Y16.312
X-31.915 Y16.126
X-31.86 Y15.928
X-31.789 Y15.73
X-31.757 Y15.644
X-31.703 Y15.532
X-31.595 Y15.334
X-31.508 Y15.174
X-31.354 Y14.855
X-31.191 Y14.444
X-31.02 Y13.903
X-30.84 Y13.157
X-30.697 Y12.298
X-30.602 Y11.432
X-30.537 Y10.563
X-30.493 Y9.693
X-30.464 Y8.822
X-30.444 Y7.951
X-30.43 Y7.08
X-30.42 Y6.209
X-30.414 Y5.338
X-30.409 Y4.467
X-30.404 Y2.725
X-30.401 Y0.112
X-30.4 Y-6.857
Y-13.435
X-30.435 Y-13.751
X-30.538 Y-14.051
X-30.703 Y-14.322
X-30.924 Y-14.551
X-30.965 Y-14.585
X-31.163 Y-14.771
X-31.317 Y-14.938
X-31.47 Y-15.136
X-31.559 Y-15.274
X-31.595 Y-15.334
X-31.703 Y-15.532
X-31.757 Y-15.644
X-31.789 Y-15.73
X-31.86 Y-15.928
X-31.915 Y-16.126
X-31.954 Y-16.312
X-31.984 Y-16.521
X-31.994 Y-16.719
X-31.992 Y-16.917
X-31.979 Y-17.115
X-31.95 Y-17.313
X-31.906 Y-17.511
X-31.848 Y-17.708
X-31.777 Y-17.906
X-31.757 Y-17.956
X-31.685 Y-18.104
X-31.571 Y-18.302
X-31.498 Y-18.432
X-31.344 Y-18.756
X-31.18 Y-19.174
X-31.008 Y-19.727
X-30.828 Y-20.491
X-30.689 Y-21.351
X-30.596 Y-22.217
X-30.533 Y-23.086
X-30.491 Y-23.956
X-30.462 Y-24.827
X-30.442 Y-25.698
X-30.429 Y-26.569
X-30.417 Y-27.44
X-30.304 Y-27.86
X-30.099 Y-28.244
X-29.553 Y-28.923
X-28.828 Y-29.406
X-28.022 Y-29.738
X-27.18 Y-29.961
X-26.322 Y-30.11
X-25.457 Y-30.208
X-24.588 Y-30.274
X-23.718 Y-30.317
X-22.847 Y-30.345
X-21.976 Y-30.364
X-21.105 Y-30.376
X-20.566 Y-30.381
X-20.294 Y-30.409
X-20.032 Y-30.488
X-19.79 Y-30.615
X-18.896 Y-31.195
X-18.636 Y-31.361
X-18.302 Y-31.571
X-18.104 Y-31.685
X-17.956 Y-31.757
X-17.906 Y-31.777
X-17.708 Y-31.848
X-17.511 Y-31.906
X-17.313 Y-31.95
X-17.115 Y-31.979
X-16.917 Y-31.992
X-16.719 Y-31.994
X-16.521 Y-31.984
X-16.312 Y-31.954
X-16.126 Y-31.915
X-15.928 Y-31.86
X-15.73 Y-31.789
X-15.644 Y-31.757
X-15.532 Y-31.703
X-15.334 Y-31.595
X-15.173 Y-31.508
X-14.855 Y-31.354
X-14.444 Y-31.191
X-13.903 Y-31.02
X-13.158 Y-30.84
X-12.298 Y-30.697
X-11.433 Y-30.602
X-10.564 Y-30.537
X-9.694 Y-30.493
X-8.823 Y-30.464
X-7.952 Y-30.444
X-7.081 Y-30.43
X-6.21 Y-30.42
X-5.339 Y-30.414
X-4.468 Y-30.409
X-2.726 Y-30.404
X-0.113 Y-30.401
X6.856 Y-30.4
X13.435
X13.751 Y-30.435
X14.051 Y-30.538
X14.322 Y-30.703
X14.551 Y-30.924
X14.585 Y-30.965
X14.771 Y-31.163
X14.938 Y-31.317
X15.136 Y-31.47
X15.274 Y-31.559
X15.334 Y-31.595
X15.532 Y-31.703
X15.644 Y-31.757
X15.73 Y-31.789
X15.928 Y-31.86
X16.126 Y-31.915
X16.312 Y-31.954
X16.521 Y-31.984
X16.719 Y-31.994
X16.917 Y-31.992
X17.115 Y-31.979
X17.313 Y-31.95
X17.511 Y-31.906
X17.708 Y-31.848
X17.906 Y-31.777
X17.956 Y-31.757
X18.104 Y-31.685
X18.302 Y-31.571
X18.432 Y-31.498
X18.756 Y-31.344
X19.174 Y-31.18
X19.727 Y-31.008
X20.491 Y-30.828
X21.351 Y-30.689
X22.217 Y-30.596
X23.086 Y-30.533
X23.956 Y-30.491
X24.827 Y-30.462
X25.698 Y-30.442
X26.569 Y-30.429
X27.44 Y-30.417
X27.859 Y-30.301
X28.243 Y-30.096
X28.922 Y-29.55
X29.405 Y-28.825
X29.736 Y-28.019
X29.959 Y-27.177
X30.108 Y-26.319
X30.207 Y-25.453
X30.273 Y-24.585
X30.316 Y-23.715
X30.345 Y-22.844
X30.363 Y-21.973
X30.376 Y-21.102
X30.381 Y-20.566
X30.409 Y-20.294
X30.488 Y-20.032
X30.615 Y-19.79
X31.195 Y-18.896
X31.361 Y-18.636
X31.571 Y-18.302
X31.685 Y-18.104
X31.757 Y-17.956
X31.777 Y-17.906
X31.848 Y-17.708
X31.906 Y-17.511
X31.95 Y-17.313
X31.979 Y-17.115
X31.992 Y-16.917
X31.994 Y-16.719
X31.984 Y-16.521
X31.954 Y-16.312
X31.915 Y-16.126
X31.86 Y-15.928
X31.789 Y-15.73
X31.757 Y-15.644
X31.703 Y-15.532
X31.595 Y-15.334
X31.508 Y-15.173
X31.354 Y-14.855
X31.191 Y-14.444
X31.02 Y-13.903
X30.84 Y-13.158
X30.697 Y-12.298
X30.602 Y-11.433
X30.537 Y-10.564
X30.493 Y-9.694
X30.464 Y-8.823
X30.444 Y-7.952
X30.43 Y-7.081
X30.42 Y-6.21
X30.414 Y-5.339
X30.409 Y-4.468
X30.404 Y-2.726
X30.401 Y-0.113
X30.4 Y6.856
Y13.435
X30.435 Y13.751
X30.538 Y14.051
X30.703 Y14.322
X30.924 Y14.551
X30.965 Y14.585
X31.163 Y14.771
X31.317 Y14.938
X31.47 Y15.136
X31.559 Y15.274
X31.595 Y15.334
X31.703 Y15.532
X31.757 Y15.644
X31.789 Y15.73
X31.86 Y15.928
X31.915 Y16.126
X31.954 Y16.312
X31.984 Y16.521
X31.994 Y16.719
X31.992 Y16.917
X31.979 Y17.115
X31.95 Y17.313
X31.906 Y17.511
X31.848 Y17.708
X31.777 Y17.906
X31.757 Y17.956
X31.685 Y18.104
X31.571 Y18.302
X31.498 Y18.432
X31.344 Y18.756
X31.18 Y19.174
X31.008 Y19.727
X30.828 Y20.491
X30.689 Y21.351
X30.596 Y22.217
X30.533 Y23.086
X30.491 Y23.956
X30.462 Y24.827
X30.442 Y25.698
X30.429 Y26.569
X30.417 Y27.44
X30.304 Y27.86
X30.099 Y28.244
X29.553 Y28.923
X28.828 Y29.406
X28.022 Y29.738
X27.18 Y29.961
X26.322 Y30.11
X25.456 Y30.208
X24.588 Y30.273
X23.718 Y30.316
X22.847 Y30.345
X21.976 Y30.364
X21.105 Y30.376
X20.566 Y30.381
X20.294 Y30.409
X20.032 Y30.488
X19.79 Y30.615
X18.896 Y31.195
X18.636 Y31.361
X18.302 Y31.571
X18.104 Y31.685
X17.956 Y31.757
X17.906 Y31.777
X17.708 Y31.848
X17.511 Y31.906
X17.313 Y31.95
X17.115 Y31.979
X16.917 Y31.992
X16.719 Y31.994
X16.521 Y31.984
X16.312 Y31.954
X16.126 Y31.915
X15.928 Y31.86
X15.73 Y31.789
X15.644 Y31.757
X15.532 Y31.703
X15.334 Y31.595
X15.173 Y31.508
X14.855 Y31.354
X14.444 Y31.191
X13.903 Y31.02
X13.158 Y30.84
X12.298 Y30.697
X11.433 Y30.602
X10.564 Y30.537
X9.694 Y30.493
X8.823 Y30.464
X7.952 Y30.444
X7.081 Y30.43
X6.21 Y30.42
X5.339 Y30.414
X4.468 Y30.409
X2.726 Y30.404
X0.113 Y30.401
X-6.856 Y30.4
X-13.435
X-13.751 Y30.435
X-14.051 Y30.538
X-14.322 Y30.703
X-14.551 Y30.924
X-14.585 Y30.965
X-14.771 Y31.163
X-14.938 Y31.317
X-15.136 Y31.47
X-15.274 Y31.559
X-15.334 Y31.595
X-15.532 Y31.703
X-15.644 Y31.757
X-15.73 Y31.789
X-15.928 Y31.86
X-16.126 Y31.915
X-16.312 Y31.954
X-16.521 Y31.984
X-16.719 Y31.994
X-16.917 Y31.992
X-17.115 Y31.979
X-17.313 Y31.95
X-17.511 Y31.906
X-17.708 Y31.848
X-17.906 Y31.777
X-17.956 Y31.757
X-18.104 Y31.685
X-18.302 Y31.571
X-18.432 Y31.498
X-18.756 Y31.344
X-19.174 Y31.18
X-19.727 Y31.008
X-20.491 Y30.828
X-21.351 Y30.689
X-22.217 Y30.596
X-23.086 Y30.533
X-23.956 Y30.491
X-24.827 Y30.462
X-25.262 Y30.45
X-25.691 Y30.376
X-26.093 Y30.208
X-26.811 Y29.715
X-27.332 Y29.016
X-27.689 Y28.222
X-27.929 Y27.384
X-28.089 Y26.528
X-28.196 Y25.663
X-28.266 Y24.795
X-28.312 Y23.925
X-28.33 Y23.405
X-28.374 Y23.097
X-28.483 Y22.805
X-28.652 Y22.543
X-29.203 Y21.864
X-29.515 Y21.468
X-29.58 Y21.379
X-29.911 Y20.874
X-30.627 Y19.77
X-30.644 Y19.755
G3 X-31.618 Y18.924 I1.388 J-2.611
G1 X-31.663 Y18.854
X-31.698 Y18.777
X-31.722 Y18.697
X-32.142 Y16.745
X-32.154 Y16.662
Y16.579
X-32.141 Y16.496
G3 X-31.597 Y15.337 I2.885 J0.648
G1 X-31.595 Y15.334
X-31.559 Y15.274
X-31.47 Y15.136
X-31.317 Y14.938
X-31.163 Y14.771
X-30.965 Y14.585
X-30.915 Y14.543
X-30.767 Y14.435
X-30.642 Y14.345
X-30.568 Y14.292
X-30.429 Y14.17
X-30.284 Y14.024
X-30.132 Y13.848
X-29.964 Y13.621
X-29.793 Y13.354
X-29.61 Y13.016
X-29.423 Y12.602
X-29.226 Y12.071
X-29.025 Y11.379
X-28.841 Y10.528
X-28.712 Y9.666
X-28.621 Y8.8
X-28.557 Y7.931
X-28.511 Y7.061
X-28.479 Y6.191
X-28.456 Y5.32
X-28.439 Y4.449
X-28.428 Y3.578
X-28.42 Y2.707
X-28.414 Y1.836
X-28.41 Y0.965
X-28.405 Y-0.777
X-28.402 Y-3.391
X-28.4 Y-9.488
Y-11.231
X-28.414 Y-12.059
X-28.44 Y-12.357
X-28.49 Y-12.63
X-28.592 Y-12.889
X-28.742 Y-13.123
X-28.933 Y-13.325
X-29.159 Y-13.486
X-30.174 Y-14.073
X-30.642 Y-14.345
X-30.843 Y-14.49
X-30.915 Y-14.543
X-30.924 Y-14.551
G2 X-31.859 Y-14.079 I-0.355 J0.459
G1 X-31.225 Y14.711
G3 X-31.585 Y14.719 I-0.18 J0.004
X-31.404 Y14.535 I0.18 J-0.004
G2 X-30.642 Y14.345 I0.009 J-1.583
G1 X-29.961 Y13.949
X-29.275 Y13.553
X-29.15 Y13.472
X-28.996 Y13.366
X-28.827 Y13.23
X-28.661 Y13.075
X-28.473 Y12.875
X-28.277 Y12.632
X-28.081 Y12.351
X-27.868 Y11.994
X-27.659 Y11.577
X-27.439 Y11.051
X-27.215 Y10.385
X-26.997 Y9.541
X-26.837 Y8.685
X-26.775 Y8.226
X-26.762 Y8.042
X-26.774 Y7.857
X-26.81 Y7.676
G2 X-27.905 Y7.606 I-0.559 J0.153
G1 X-30.083 Y12.818
G2 X-29.275 Y13.553 I0.535 J0.224
G1 X-27.404 Y12.473
X-27.29 Y12.399
X-27.114 Y12.271
X-26.943 Y12.127
X-26.75 Y11.939
X-26.541 Y11.705
X-26.339 Y11.443
X-26.189 Y11.217
X-26.061 Y10.978
X-25.98 Y10.72
X-25.948 Y10.451
X-25.967 Y10.181
X-26.035 Y9.919
G2 X-27.069 Y9.837 I-0.538 J0.217
G1 X-28.172 Y11.661
G2 X-27.404 Y12.473 I0.496 J0.3
G1 X-26.019 Y11.673
X-25.862 Y11.575
X-25.821 Y11.539
X-25.783 Y11.498
X-25.751 Y11.458
X-25.703 Y11.377
X-25.68 Y11.327
X-25.663 Y11.278
X-25.642 Y11.179
X-25.639 Y11.08
X-25.653 Y10.981
X-25.721 Y10.783
X-26.585 Y8.409
X-26.612 Y8.326
X-26.773 Y7.815
X-26.81 Y7.676
X-27.404 Y5.172
X-27.427 Y5.045
X-27.497 Y4.65
X-27.527 Y4.452
X-27.805 Y2.078
X-27.825 Y1.88
X-27.847 Y1.484
X-27.858 Y1.286
Y-1.286
X-27.836 Y-1.682
X-27.825 Y-1.88
X-27.805 Y-2.078
X-27.527 Y-4.452
X-27.497 Y-4.65
X-27.427 Y-5.045
X-27.404 Y-5.172
X-27.012 Y-6.826
X-26.853 Y-7.683
X-26.706 Y-8.541
X-26.608 Y-9.407
X-26.546 Y-10.276
X-26.538 Y-10.917
X-26.557 Y-11.231
X-26.602 Y-11.514
X-26.701 Y-11.782
X-26.852 Y-12.025
X-27.047 Y-12.234
X-27.279 Y-12.401
G2 X-28.132 Y-11.891 I-0.272 J0.512
G1 X-28.151 Y-6.982
G2 X-27.012 Y-6.826 I0.58 J0.002
G1 X-26.81 Y-7.676
X-26.773 Y-7.815
X-26.612 Y-8.326
X-26.585 Y-8.409
X-25.793 Y-10.586
X-25.754 Y-10.71
X-25.718 Y-10.952
X-25.746 Y-11.195
X-25.838 Y-11.422
X-25.985 Y-11.617
X-26.179 Y-11.766
G2 X-27.012 Y-11.104 I-0.272 J0.512
G1 X-26.891 Y-10.653
G2 X-25.793 Y-10.586 I0.56 J-0.15
G1 X-25.721 Y-10.783
X-25.653 Y-10.981
X-25.639 Y-11.08
X-25.642 Y-11.179
X-25.663 Y-11.278
X-25.68 Y-11.327
X-25.703 Y-11.377
X-25.751 Y-11.458
X-25.783 Y-11.498
X-25.821 Y-11.539
X-25.862 Y-11.575
X-26.019 Y-11.673
X-29.159 Y-13.486
G2 X-29.873 Y-13.35 I-0.272 J0.512
G1 X-29.932 Y-13.281 Z-7.993
X-29.989 Y-13.214 Z-7.972
X-30.044 Y-13.15 Z-7.937
X-30.094 Y-13.091 Z-7.889
X-30.139 Y-13.038 Z-7.83
X-30.177 Y-12.993 Z-7.761
X-30.208 Y-12.957 Z-7.683
X-30.231 Y-12.93 Z-7.599
X-30.244 Y-12.914 Z-7.511
X-30.249 Y-12.909 Z-7.42
G0 Z5.
X-32.676 Y-17.518
Z-6.84
G1 Z-7.42 F1440.
X-32.67 Y-17.522 Z-7.511
X-32.651 Y-17.531 Z-7.599
X-32.62 Y-17.547 Z-7.683
X-32.578 Y-17.569 Z-7.761
X-32.525 Y-17.596 Z-7.83
X-32.463 Y-17.627 Z-7.889
X-32.394 Y-17.662 Z-7.937
X-32.319 Y-17.701 Z-7.972
X-32.241 Y-17.741 Z-7.993
X-32.16 Y-17.782 Z-8.
G2 X-31.571 Y-18.302 I-0.72 J-1.409
G1 X-31.322 Y-18.698
X-31.163 Y-18.946
X-29.781 Y-21.072
X-29.691 Y-21.226
X-29.519 Y-21.558
X-29.34 Y-21.972
X-29.152 Y-22.508
X-28.958 Y-23.221
X-28.789 Y-24.075
X-28.672 Y-24.939
X-28.619 Y-25.371
X-28.501 Y-25.79
X-28.302 Y-26.177
X-27.768 Y-26.866
X-27.051 Y-27.362
X-26.251 Y-27.704
X-25.411 Y-27.937
X-24.554 Y-28.092
X-23.689 Y-28.196
X-23.491 Y-28.212
X-23.206 Y-28.264
X-22.936 Y-28.371
X-22.694 Y-28.531
X-21.864 Y-29.203
X-21.468 Y-29.515
X-21.379 Y-29.58
X-20.874 Y-29.911
X-19.79 Y-30.615
X-19.774 Y-30.632
G3 X-18.938 Y-31.611 I2.627 J1.397
G1 X-18.868 Y-31.657
X-18.792 Y-31.692
X-18.712 Y-31.715
X-16.753 Y-32.141
X-16.671 Y-32.153
X-16.587
X-16.505 Y-32.141
G3 X-15.337 Y-31.597 I-0.642 J2.906
G1 X-15.334 Y-31.595
X-15.274 Y-31.559
X-15.136 Y-31.47
X-14.938 Y-31.317
X-14.771 Y-31.163
X-14.585 Y-30.965
X-14.543 Y-30.915
X-14.435 Y-30.767
X-14.345 Y-30.642
X-14.292 Y-30.568
X-14.17 Y-30.429
X-14.024 Y-30.284
X-13.848 Y-30.132
X-13.621 Y-29.964
X-13.354 Y-29.793
X-13.016 Y-29.61
X-12.602 Y-29.423
X-12.071 Y-29.226
X-11.38 Y-29.025
X-10.528 Y-28.841
X-9.667 Y-28.712
X-8.8 Y-28.621
X-7.932 Y-28.557
X-7.062 Y-28.511
X-6.191 Y-28.479
X-5.32 Y-28.456
X-4.449 Y-28.439
X-3.578 Y-28.428
X-2.707 Y-28.42
X-1.836 Y-28.414
X-0.965 Y-28.41
X0.777 Y-28.405
X3.39 Y-28.402
X9.488 Y-28.4
X11.23
X12.059 Y-28.414
X12.357 Y-28.44
X12.63 Y-28.49
X12.889 Y-28.592
X13.123 Y-28.742
X13.325 Y-28.933
X13.486 Y-29.159
X14.073 Y-30.174
X14.345 Y-30.642
X14.49 Y-30.843
X14.543 Y-30.915
X14.551 Y-30.924
G2 X14.079 Y-31.859 I-0.459 J-0.355
G1 X-14.711 Y-31.225
G3 X-14.719 Y-31.585 I-0.004 J-0.18
X-14.535 Y-31.404 I0.004 J0.18
G2 X-14.345 Y-30.642 I1.583 J0.009
G1 X-13.949 Y-29.961
X-13.553 Y-29.275
X-13.472 Y-29.15
X-13.365 Y-28.996
X-13.23 Y-28.827
X-13.075 Y-28.661
X-12.875 Y-28.473
X-12.632 Y-28.277
X-12.351 Y-28.081
X-11.994 Y-27.868
X-11.577 Y-27.659
X-11.052 Y-27.439
X-10.385 Y-27.215
X-9.542 Y-26.997
X-8.685 Y-26.837
X-8.226 Y-26.775
X-8.042 Y-26.762
X-7.857 Y-26.774
X-7.676 Y-26.81
G2 X-7.606 Y-27.905 I-0.153 J-0.559
G1 X-12.818 Y-30.083
G2 X-13.553 Y-29.275 I-0.224 J0.535
G1 X-12.473 Y-27.404
X-12.399 Y-27.29
X-12.271 Y-27.114
X-12.127 Y-26.943
X-11.939 Y-26.75
X-11.705 Y-26.541
X-11.443 Y-26.339
X-11.217 Y-26.189
X-10.978 Y-26.061
X-10.72 Y-25.98
X-10.451 Y-25.948
X-10.181 Y-25.967
X-9.919 Y-26.035
G2 X-9.837 Y-27.069 I-0.217 J-0.538
G1 X-11.661 Y-28.172
G2 X-12.473 Y-27.404 I-0.3 J0.496
G1 X-11.673 Y-26.019
X-11.575 Y-25.862
X-11.539 Y-25.821
X-11.498 Y-25.783
X-11.458 Y-25.751
X-11.377 Y-25.703
X-11.327 Y-25.68
X-11.278 Y-25.663
X-11.179 Y-25.642
X-11.08 Y-25.639
X-10.981 Y-25.653
X-10.783 Y-25.721
X-8.409 Y-26.585
X-8.326 Y-26.612
X-7.815 Y-26.773
X-7.676 Y-26.81
X-5.172 Y-27.404
X-5.045 Y-27.427
X-4.65 Y-27.497
X-4.452 Y-27.527
X-2.078 Y-27.805
X-1.88 Y-27.825
X-1.484 Y-27.847
X-1.286 Y-27.858
X1.286
X1.682 Y-27.836
X1.88 Y-27.825
X2.078 Y-27.805
X4.452 Y-27.527
X4.65 Y-27.497
X5.045 Y-27.427
X5.172 Y-27.404
X6.826 Y-27.012
X7.683 Y-26.853
X8.541 Y-26.706
X9.407 Y-26.608
X10.276 Y-26.546
X10.917 Y-26.538
X11.231 Y-26.557
X11.514 Y-26.602
X11.782 Y-26.701
X12.025 Y-26.852
X12.234 Y-27.047
X12.401 Y-27.279
G2 X11.891 Y-28.132 I-0.512 J-0.272
G1 X6.982 Y-28.151
G2 X6.826 Y-27.012 I-0.002 J0.58
G1 X7.676 Y-26.81
X7.815 Y-26.773
X8.326 Y-26.612
X8.409 Y-26.585
X10.586 Y-25.793
X10.71 Y-25.754
X10.952 Y-25.718
X11.195 Y-25.746
X11.422 Y-25.838
X11.617 Y-25.985
X11.766 Y-26.179
G2 X11.104 Y-27.012 I-0.512 J-0.272
G1 X10.653 Y-26.891
G2 X10.586 Y-25.793 I0.15 J0.56
G1 X10.783 Y-25.721
X10.981 Y-25.653
X11.08 Y-25.639
X11.179 Y-25.642
X11.278 Y-25.663
X11.327 Y-25.68
X11.377 Y-25.703
X11.458 Y-25.751
X11.498 Y-25.783
X11.539 Y-25.821
X11.575 Y-25.862
X11.673 Y-26.019
X13.486 Y-29.159
G2 X13.35 Y-29.873 I-0.512 J-0.272
G1 X13.281 Y-29.932 Z-7.993
X13.214 Y-29.989 Z-7.972
X13.15 Y-30.044 Z-7.937
X13.091 Y-30.094 Z-7.889
X13.038 Y-30.139 Z-7.83
X12.993 Y-30.177 Z-7.761
X12.957 Y-30.208 Z-7.683
X12.93 Y-30.231 Z-7.599
X12.914 Y-30.244 Z-7.511
X12.909 Y-30.249 Z-7.42
G0 Z5.
X17.518 Y-32.676
Z-6.84
G1 Z-7.42 F1440.
X17.522 Y-32.67 Z-7.511
X17.531 Y-32.651 Z-7.599
X17.547 Y-32.62 Z-7.683
X17.569 Y-32.578 Z-7.761
X17.596 Y-32.525 Z-7.83
X17.627 Y-32.463 Z-7.889
X17.662 Y-32.394 Z-7.937
X17.701 Y-32.319 Z-7.972
X17.741 Y-32.241 Z-7.993
X17.782 Y-32.16 Z-8.
G2 X18.302 Y-31.571 I1.409 J-0.72
G1 X18.698 Y-31.322
X18.946 Y-31.163
X21.072 Y-29.781
X21.226 Y-29.691
X21.558 Y-29.519
X21.972 Y-29.34
X22.508 Y-29.152
X23.221 Y-28.958
X24.075 Y-28.789
X24.939 Y-28.672
X25.371 Y-28.618
X25.79 Y-28.5
X26.177 Y-28.3
X26.865 Y-27.765
X27.361 Y-27.049
X27.703 Y-26.248
X27.936 Y-25.409
X28.092 Y-24.552
X28.196 Y-23.687
X28.211 Y-23.492
X28.263 Y-23.207
X28.371 Y-22.937
X28.53 Y-22.695
X29.203 Y-21.864
X29.515 Y-21.468
X29.58 Y-21.379
X29.911 Y-20.874
X30.615 Y-19.79
X30.632 Y-19.775
G3 X31.611 Y-18.938 I-1.397 J2.628
G1 X31.657 Y-18.868
X31.691 Y-18.792
X31.715 Y-18.712
X32.141 Y-16.753
X32.153 Y-16.671
Y-16.587
X32.141 Y-16.505
G3 X31.597 Y-15.337 I-2.906 J-0.642
G1 X31.595 Y-15.334
X31.559 Y-15.274
X31.47 Y-15.136
X31.317 Y-14.938
X31.163 Y-14.771
X30.965 Y-14.585
X30.915 Y-14.543
X30.767 Y-14.435
X30.642 Y-14.345
X30.568 Y-14.292
X30.429 Y-14.17
X30.284 Y-14.024
X30.132 Y-13.848
X29.964 Y-13.621
X29.793 Y-13.354
X29.61 Y-13.016
X29.423 Y-12.602
X29.226 Y-12.071
X29.025 Y-11.38
X28.841 Y-10.528
X28.712 Y-9.667
X28.621 Y-8.8
X28.557 Y-7.932
X28.511 Y-7.062
X28.479 Y-6.191
X28.456 Y-5.32
X28.439 Y-4.449
X28.428 Y-3.578
X28.42 Y-2.707
X28.414 Y-1.836
X28.41 Y-0.965
X28.405 Y0.777
X28.402 Y3.39
X28.4 Y9.488
Y11.23
X28.414 Y12.059
X28.44 Y12.357
X28.49 Y12.63
X28.592 Y12.889
X28.742 Y13.123
X28.933 Y13.325
X29.159 Y13.486
X30.174 Y14.073
X30.642 Y14.345
X30.843 Y14.49
X30.915 Y14.543
X30.924 Y14.551
G2 X31.859 Y14.079 I0.355 J-0.459
G1 X31.225 Y-14.711
G3 X31.585 Y-14.719 I0.18 J-0.004
X31.404 Y-14.535 I-0.18 J0.004
G2 X30.642 Y-14.345 I-0.009 J1.583
G1 X29.961 Y-13.949
X29.275 Y-13.553
X29.15 Y-13.472
X28.996 Y-13.365
X28.827 Y-13.23
X28.661 Y-13.075
X28.473 Y-12.875
X28.277 Y-12.632
X28.081 Y-12.351
X27.868 Y-11.994
X27.659 Y-11.577
X27.439 Y-11.052
X27.215 Y-10.385
X26.997 Y-9.542
X26.837 Y-8.685
X26.775 Y-8.226
X26.762 Y-8.042
X26.774 Y-7.857
X26.81 Y-7.676
G2 X27.905 Y-7.606 I0.559 J-0.153
G1 X30.083 Y-12.818
G2 X29.275 Y-13.553 I-0.535 J-0.224
G1 X27.404 Y-12.473
X27.29 Y-12.399
X27.114 Y-12.271
X26.943 Y-12.127
X26.75 Y-11.939
X26.541 Y-11.705
X26.339 Y-11.443
X26.189 Y-11.217
X26.061 Y-10.978
X25.98 Y-10.72
X25.948 Y-10.451
X25.967 Y-10.181
X26.035 Y-9.919
G2 X27.069 Y-9.837 I0.538 J-0.217
G1 X28.172 Y-11.661
G2 X27.404 Y-12.473 I-0.496 J-0.3
G1 X26.019 Y-11.673
X25.862 Y-11.575
X25.821 Y-11.539
X25.783 Y-11.498
X25.751 Y-11.458
X25.703 Y-11.377
X25.68 Y-11.327
X25.663 Y-11.278
X25.642 Y-11.179
X25.639 Y-11.08
X25.653 Y-10.981
X25.721 Y-10.783
X26.585 Y-8.409
X26.612 Y-8.326
X26.773 Y-7.815
X26.81 Y-7.676
X27.404 Y-5.172
X27.427 Y-5.045
X27.497 Y-4.65
X27.527 Y-4.452
X27.805 Y-2.078
X27.825 Y-1.88
X27.847 Y-1.484
X27.858 Y-1.286
Y1.286
X27.836 Y1.682
X27.825 Y1.88
X27.805 Y2.078
X27.527 Y4.452
X27.497 Y4.65
X27.427 Y5.045
X27.404 Y5.172
X27.012 Y6.826
X26.853 Y7.683
X26.706 Y8.541
X26.608 Y9.407
X26.546 Y10.276
X26.538 Y10.917
X26.557 Y11.231
X26.602 Y11.514
X26.701 Y11.782
X26.852 Y12.025
X27.047 Y12.234
X27.279 Y12.401
G2 X28.132 Y11.891 I0.272 J-0.512
G1 X28.151 Y6.982
G2 X27.012 Y6.826 I-0.58 J-0.002
G1 X26.81 Y7.676
X26.773 Y7.815
X26.612 Y8.326
X26.585 Y8.409
X25.793 Y10.586
X25.754 Y10.71
X25.718 Y10.952
X25.746 Y11.195
X25.838 Y11.422
X25.985 Y11.617
X26.179 Y11.766
G2 X27.012 Y11.104 I0.272 J-0.512
G1 X26.891 Y10.653
G2 X25.793 Y10.586 I-0.56 J0.15
G1 X25.721 Y10.783
X25.653 Y10.981
X25.639 Y11.08
X25.642 Y11.179
X25.663 Y11.278
X25.68 Y11.327
X25.703 Y11.377
X25.751 Y11.458
X25.783 Y11.498
X25.821 Y11.539
X25.862 Y11.575
X26.019 Y11.673
X29.159 Y13.486
G2 X29.873 Y13.35 I0.272 J-0.512
G1 X29.932 Y13.281 Z-7.993
X29.989 Y13.214 Z-7.972
X30.044 Y13.15 Z-7.937
X30.094 Y13.091 Z-7.889
X30.139 Y13.038 Z-7.83
X30.177 Y12.993 Z-7.761
X30.208 Y12.957 Z-7.683
X30.231 Y12.93 Z-7.599
X30.244 Y12.914 Z-7.511
X30.249 Y12.909 Z-7.42
G0 Z5.
X32.676 Y17.518
Z-6.84
G1 Z-7.42 F1440.
X32.67 Y17.522 Z-7.511
X32.651 Y17.531 Z-7.599
X32.62 Y17.547 Z-7.683
X32.578 Y17.569 Z-7.761
X32.525 Y17.596 Z-7.83
X32.463 Y17.627 Z-7.889
X32.394 Y17.662 Z-7.937
X32.319 Y17.701 Z-7.972
X32.241 Y17.741 Z-7.993
X32.16 Y17.782 Z-8.
G2 X31.571 Y18.302 I0.72 J1.409
G1 X31.322 Y18.698
X31.163 Y18.946
X29.781 Y21.072
X29.691 Y21.226
X29.519 Y21.558
X29.34 Y21.972
X29.152 Y22.508
X28.958 Y23.221
X28.789 Y24.075
X28.672 Y24.939
X28.619 Y25.371
X28.501 Y25.79
X28.302 Y26.178
X27.768 Y26.866
X27.052 Y27.362
X26.251 Y27.704
X25.411 Y27.937
X24.554 Y28.092
X23.689 Y28.196
X23.492 Y28.212
X23.206 Y28.264
X22.936 Y28.371
X22.694 Y28.53
X21.864 Y29.203
X21.468 Y29.515
X21.379 Y29.58
X20.874 Y29.911
X19.79 Y30.615
X19.775 Y30.632
G3 X18.938 Y31.611 I-2.628 J-1.397
G1 X18.868 Y31.657
X18.792 Y31.691
X18.712 Y31.715
X16.753 Y32.141
X16.671 Y32.153
X16.587
X16.505 Y32.141
G3 X15.337 Y31.597 I0.642 J-2.906
G1 X15.334 Y31.595
X15.274 Y31.559
X15.136 Y31.47
X14.938 Y31.317
X14.771 Y31.163
X14.585 Y30.965
X14.543 Y30.915
X14.435 Y30.767
X14.345 Y30.642
X14.292 Y30.568
X14.17 Y30.429
X14.024 Y30.284
X13.848 Y30.132
X13.621 Y29.964
X13.354 Y29.793
X13.016 Y29.61
X12.602 Y29.423
X12.071 Y29.226
X11.38 Y29.025
X10.528 Y28.841
X9.667 Y28.712
X8.8 Y28.621
X7.932 Y28.557
X7.062 Y28.511
X6.191 Y28.479
X5.32 Y28.456
X4.449 Y28.439
X3.578 Y28.428
X2.707 Y28.42
X1.836 Y28.414
X0.965 Y28.41
X-0.777 Y28.405
X-3.39 Y28.402
X-9.488 Y28.4
X-11.23
X-12.059 Y28.414
X-12.357 Y28.44
X-12.63 Y28.49
X-12.889 Y28.592
X-13.123 Y28.742
X-13.325 Y28.933
X-13.486 Y29.159
X-14.073 Y30.174
X-14.345 Y30.642
X-14.49 Y30.843
X-14.543 Y30.915
X-14.551 Y30.924
G2 X-14.079 Y31.859 I0.459 J0.355
G1 X14.711 Y31.225
G3 X14.719 Y31.585 I0.004 J0.18
X14.535 Y31.404 I-0.004 J-0.18
G2 X14.345 Y30.642 I-1.583 J-0.009
G1 X13.949 Y29.961
X13.553 Y29.275
X13.472 Y29.15
X13.365 Y28.996
X13.23 Y28.827
X13.075 Y28.661
X12.875 Y28.473
X12.632 Y28.277
X12.351 Y28.081
X11.994 Y27.868
X11.577 Y27.659
X11.052 Y27.439
X10.385 Y27.215
X9.542 Y26.997
X8.685 Y26.837
X8.226 Y26.775
X8.042 Y26.762
X7.857 Y26.774
X7.676 Y26.81
G2 X7.606 Y27.905 I0.153 J0.559
G1 X12.818 Y30.083
G2 X13.553 Y29.275 I0.224 J-0.535
G1 X12.473 Y27.404
X12.399 Y27.29
X12.271 Y27.114
X12.127 Y26.943
X11.939 Y26.75
X11.705 Y26.541
X11.443 Y26.339
X11.217 Y26.189
X10.978 Y26.061
X10.72 Y25.98
X10.451 Y25.948
X10.181 Y25.967
X9.919 Y26.035
G2 X9.837 Y27.069 I0.217 J0.538
G1 X11.661 Y28.172
G2 X12.473 Y27.404 I0.3 J-0.496
G1 X11.673 Y26.019
X11.575 Y25.862
X11.539 Y25.821
X11.498 Y25.783
X11.458 Y25.751
X11.377 Y25.703
X11.327 Y25.68
X11.278 Y25.663
X11.179 Y25.642
X11.08 Y25.639
X10.981 Y25.653
X10.783 Y25.721
X8.409 Y26.585
X8.326 Y26.612
X7.815 Y26.773
X7.676 Y26.81
X5.172 Y27.404
X5.045 Y27.427
X4.65 Y27.497
X4.452 Y27.527
X2.078 Y27.805
X1.88 Y27.825
X1.484 Y27.847
X1.286 Y27.858
X-1.286
X-1.682 Y27.836
X-1.88 Y27.825
X-2.078 Y27.805
X-4.452 Y27.527
X-4.65 Y27.497
X-5.045 Y27.427
X-5.172 Y27.404
X-6.826 Y27.012
X-7.683 Y26.853
X-8.541 Y26.706
X-9.407 Y26.608
X-10.276 Y26.546
X-10.917 Y26.538
X-11.231 Y26.557
X-11.514 Y26.602
X-11.782 Y26.701
X-12.025 Y26.852
X-12.234 Y27.047
X-12.401 Y27.279
G2 X-11.891 Y28.132 I0.512 J0.272
G1 X-6.982 Y28.151
G2 X-6.826 Y27.012 I0.002 J-0.58
G1 X-7.676 Y26.81
X-7.815 Y26.773
X-8.326 Y26.612
X-8.409 Y26.585
X-10.586 Y25.793
X-10.71 Y25.754
X-10.952 Y25.718
X-11.195 Y25.746
X-11.422 Y25.838
X-11.617 Y25.985
X-11.766 Y26.179
G2 X-11.104 Y27.012 I0.512 J0.272
G1 X-10.653 Y26.891
G2 X-10.586 Y25.793 I-0.15 J-0.56
G1 X-10.783 Y25.721
X-10.981 Y25.653
X-11.08 Y25.639
X-11.179 Y25.642
X-11.278 Y25.663
X-11.327 Y25.68
X-11.377 Y25.703
X-11.458 Y25.751
X-11.498 Y25.783
X-11.539 Y25.821
X-11.575 Y25.862
X-11.673 Y26.019
X-13.486 Y29.159
G2 X-13.35 Y29.873 I0.512 J0.272
G1 X-13.281 Y29.932 Z-7.993
X-13.214 Y29.989 Z-7.972
X-13.15 Y30.044 Z-7.937
X-13.091 Y30.094 Z-7.889
X-13.038 Y30.139 Z-7.83
X-12.993 Y30.177 Z-7.761
X-12.957 Y30.208 Z-7.683
X-12.93 Y30.231 Z-7.599
X-12.914 Y30.244 Z-7.511
X-12.909 Y30.249 Z-7.42
G0 Z5.
X-17.518 Y32.676
Z-6.84
G1 Z-7.42 F1440.
X-17.522 Y32.67 Z-7.511
X-17.531 Y32.651 Z-7.599
X-17.547 Y32.62 Z-7.683
X-17.569 Y32.578 Z-7.761
X-17.596 Y32.525 Z-7.83
X-17.627 Y32.463 Z-7.889
X-17.662 Y32.394 Z-7.937
X-17.701 Y32.319 Z-7.972
X-17.741 Y32.241 Z-7.993
X-17.782 Y32.16 Z-8.
G2 X-18.302 Y31.571 I-1.409 J0.72
G1 X-18.698 Y31.322
X-18.946 Y31.163
X-21.072 Y29.781
X-21.226 Y29.691
X-21.558 Y29.519
X-21.972 Y29.34
X-22.794 Y29.052
X-23.632 Y28.814
X-24.417 Y28.435
X-25.028 Y27.815
X-25.467 Y27.063
X-25.772 Y26.247
X-25.827 Y26.023
X-25.913 Y25.774
X-26.042 Y25.546
X-26.21 Y25.344
G2 X-27.037 Y25.381 I-0.396 J0.424
X-26.985 Y26.207 I0.432 J0.387
G1 X-21.786 Y30.694
G2 X-20.95 Y30.612 I0.379 J-0.439
X-21.072 Y29.781 I-0.457 J-0.357
G1 X-21.379 Y29.58
X-21.468 Y29.515
X-21.886 Y29.184
X-24.238 Y27.28
X-24.323 Y27.206
X-24.634 Y26.919
X-24.942 Y26.612
X-26.81 Y24.744
X-26.919 Y24.634
X-27.206 Y24.323
X-27.28 Y24.238
X-28.652 Y22.543
G2 X-29.367 Y22.415 I-0.438 J0.381
G1 X-29.447 Y22.458 Z-7.993
X-29.525 Y22.5 Z-7.972
X-29.599 Y22.541 Z-7.937
X-29.667 Y22.578 Z-7.889
X-29.728 Y22.611 Z-7.83
X-29.78 Y22.639 Z-7.761
X-29.821 Y22.662 Z-7.683
X-29.852 Y22.679 Z-7.599
X-29.871 Y22.689 Z-7.511
X-29.877 Y22.692 Z-7.42
G0 Z5.
X-30.901 Y-20.309
Z-6.84
G1 Z-7.42 F1440.
X-30.895 Y-20.312 Z-7.511
X-30.876 Y-20.322 Z-7.599
X-30.844 Y-20.337 Z-7.683
X-30.802 Y-20.358 Z-7.761
X-30.748 Y-20.384 Z-7.83
X-30.686 Y-20.414 Z-7.889
X-30.617 Y-20.448 Z-7.937
X-30.541 Y-20.485 Z-7.972
X-30.461 Y-20.524 Z-7.993
X-30.38 Y-20.563 Z-8.
G2 X-29.781 Y-21.072 I-0.694 J-1.422
G1 X-29.58 Y-21.379
X-29.515 Y-21.468
X-29.184 Y-21.886
X-27.28 Y-24.238
X-27.206 Y-24.323
X-26.919 Y-24.634
X-26.612 Y-24.942
X-24.744 Y-26.81
X-24.634 Y-26.919
X-24.323 Y-27.206
X-24.238 Y-27.28
X-22.694 Y-28.531
G2 X-22.565 Y-29.246 I-0.381 J-0.438
G1 X-22.608 Y-29.325 Z-7.993
X-22.651 Y-29.403 Z-7.972
X-22.691 Y-29.477 Z-7.937
X-22.728 Y-29.545 Z-7.889
X-22.761 Y-29.606 Z-7.83
X-22.789 Y-29.658 Z-7.761
X-22.812 Y-29.7 Z-7.683
X-22.829 Y-29.73 Z-7.599
X-22.839 Y-29.749 Z-7.511
X-22.842 Y-29.755 Z-7.42
G0 Z5.
X20.309 Y-30.901
Z-6.84
G1 Z-7.42 F1440.
X20.312 Y-30.895 Z-7.511
X20.322 Y-30.876 Z-7.599
X20.337 Y-30.844 Z-7.683
X20.358 Y-30.802 Z-7.761
X20.384 Y-30.748 Z-7.83
X20.414 Y-30.686 Z-7.889
X20.448 Y-30.617 Z-7.937
X20.485 Y-30.541 Z-7.972
X20.524 Y-30.461 Z-7.993
X20.563 Y-30.38 Z-8.
G2 X21.072 Y-29.781 I1.422 J-0.694
G1 X21.379 Y-29.58
X21.468 Y-29.515
X21.886 Y-29.184
X24.238 Y-27.28
X24.323 Y-27.206
X24.634 Y-26.919
X24.942 Y-26.612
X26.81 Y-24.744
X26.919 Y-24.634
X27.206 Y-24.323
X27.28 Y-24.238
X28.53 Y-22.695
G2 X29.245 Y-22.566 I0.438 J-0.381
G1 X29.325 Y-22.609 Z-7.993
X29.402 Y-22.652 Z-7.972
X29.476 Y-22.692 Z-7.937
X29.544 Y-22.729 Z-7.889
X29.605 Y-22.762 Z-7.83
X29.657 Y-22.79 Z-7.761
X29.699 Y-22.813 Z-7.683
X29.729 Y-22.83 Z-7.599
X29.748 Y-22.84 Z-7.511
X29.754 Y-22.843 Z-7.42
G0 Z5.
X30.901 Y20.309
Z-6.84
G1 Z-7.42 F1440.
X30.895 Y20.312 Z-7.511
X30.876 Y20.322 Z-7.599
X30.844 Y20.337 Z-7.683
X30.802 Y20.358 Z-7.761
X30.748 Y20.384 Z-7.83
X30.686 Y20.414 Z-7.889
X30.617 Y20.448 Z-7.937
X30.541 Y20.485 Z-7.972
X30.461 Y20.524 Z-7.993
X30.38 Y20.563 Z-8.
G2 X29.781 Y21.072 I0.694 J1.422
G1 X29.58 Y21.379
X29.515 Y21.468
X29.184 Y21.886
X27.28 Y24.238
X27.206 Y24.323
X26.919 Y24.634
X26.612 Y24.942
X24.744 Y26.81
X24.634 Y26.919
X24.323 Y27.206
X24.238 Y27.28
X22.694 Y28.53
X22.645 Y28.578
X22.602 Y28.632
X22.566 Y28.69
X22.543 Y28.759 Z-7.995
X22.521 Y28.826 Z-7.982
X22.499 Y28.892 Z-7.959
X22.494 Y28.968 Z-7.922
X22.506 Y29.031 Z-7.879
X22.517 Y29.087 Z-7.828
X22.526 Y29.136 Z-7.769
X22.534 Y29.178 Z-7.705
X22.547 Y29.207 Z-7.638
X22.557 Y29.228 Z-7.567
X22.563 Y29.241 Z-7.494
X22.565 Y29.246 Z-7.42
G0 Z5.
X0. Y0.
Z-1.5
G1 Z-8. F300.
X-0.027 Y-0.027 F1440.
X-0.044 Y0.007
X-0.026 Y0.04
X0.01 Y0.05
X0.042 Y0.031
X0.056 Y-0.004
X0.053 Y-0.042
X0.035 Y-0.074
X0.003 Y-0.095
X-0.034 Y-0.099
X-0.071 Y-0.089
X-0.101 Y-0.068
X-0.123 Y-0.038
X-0.136 Y-0.002
X-0.137 Y0.035
X-0.119 Y0.108
X-0.067 Y0.162
X0.003 Y0.188
X0.078 Y0.181
X0.145 Y0.148
X0.197 Y0.094
X0.23 Y0.026
X0.239 Y-0.048
X0.227 Y-0.122
X0.195 Y-0.19
X0.095 Y-0.302
X-0.047 Y-0.351
X-0.196 Y-0.331
X-0.325 Y-0.255
X-0.417 Y-0.137
X-0.463 Y0.006
X-0.461 Y0.156
X-0.413 Y0.298
X-0.324 Y0.419
X-0.204 Y0.508
X-0.064 Y0.562
X0.086 Y0.577
X0.234 Y0.553
X0.371 Y0.494
X0.491 Y0.403
X0.586 Y0.287
X0.653 Y0.153
X0.689 Y0.007
X0.696 Y-0.143
X0.672 Y-0.291
X0.619 Y-0.431
X0.541 Y-0.559
X0.439 Y-0.669
X0.318 Y-0.759
X0.183 Y-0.824
X0.039 Y-0.865
X-0.11 Y-0.88
X-0.26 Y-0.871
X-0.406 Y-0.836
X-0.544 Y-0.779
X-0.672 Y-0.699
X-0.786 Y-0.602
X-0.883 Y-0.488
X-0.962 Y-0.361
X-1.022 Y-0.223
X-1.061 Y-0.078
X-1.08 Y0.071
X-1.077 Y0.221
X-1.053 Y0.369
X-1.009 Y0.512
X-0.947 Y0.649
X-0.867 Y0.776
X-0.772 Y0.891
X-0.662 Y0.993
X-0.54 Y1.081
X-0.408 Y1.152
X-0.269 Y1.208
X-0.123 Y1.245
X0.025 Y1.265
X0.175 Y1.266
X0.325 Y1.251
X0.471 Y1.218
X0.613 Y1.169
X0.748 Y1.103
X0.875 Y1.024
X0.992 Y0.93
X1.099 Y0.825
X1.194 Y0.709
X1.276 Y0.583
X1.344 Y0.449
X1.398 Y0.309
X1.437 Y0.165
X1.461 Y0.017
X1.471 Y-0.133
X1.465 Y-0.283
X1.444 Y-0.431
X1.409 Y-0.577
X1.36 Y-0.719
X1.297 Y-0.855
X1.222 Y-0.985
X1.134 Y-1.107
X1.036 Y-1.22
X0.927 Y-1.323
X0.81 Y-1.417
X0.684 Y-1.498
X0.551 Y-1.568
X0.413 Y-1.626
X0.27 Y-1.672
X0.123 Y-1.704
X-0.025 Y-1.724
X-0.175 Y-1.73
X-0.325 Y-1.724
X-0.474 Y-1.705
X-0.62 Y-1.673
X-0.764 Y-1.629
X-0.903 Y-1.573
X-1.037 Y-1.506
X-1.165 Y-1.428
X-1.287 Y-1.34
X-1.4 Y-1.242
X-1.506 Y-1.136
X-1.603 Y-1.021
X-1.69 Y-0.899
X-1.767 Y-0.771
X-1.834 Y-0.636
X-1.891 Y-0.497
X-1.936 Y-0.354
X-1.971 Y-0.208
X-1.994 Y-0.06
X-2.006 Y0.089
Y0.239
X-1.995 Y0.389
X-1.974 Y0.537
X-1.941 Y0.684
X-1.897 Y0.827
X-1.844 Y0.967
X-1.78 Y1.103
X-1.707 Y1.234
X-1.623 Y1.361
X-1.531 Y1.48
X-1.429 Y1.594
X-1.321 Y1.7
X-1.205 Y1.798
X-1.079 Y1.89
X-0.951 Y1.97
X-0.811 Y2.044
X-0.668 Y2.107
X-0.522 Y2.16
X-0.368 Y2.203
X-0.215 Y2.235
X-0.055 Y2.256
X0.106 Y2.266
X0.266 Y2.264
X0.431 Y2.251
X0.592 Y2.226
X0.75 Y2.19
X0.912 Y2.141
X1.066 Y2.082
X1.217 Y2.012
X1.366 Y1.929
X1.507 Y1.836
X1.642 Y1.734
X1.772 Y1.619
X1.893 Y1.497
X2.004 Y1.367
X2.109 Y1.225
X2.203 Y1.077
X2.285 Y0.924
X2.358 Y0.761
X2.42 Y0.593
X2.469 Y0.422
X2.506 Y0.248
X2.531 Y0.066
X2.544 Y-0.115
X2.543 Y-0.296
X2.529 Y-0.479
X2.502 Y-0.663
X2.462 Y-0.845
X2.409 Y-1.021
X2.343 Y-1.197
X2.264 Y-1.37
X2.173 Y-1.536
X2.07 Y-1.695
X1.956 Y-1.847
X1.829 Y-1.994
X1.691 Y-2.131
X1.544 Y-2.258
X1.388 Y-2.375
X1.224 Y-2.48
X1.049 Y-2.576
X0.868 Y-2.659
X0.68 Y-2.728
X0.489 Y-2.785
X0.293 Y-2.828
X0.093 Y-2.857
X-0.111 Y-2.872
X-0.317
X-0.523 Y-2.858
X-0.727 Y-2.829
X-0.929 Y-2.785
X-1.129 Y-2.728
X-1.326 Y-2.655
X-1.519 Y-2.568
X-1.706 Y-2.466
X-1.886 Y-2.352
X-2.058 Y-2.224
X-2.221 Y-2.084
X-2.374 Y-1.932
X-2.517 Y-1.769
X-2.648 Y-1.596
X-2.767 Y-1.413
X-2.874 Y-1.22
X-2.967 Y-1.019
X-3.046 Y-0.811
X-3.111 Y-0.597
X-3.16 Y-0.378
X-3.194 Y-0.154
X-3.212 Y0.072
X-3.214 Y0.3
X-3.199 Y0.528
X-3.168 Y0.756
X-3.121 Y0.982
X-3.058 Y1.205
X-2.978 Y1.424
X-2.883 Y1.637
X-2.773 Y1.845
X-2.647 Y2.045
X-2.507 Y2.236
X-2.353 Y2.418
X-2.185 Y2.589
X-2.005 Y2.748
X-1.814 Y2.895
X-1.611 Y3.029
X-1.399 Y3.148
X-1.178 Y3.252
X-0.948 Y3.341
X-0.713 Y3.413
X-0.471 Y3.469
X-0.225 Y3.508
X0.024 Y3.529
X0.276 Y3.533
X0.528 Y3.518
X0.779 Y3.486
X1.029 Y3.435
X1.276 Y3.367
X1.518 Y3.281
X1.755 Y3.177
X1.984 Y3.056
X2.206 Y2.919
X2.418 Y2.765
X2.619 Y2.597
X2.809 Y2.413
X2.986 Y2.216
X3.149 Y2.006
X3.297 Y1.783
X3.43 Y1.55
X3.546 Y1.307
X3.646 Y1.055
X3.727 Y0.796
X3.79 Y0.531
X3.834 Y0.261
X3.859 Y-0.014
X3.865 Y-0.29
X3.85 Y-0.567
X3.816 Y-0.843
X3.763 Y-1.117
X3.689 Y-1.388
X3.596 Y-1.654
X3.484 Y-1.914
X3.354 Y-2.166
X3.205 Y-2.409
X3.038 Y-2.642
X2.855 Y-2.864
X2.655 Y-3.072
X2.441 Y-3.267
X2.212 Y-3.447
X1.97 Y-3.61
X1.716 Y-3.757
X1.451 Y-3.886
X1.177 Y-3.996
X0.894 Y-4.086
X0.605 Y-4.157
X0.31 Y-4.207
X0.011 Y-4.236
X-0.29 Y-4.244
X-0.469 Y-4.235
X-0.771 Y-4.209
X-1.072 Y-4.161
X-1.37 Y-4.092
X-1.663 Y-4.001
X-1.95 Y-3.889
X-2.229 Y-3.757
X-2.5 Y-3.605
X-2.759 Y-3.433
X-3.007 Y-3.242
X-3.242 Y-3.034
X-3.462 Y-2.808
X-3.666 Y-2.567
X-3.853 Y-2.31
X-4.022 Y-2.04
X-4.172 Y-1.757
X-4.302 Y-1.464
X-4.412 Y-1.16
X-4.499 Y-0.849
X-4.565 Y-0.531
X-4.608 Y-0.208
X-4.628 Y0.119
X-4.625 Y0.447
X-4.599 Y0.775
X-4.549 Y1.102
X-4.475 Y1.426
X-4.379 Y1.744
X-4.259 Y2.057
X-4.118 Y2.361
X-3.954 Y2.655
X-3.769 Y2.937
X-3.564 Y3.207
X-3.34 Y3.463
X-3.097 Y3.703
X-2.836 Y3.925
X-2.56 Y4.13
X-2.268 Y4.315
X-1.963 Y4.479
X-1.646 Y4.622
X-1.319 Y4.742
X-0.983 Y4.839
X-0.639 Y4.912
X-0.29 Y4.961
X0.063 Y4.985
X0.419 Y4.984
X0.774 Y4.957
X1.128 Y4.905
X1.478 Y4.828
X1.823 Y4.725
X2.162 Y4.598
X2.491 Y4.447
X2.81 Y4.272
X3.117 Y4.074
X3.41 Y3.854
X3.688 Y3.613
X3.949 Y3.352
X4.191 Y3.072
X4.413 Y2.775
X4.615 Y2.462
X4.794 Y2.134
X4.95 Y1.792
X5.082 Y1.44
X5.189 Y1.078
X5.27 Y0.708
X5.325 Y0.332
X5.352 Y-0.048
X5.353 Y-0.431
X5.327 Y-0.814
X5.273 Y-1.195
X5.192 Y-1.572
X5.084 Y-1.944
X4.95 Y-2.309
X4.789 Y-2.664
X4.603 Y-3.008
X4.393 Y-3.339
X4.159 Y-3.655
X3.901 Y-3.955
X3.623 Y-4.236
X3.324 Y-4.498
X3.006 Y-4.739
X2.671 Y-4.957
X2.32 Y-5.152
X1.956 Y-5.321
X1.589 Y-5.461
X1.199 Y-5.579
X0.8 Y-5.668
X0.396 Y-5.73
X-0.014 Y-5.762
X-0.425 Y-5.766
X-0.837 Y-5.74
X-1.246 Y-5.685
X-1.652 Y-5.6
X-2.053 Y-5.487
X-2.445 Y-5.345
X-2.827 Y-5.175
X-3.197 Y-4.977
X-3.553 Y-4.754
X-3.894 Y-4.504
X-4.217 Y-4.231
X-4.52 Y-3.934
X-4.803 Y-3.615
X-5.062 Y-3.277
X-5.298 Y-2.919
X-5.509 Y-2.545
X-5.693 Y-2.155
X-5.849 Y-1.753
X-5.976 Y-1.338
X-6.074 Y-0.915
X-6.142 Y-0.485
X-6.179 Y-0.049
X-6.186 Y0.389
X-6.161 Y0.828
X-6.104 Y1.266
X-6.017 Y1.699
X-5.898 Y2.127
X-5.749 Y2.546
X-5.571 Y2.954
X-5.363 Y3.35
X-5.126 Y3.732
X-4.863 Y4.096
X-4.573 Y4.442
X-4.258 Y4.768
X-3.921 Y5.071
X-3.561 Y5.35
X-3.182 Y5.604
X-2.784 Y5.831
X-2.37 Y6.029
X-1.941 Y6.198
X-1.501 Y6.337
X-1.05 Y6.444
X-0.592 Y6.519
X-0.128 Y6.561
X0.308 Y6.57
X0.776 Y6.549
X1.242 Y6.494
X1.705 Y6.406
X2.161 Y6.284
X2.609 Y6.131
X3.047 Y5.945
X3.471 Y5.728
X3.88 Y5.481
X4.271 Y5.204
X4.643 Y4.9
X4.993 Y4.569
X5.32 Y4.213
X5.621 Y3.834
X5.895 Y3.433
X6.141 Y3.012
X6.357 Y2.574
X6.542 Y2.121
X6.694 Y1.654
X6.813 Y1.176
X6.898 Y0.69
X6.949 Y0.198
X6.964 Y-0.298
X6.944 Y-0.795
X6.889 Y-1.291
X6.798 Y-1.783
X6.673 Y-2.269
X6.512 Y-2.745
X6.318 Y-3.21
X6.091 Y-3.662
X5.831 Y-4.097
X5.54 Y-4.514
X5.22 Y-4.91
X4.871 Y-5.283
X4.496 Y-5.632
X4.097 Y-5.952
X3.675 Y-6.245
X3.232 Y-6.507
X2.769 Y-6.739
X2.29 Y-6.937
X1.796 Y-7.102
X1.29 Y-7.231
X0.775 Y-7.325
X0.253 Y-7.381
X-0.273 Y-7.401
X-0.8 Y-7.383
X-1.326 Y-7.327
X-1.848 Y-7.234
X-2.364 Y-7.104
X-2.87 Y-6.937
X-3.364 Y-6.734
X-3.844 Y-6.496
X-4.306 Y-6.224
X-4.75 Y-5.919
X-5.171 Y-5.582
X-5.569 Y-5.215
X-5.94 Y-4.82
X-6.283 Y-4.398
X-6.596 Y-3.953
X-6.877 Y-3.484
X-7.125 Y-2.996
X-7.338 Y-2.491
X-7.515 Y-1.97
X-7.655 Y-1.436
X-7.757 Y-0.893
X-7.82 Y-0.342
X-7.844 Y0.213
X-7.828 Y0.769
X-7.773 Y1.325
X-7.678 Y1.876
X-7.544 Y2.421
X-7.371 Y2.956
X-7.16 Y3.478
X-6.912 Y3.986
X-6.627 Y4.475
X-6.308 Y4.945
X-5.955 Y5.391
X-5.571 Y5.813
X-5.157 Y6.207
X-4.715 Y6.571
X-4.246 Y6.904
X-3.754 Y7.204
X-3.241 Y7.468
X-2.709 Y7.696
X-2.161 Y7.886
X-1.599 Y8.037
X-1.027 Y8.147
X-0.446 Y8.217
X0.139 Y8.246
X0.726 Y8.233
X1.312 Y8.178
X1.894 Y8.082
X2.469 Y7.944
X3.034 Y7.765
X3.586 Y7.546
X3.978 Y7.357
X4.501 Y7.071
X5.003 Y6.748
X5.482 Y6.39
X5.936 Y5.997
X6.361 Y5.572
X6.756 Y5.117
X7.119 Y4.633
X7.447 Y4.124
X7.739 Y3.591
X7.993 Y3.038
X8.208 Y2.467
X8.381 Y1.881
X8.513 Y1.282
X8.603 Y0.675
X8.649 Y0.061
X8.651 Y-0.556
X8.609 Y-1.173
X8.523 Y-1.787
X8.394 Y-2.394
X8.222 Y-2.992
X8.006 Y-3.578
X7.75 Y-4.148
X7.452 Y-4.7
X7.116 Y-5.23
X6.742 Y-5.736
X6.332 Y-6.215
X5.889 Y-6.664
X5.413 Y-7.082
X4.908 Y-7.466
X4.375 Y-7.814
X3.818 Y-8.124
X3.238 Y-8.394
X2.64 Y-8.623
X2.025 Y-8.809
X1.397 Y-8.951
X0.759 Y-9.049
X0.115 Y-9.101
X-0.534 Y-9.107
X-1.182 Y-9.067
X-1.827 Y-8.981
X-2.466 Y-8.849
X-3.095 Y-8.671
X-3.712 Y-8.449
X-4.312 Y-8.183
X-4.893 Y-7.874
X-5.452 Y-7.524
X-5.986 Y-7.135
X-6.491 Y-6.707
X-6.966 Y-6.244
X-7.408 Y-5.747
X-7.814 Y-5.219
X-8.183 Y-4.662
X-8.511 Y-4.079
X-8.798 Y-3.474
X-9.042 Y-2.847
X-9.241 Y-2.204
X-9.394 Y-1.547
X-9.5 Y-0.88
X-9.559 Y-0.205
X-9.569 Y0.474
X-9.531 Y1.153
X-9.445 Y1.829
X-9.311 Y2.498
X-9.129 Y3.158
X-8.9 Y3.805
X-8.626 Y4.434
X-8.306 Y5.044
X-7.944 Y5.631
X-7.539 Y6.192
X-7.095 Y6.724
X-6.613 Y7.224
X-6.096 Y7.689
X-5.546 Y8.117
X-4.966 Y8.506
X-4.359 Y8.854
X-3.726 Y9.158
X-3.073 Y9.416
X-2.658 Y9.548
X-1.977 Y9.73
X-1.285 Y9.864
X-0.582 Y9.949
X0.126 Y9.984
X0.836 Y9.968
X1.545 Y9.901
X2.249 Y9.785
X2.939 Y9.619
X3.624 Y9.402
X4.293 Y9.137
X4.942 Y8.824
X5.568 Y8.465
X6.167 Y8.063
X6.738 Y7.618
X7.277 Y7.132
X7.78 Y6.609
X8.247 Y6.05
X8.673 Y5.458
X9.056 Y4.836
X9.395 Y4.187
X9.688 Y3.515
X9.933 Y2.822
X10.128 Y2.112
X10.272 Y1.388
X10.365 Y0.655
X10.406 Y-0.085
X10.394 Y-0.826
X10.329 Y-1.567
X10.211 Y-2.303
X10.041 Y-3.029
X9.82 Y-3.743
X9.548 Y-4.441
X9.226 Y-5.119
X8.856 Y-5.774
X8.44 Y-6.401
X7.98 Y-6.999
X7.477 Y-7.563
X6.935 Y-8.091
X6.355 Y-8.581
X5.741 Y-9.029
X5.095 Y-9.433
X4.42 Y-9.79
X3.721 Y-10.1
X2.999 Y-10.359
X2.26 Y-10.567
X1.506 Y-10.722
X0.742 Y-10.824
X-0.029 Y-10.871
X-0.803 Y-10.863
X-1.576 Y-10.8
X-2.344 Y-10.682
X-3.103 Y-10.509
X-3.849 Y-10.282
X-4.578 Y-10.003
X-5.287 Y-9.671
X-5.972 Y-9.29
X-6.63 Y-8.86
X-7.256 Y-8.383
X-7.848 Y-7.863
X-8.402 Y-7.3
X-8.916 Y-6.699
X-9.387 Y-6.061
X-9.811 Y-5.39
X-10.188 Y-4.69
X-10.515 Y-3.963
X-10.79 Y-3.213
X-10.91 Y-2.795
X-11.102 Y-2.033
X-11.24 Y-1.255
X-11.322 Y-0.465
X-11.349 Y0.333
X-11.318 Y1.134
X-11.231 Y1.933
X-11.086 Y2.727
X-10.885 Y3.51
X-10.628 Y4.279
X-10.316 Y5.03
X-9.951 Y5.758
X-9.534 Y6.459
X-9.068 Y7.131
X-8.554 Y7.768
X-7.995 Y8.369
X-7.394 Y8.93
X-6.753 Y9.447
X-6.076 Y9.919
X-5.389 Y10.327
X-4.642 Y10.703
X-3.871 Y11.024
X-3.079 Y11.29
X-2.27 Y11.499
X-1.447 Y11.649
X-0.615 Y11.741
X0.222 Y11.774
X1.059 Y11.747
X1.895 Y11.661
X2.724 Y11.515
X3.542 Y11.31
X4.344 Y11.047
X5.128 Y10.727
X5.887 Y10.352
X6.62 Y9.922
X7.321 Y9.442
X7.987 Y8.911
X8.615 Y8.334
X9.202 Y7.713
X9.743 Y7.05
X10.237 Y6.349
X10.681 Y5.614
X11.072 Y4.848
X11.408 Y4.054
X11.687 Y3.238
X11.908 Y2.402
X12.069 Y1.551
X12.17 Y0.69
X12.209 Y-0.178
X12.186 Y-1.048
X12.101 Y-1.915
X11.955 Y-2.774
X11.749 Y-3.62
X11.483 Y-4.45
X11.16 Y-5.259
X10.78 Y-6.043
X10.346 Y-6.798
X9.859 Y-7.521
X9.324 Y-8.208
X8.741 Y-8.855
X8.115 Y-9.46
X7.448 Y-10.021
X6.743 Y-10.533
X6.004 Y-10.994
X5.235 Y-11.403
X4.439 Y-11.758
X3.621 Y-12.057
X2.784 Y-12.298
X1.933 Y-12.481
X1.07 Y-12.605
X0.202 Y-12.669
X-0.67 Y-12.674
X-1.539 Y-12.619
X-2.402 Y-12.504
X-3.256 Y-12.331
X-4.096 Y-12.1
X-4.918 Y-11.813
X-5.719 Y-11.47
X-6.495 Y-11.074
X-7.242 Y-10.626
X-7.957 Y-10.128
X-8.637 Y-9.584
X-9.279 Y-8.995
X-9.88 Y-8.364
X-10.437 Y-7.694
X-10.947 Y-6.988
X-11.409 Y-6.25
X-11.819 Y-5.481
X-12.174 Y-4.686
X-12.478 Y-3.869
X-12.728 Y-3.035
X-12.923 Y-2.186
X-13.061 Y-1.326
X-13.141 Y-0.458
X-13.163 Y0.412
X-13.126 Y1.283
X-13.032 Y2.149
X-12.88 Y3.006
X-12.672 Y3.852
X-12.409 Y4.683
X-12.091 Y5.494
X-11.722 Y6.283
X-11.301 Y7.046
X-10.832 Y7.78
X-10.317 Y8.482
X-9.756 Y9.149
X-9.154 Y9.778
X-8.511 Y10.366
X-7.831 Y10.91
X-7.116 Y11.408
X-6.37 Y11.858
X-5.597 Y12.259
X-4.8 Y12.61
X-3.981 Y12.909
X-3.146 Y13.155
X-2.296 Y13.347
X-1.436 Y13.486
X-0.569 Y13.568
X0.302 Y13.594
X1.172 Y13.563
X2.039 Y13.476
X2.899 Y13.334
X3.747 Y13.138
X4.582 Y12.888
X5.399 Y12.587
X6.196 Y12.235
X6.969 Y11.834
X7.715 Y11.384
X8.43 Y10.886
X9.112 Y10.344
X9.758 Y9.76
X10.367 Y9.137
X10.935 Y8.477
X11.462 Y7.783
X11.945 Y7.058
X12.381 Y6.304
X12.768 Y5.523
X13.104 Y4.72
X13.39 Y3.897
X13.623 Y3.058
X13.805 Y2.206
X13.934 Y1.344
X14.011 Y0.476
X14.033 Y-0.394
X14. Y-1.265
X13.912 Y-2.131
X13.771 Y-2.991
X13.577 Y-3.84
X13.332 Y-4.676
X13.036 Y-5.496
X12.692 Y-6.296
X12.299 Y-7.073
X11.857 Y-7.824
X11.37 Y-8.546
X10.839 Y-9.237
X10.268 Y-9.894
X9.658 Y-10.516
X9.011 Y-11.1
X8.331 Y-11.644
X7.618 Y-12.145
X6.876 Y-12.601
X6.107 Y-13.01
X5.314 Y-13.372
X4.502 Y-13.685
X3.672 Y-13.95
X2.828 Y-14.165
X1.972 Y-14.329
X1.108 Y-14.44
X0.239 Y-14.498
X-0.632 Y-14.504
X-1.502 Y-14.457
X-2.368 Y-14.359
X-3.226 Y-14.209
X-4.074 Y-14.01
X-4.909 Y-13.761
X-5.727 Y-13.462
X-6.525 Y-13.114
X-7.301 Y-12.718
X-8.053 Y-12.278
X-8.777 Y-11.794
X-9.472 Y-11.268
X-10.135 Y-10.703
X-10.764 Y-10.101
X-11.355 Y-9.461
X-11.907 Y-8.787
X-12.418 Y-8.081
X-12.885 Y-7.346
X-13.309 Y-6.585
X-13.688 Y-5.801
X-14.021 Y-4.996
X-14.308 Y-4.173
X-14.546 Y-3.335
X-14.733 Y-2.485
X-14.87 Y-1.625
X-14.957 Y-0.758
X-14.993 Y0.113
X-14.978 Y0.984
X-14.914 Y1.852
X-14.799 Y2.716
X-14.673 Y3.371
X-14.653 Y3.463
X-14.524 Y4.056
X-14.466 Y4.254
X-14.404 Y4.452
X-14.333 Y4.65
X-13.816 Y6.035
X-13.751 Y6.203
X-13.739 Y6.233
X-13.641 Y6.43
X-13.101 Y7.42
X-12.96 Y7.673
X-12.655 Y8.211
X-12.564 Y8.337
X-11.621 Y9.596
X-11.377 Y9.904
X-11.298 Y9.992
X-9.992 Y11.298
X-9.904 Y11.377
X-9.596 Y11.621
X-8.337 Y12.564
X-8.211 Y12.655
X-7.618 Y12.991
X-7.315 Y13.158
X-6.43 Y13.641
X-6.233 Y13.739
X-6.203 Y13.751
X-6.035 Y13.816
X-4.618 Y14.345
X-4.452 Y14.404
X-4.254 Y14.466
X-4.056 Y14.524
X-2.869 Y14.782
X-2.671 Y14.824
X-2.078 Y14.941
X-1.88 Y14.958
X-0.099 Y15.086
X0.099
X1.88 Y14.958
X2.078 Y14.941
X2.671 Y14.824
X2.869 Y14.782
X4.056 Y14.524
X4.254 Y14.466
X4.452 Y14.404
X4.65 Y14.333
X6.035 Y13.816
X6.203 Y13.751
X6.233 Y13.739
X6.43 Y13.641
X7.42 Y13.101
X7.673 Y12.96
X8.211 Y12.655
X8.337 Y12.564
X9.596 Y11.621
X9.904 Y11.377
X9.992 Y11.298
X11.298 Y9.992
X11.377 Y9.904
X11.621 Y9.596
X12.564 Y8.337
X12.655 Y8.211
X12.991 Y7.618
X13.158 Y7.315
X13.641 Y6.43
X13.739 Y6.233
X13.751 Y6.203
X13.816 Y6.035
X14.345 Y4.618
X14.404 Y4.452
X14.466 Y4.254
X14.524 Y4.056
X14.782 Y2.869
X14.824 Y2.671
X14.941 Y2.078
X14.958 Y1.88
X15.086 Y0.099
Y-0.099
X14.958 Y-1.88
X14.941 Y-2.078
X14.824 Y-2.671
X14.782 Y-2.869
X14.524 Y-4.056
X14.466 Y-4.254
X14.404 Y-4.452
X14.333 Y-4.65
X13.816 Y-6.035
X13.751 Y-6.203
X13.739 Y-6.233
X13.641 Y-6.43
X13.101 Y-7.42
X12.96 Y-7.673
X12.655 Y-8.211
X12.564 Y-8.337
X11.621 Y-9.596
X11.377 Y-9.904
X11.298 Y-9.992
X9.992 Y-11.298
X9.904 Y-11.377
X9.596 Y-11.621
X8.337 Y-12.564
X8.211 Y-12.655
X7.618 Y-12.991
X7.315 Y-13.158
