(1001)
(T1  D=6. CR=3. - ZMIN=-12. - BALL END MILL)
G90 G94 G91.1 G40 G49 G17
G21

(2D CONTOUR2)
M5
T1 M6
S10000 M3
G54
M8
G0 X10.2 Y-0.6
G43 Z15. H1
Z6.
G1 Z-4.4 F330.
G18 G2 X10.8 Z-5. I0.6 K0.
G1 X11.4 F1440.
G17 G3 X12. Y0. I0. J0.6
X-12. I-12. J0.
X12. I12. J0.
X-12. I-12. J0.
X12. I12. J0.
X11.4 Y0.6 I-0.6 J0.
G1 X10.8
G18 G3 X10.2 Z-4.4 I0. K0.6
G0 Z5.
Y-0.6
G1 Z3.333 F330.
Z-9.4
G2 X10.8 Z-10. I0.6 K0.
G1 X11.4 F1440.
G17 G3 X12. Y0. I0. J0.6
X-12. I-12. J0.
X12. I12. J0.
X-12. I-12. J0.
X12. I12. J0.
X11.4 Y0.6 I-0.6 J0.
G1 X10.8
G18 G3 X10.2 Z-9.4 I0. K0.6
G0 Z5.
Y-0.6
G1 Z-1.667 F330.
Z-11.2
G2 X10.8 Z-11.8 I0.6 K0.
G1 X11.4 F1440.
G17 G3 X12. Y0. I0. J0.6
X-12. I-12. J0.
X12. I12. J0.
X-12. I-12. J0.
X12. I12. J0.
X11.4 Y0.6 I-0.6 J0.
G1 X10.8
G18 G3 X10.2 Z-11.2 I0. K0.6
G0 Z5.
Y-0.6
G1 Z-3.467 F330.
Z-11.4
G2 X10.8 Z-12. I0.6 K0.
G1 X11.4 F1440.
G17 G3 X12. Y0. I0. J0.6
X-12. I-12. J0.
X12. I12. J0.
X-12. I-12. J0.
X12. I12. J0.
X11.4 Y0.6 I-0.6 J0.
G1 X10.8
G18 G3 X10.2 Z-11.4 I0. K0.6
G0 Z6.
X33.715 Y-15.353
G1 Z-4.4 F330.
X33.707 Y-15.355 Z-4.494
X33.686 Y-15.359 Z-4.585
X33.65 Y-15.365 Z-4.672
X33.602 Y-15.374 Z-4.753
X33.542 Y-15.385 Z-4.824
X33.471 Y-15.398 Z-4.885
X33.392 Y-15.412 Z-4.935
X33.307 Y-15.427 Z-4.971
X33.216 Y-15.444 Z-4.993
X33.124 Y-15.46 Z-5.
X32.534 Y-15.568 F1440.
G17 G3 X32.05 Y-16.265 I0.107 J-0.59
G2 X31.697 Y-18.3 I-2.952 J-0.535
X18.3 Y-31.697 I-31.697 J18.3
X14.202 Y-30.598 I-1.5 J2.598
G1 X11.321 Y-25.609
G2 X-11.321 I-11.321 J25.609
G1 X-14.202 Y-30.598
G2 X-18.3 Y-31.697 I-2.598 J1.5
X-31.697 Y-18.3 I18.3 J31.697
X-30.598 Y-14.202 I2.598 J1.5
G1 X-25.609 Y-11.321
G2 Y11.321 I25.609 J11.321
G1 X-30.598 Y14.202
G2 X-31.697 Y18.3 I1.5 J2.598
X-18.3 Y31.697 I31.697 J-18.3
X-14.202 Y30.598 I1.5 J-2.598
G1 X-11.321 Y25.609
G2 X11.321 I11.321 J-25.609
G1 X14.202 Y30.598
G2 X18.3 Y31.697 I2.598 J-1.5
X31.697 Y18.3 I-18.3 J-31.697
X30.598 Y14.202 I-2.598 J-1.5
G1 X25.609 Y11.321
G2 Y-11.321 I-25.609 J-11.321
G1 X30.598 Y-14.202
G2 X31.697 Y-18.3 I-1.5 J-2.598
X18.3 Y-31.697 I-31.697 J18.3
X14.202 Y-30.598 I-1.5 J2.598
G1 X11.321 Y-25.609
G2 X-11.321 I-11.321 J25.609
G1 X-14.202 Y-30.598
G2 X-18.3 Y-31.697 I-2.598 J1.5
X-31.697 Y-18.3 I18.3 J31.697
X-30.598 Y-14.202 I2.598 J1.5
G1 X-25.609 Y-11.321
G2 Y11.321 I25.609 J11.321
G1 X-30.598 Y14.202
G2 X-31.697 Y18.3 I1.5 J2.598
X-18.3 Y31.697 I31.697 J-18.3
X-14.202 Y30.598 I1.5 J-2.598
G1 X-11.321 Y25.609
G2 X11.321 I11.321 J-25.609
G1 X14.202 Y30.598
G2 X18.3 Y31.697 I2.598 J-1.5
X31.697 Y18.3 I-18.3 J-31.697
X30.598 Y14.202 I-2.598 J-1.5
G1 X25.609 Y11.321
G2 Y-11.321 I-25.609 J-11.321
G1 X30.598 Y-14.202
G2 X32.05 Y-16.265 I-1.5 J-2.598
G3 X32.748 Y-16.748 I0.59 J0.107
G1 X33.338 Y-16.641
X33.431 Y-16.625 Z-4.993
X33.521 Y-16.608 Z-4.971
X33.606 Y-16.593 Z-4.935
X33.685 Y-16.578 Z-4.885
X33.756 Y-16.566 Z-4.824
X33.816 Y-16.555 Z-4.753
X33.864 Y-16.546 Z-4.672
X33.9 Y-16.539 Z-4.585
X33.921 Y-16.536 Z-4.494
X33.929 Y-16.534 Z-4.4
G0 Z5.
X33.715 Y-15.353
G1 Z3.333 F330.
Z-9.4
X33.707 Y-15.355 Z-9.494
X33.686 Y-15.359 Z-9.585
X33.65 Y-15.365 Z-9.672
X33.602 Y-15.374 Z-9.753
X33.542 Y-15.385 Z-9.824
X33.471 Y-15.398 Z-9.885
X33.392 Y-15.412 Z-9.935
X33.307 Y-15.427 Z-9.971
X33.216 Y-15.444 Z-9.993
X33.124 Y-15.46 Z-10.
X32.534 Y-15.568 F1440.
G3 X32.05 Y-16.265 I0.107 J-0.59
G2 X31.697 Y-18.3 I-2.952 J-0.535
X18.3 Y-31.697 I-31.697 J18.3
X14.202 Y-30.598 I-1.5 J2.598
G1 X11.321 Y-25.609
G2 X-11.321 I-11.321 J25.609
G1 X-14.202 Y-30.598
G2 X-18.3 Y-31.697 I-2.598 J1.5
X-31.697 Y-18.3 I18.3 J31.697
X-30.598 Y-14.202 I2.598 J1.5
G1 X-25.609 Y-11.321
G2 Y11.321 I25.609 J11.321
G1 X-30.598 Y14.202
G2 X-31.697 Y18.3 I1.5 J2.598
X-18.3 Y31.697 I31.697 J-18.3
X-14.202 Y30.598 I1.5 J-2.598
G1 X-11.321 Y25.609
G2 X11.321 I11.321 J-25.609
G1 X14.202 Y30.598
G2 X18.3 Y31.697 I2.598 J-1.5
X31.697 Y18.3 I-18.3 J-31.697
X30.598 Y14.202 I-2.598 J-1.5
G1 X25.609 Y11.321
G2 Y-11.321 I-25.609 J-11.321
G1 X30.598 Y-14.202
G2 X31.697 Y-18.3 I-1.5 J-2.598
X18.3 Y-31.697 I-31.697 J18.3
X14.202 Y-30.598 I-1.5 J2.598
G1 X11.321 Y-25.609
G2 X-11.321 I-11.321 J25.609
G1 X-14.202 Y-30.598
G2 X-18.3 Y-31.697 I-2.598 J1.5
X-31.697 Y-18.3 I18.3 J31.697
X-30.598 Y-14.202 I2.598 J1.5
G1 X-25.609 Y-11.321
G2 Y11.321 I25.609 J11.321
G1 X-30.598 Y14.202
G2 X-31.697 Y18.3 I1.5 J2.598
X-18.3 Y31.697 I31.697 J-18.3
X-14.202 Y30.598 I1.5 J-2.598
G1 X-11.321 Y25.609
G2 X11.321 I11.321 J-25.609
G1 X14.202 Y30.598
G2 X18.3 Y31.697 I2.598 J-1.5
X31.697 Y18.3 I-18.3 J-31.697
X30.598 Y14.202 I-2.598 J-1.5
G1 X25.609 Y11.321
G2 Y-11.321 I-25.609 J-11.321
G1 X30.598 Y-14.202
G2 X32.05 Y-16.265 I-1.5 J-2.598
G3 X32.748 Y-16.748 I0.59 J0.107
G1 X33.338 Y-16.641
X33.431 Y-16.625 Z-9.993
X33.521 Y-16.608 Z-9.971
X33.606 Y-16.593 Z-9.935
X33.685 Y-16.578 Z-9.885
X33.756 Y-16.566 Z-9.824
X33.816 Y-16.555 Z-9.753
X33.864 Y-16.546 Z-9.672
X33.9 Y-16.539 Z-9.585
X33.921 Y-16.536 Z-9.494
X33.929 Y-16.534 Z-9.4
G0 Z5.
X33.715 Y-15.353
G1 Z-1.667 F330.
Z-11.2
X33.707 Y-15.355 Z-11.294
X33.686 Y-15.359 Z-11.385
X33.65 Y-15.365 Z-11.472
X33.602 Y-15.374 Z-11.553
X33.542 Y-15.385 Z-11.624
X33.471 Y-15.398 Z-11.685
X33.392 Y-15.412 Z-11.735
X33.307 Y-15.427 Z-11.771
X33.216 Y-15.444 Z-11.793
X33.124 Y-15.46 Z-11.8
X32.534 Y-15.568 F1440.
G3 X32.05 Y-16.265 I0.107 J-0.59
G2 X31.697 Y-18.3 I-2.952 J-0.535
X18.3 Y-31.697 I-31.697 J18.3
X14.202 Y-30.598 I-1.5 J2.598
G1 X11.321 Y-25.609
G2 X-11.321 I-11.321 J25.609
G1 X-14.202 Y-30.598
G2 X-18.3 Y-31.697 I-2.598 J1.5
X-31.697 Y-18.3 I18.3 J31.697
X-30.598 Y-14.202 I2.598 J1.5
G1 X-25.609 Y-11.321
G2 Y11.321 I25.609 J11.321
G1 X-30.598 Y14.202
G2 X-31.697 Y18.3 I1.5 J2.598
X-18.3 Y31.697 I31.697 J-18.3
X-14.202 Y30.598 I1.5 J-2.598
G1 X-11.321 Y25.609
G2 X11.321 I11.321 J-25.609
G1 X14.202 Y30.598
G2 X18.3 Y31.697 I2.598 J-1.5
X31.697 Y18.3 I-18.3 J-31.697
X30.598 Y14.202 I-2.598 J-1.5
G1 X25.609 Y11.321
G2 Y-11.321 I-25.609 J-11.321
G1 X30.598 Y-14.202
G2 X31.697 Y-18.3 I-1.5 J-2.598
X18.3 Y-31.697 I-31.697 J18.3
X14.202 Y-30.598 I-1.5 J2.598
G1 X11.321 Y-25.609
G2 X-11.321 I-11.321 J25.609
G1 X-14.202 Y-30.598
G2 X-18.3 Y-31.697 I-2.598 J1.5
X-31.697 Y-18.3 I18.3 J31.697
X-30.598 Y-14.202 I2.598 J1.5
G1 X-25.609 Y-11.321
G2 Y11.321 I25.609 J11.321
G1 X-30.598 Y14.202
G2 X-31.697 Y18.3 I1.5 J2.598
X-18.3 Y31.697 I31.697 J-18.3
X-14.202 Y30.598 I1.5 J-2.598
G1 X-11.321 Y25.609
G2 X11.321 I11.321 J-25.609
G1 X14.202 Y30.598
G2 X18.3 Y31.697 I2.598 J-1.5
X31.697 Y18.3 I-18.3 J-31.697
X30.598 Y14.202 I-2.598 J-1.5
G1 X25.609 Y11.321
G2 Y-11.321 I-25.609 J-11.321
G1 X30.598 Y-14.202
G2 X32.05 Y-16.265 I-1.5 J-2.598
G3 X32.748 Y-16.748 I0.59 J0.107
G1 X33.338 Y-16.641
X33.431 Y-16.625 Z-11.793
X33.521 Y-16.608 Z-11.771
X33.606 Y-16.593 Z-11.735
X33.685 Y-16.578 Z-11.685
X33.756 Y-16.566 Z-11.624
X33.816 Y-16.555 Z-11.553
X33.864 Y-16.546 Z-11.472
X33.9 Y-16.539 Z-11.385
X33.921 Y-16.536 Z-11.294
X33.929 Y-16.534 Z-11.2
G0 Z5.
X33.715 Y-15.353
G1 Z-3.467 F330.
Z-11.4
X33.707 Y-15.355 Z-11.494
X33.686 Y-15.359 Z-11.585
X33.65 Y-15.365 Z-11.672
X33.602 Y-15.374 Z-11.753
X33.542 Y-15.385 Z-11.824
X33.471 Y-15.398 Z-11.885
X33.392 Y-15.412 Z-11.935
X33.307 Y-15.427 Z-11.971
X33.216 Y-15.444 Z-11.993
X33.124 Y-15.46 Z-12.
X32.534 Y-15.568 F1440.
G3 X32.05 Y-16.265 I0.107 J-0.59
G2 X31.697 Y-18.3 I-2.952 J-0.535
X18.3 Y-31.697 I-31.697 J18.3
X14.202 Y-30.598 I-1.5 J2.598
G1 X11.321 Y-25.609
G2 X-11.321 I-11.321 J25.609
G1 X-14.202 Y-30.598
G2 X-18.3 Y-31.697 I-2.598 J1.5
X-31.697 Y-18.3 I18.3 J31.697
X-30.598 Y-14.202 I2.598 J1.5
G1 X-25.609 Y-11.321
G2 Y11.321 I25.609 J11.321
G1 X-30.598 Y14.202
G2 X-31.697 Y18.3 I1.5 J2.598
X-18.3 Y31.697 I31.697 J-18.3
X-14.202 Y30.598 I1.5 J-2.598
G1 X-11.321 Y25.609
G2 X11.321 I11.321 J-25.609
G1 X14.202 Y30.598
G2 X18.3 Y31.697 I2.598 J-1.5
X31.697 Y18.3 I-18.3 J-31.697
X30.598 Y14.202 I-2.598 J-1.5
G1 X25.609 Y11.321
G2 Y-11.321 I-25.609 J-11.321
G1 X30.598 Y-14.202
G2 X31.697 Y-18.3 I-1.5 J-2.598
X18.3 Y-31.697 I-31.697 J18.3
X14.202 Y-30.598 I-1.5 J2.598
G1 X11.321 Y-25.609
G2 X-11.321 I-11.321 J25.609
G1 X-14.202 Y-30.598
G2 X-18.3 Y-31.697 I-2.598 J1.5
X-31.697 Y-18.3 I18.3 J31.697
X-30.598 Y-14.202 I2.598 J1.5
G1 X-25.609 Y-11.321
G2 Y11.321 I25.609 J11.321
G1 X-30.598 Y14.202
G2 X-31.697 Y18.3 I1.5 J2.598
X-18.3 Y31.697 I31.697 J-18.3
X-14.202 Y30.598 I1.5 J-2.598
G1 X-11.321 Y25.609
G2 X11.321 I11.321 J-25.609
G1 X14.202 Y30.598
G2 X18.3 Y31.697 I2.598 J-1.5
X31.697 Y18.3 I-18.3 J-31.697
X30.598 Y14.202 I-2.598 J-1.5
G1 X25.609 Y11.321
G2 Y-11.321 I-25.609 J-11.321
G1 X30.598 Y-14.202
G2 X32.05 Y-16.265 I-1.5 J-2.598
G3 X32.748 Y-16.748 I0.59 J0.107
G1 X33.338 Y-16.641
X33.431 Y-16.625 Z-11.993
X33.521 Y-16.608 Z-11.971
X33.606 Y-16.593 Z-11.935
X33.685 Y-16.578 Z-11.885
X33.756 Y-16.566 Z-11.824
X33.816 Y-16.555 Z-11.753
X33.864 Y-16.546 Z-11.672
X33.9 Y-16.539 Z-11.585
X33.921 Y-16.536 Z-11.494
X33.929 Y-16.534 Z-11.4
G0 Z15.

M9
M30
