(1001)
(T1  D=5.8 CR=2.9 - ZMIN=-12. - BALL END MILL)
G90 G94 G91.1 G40 G49 G17
G21

(2D CONTOUR2)
M5
T1 M6
S10000 M3
G54
M8
G0 X13.36 Y-0.58
G43 Z15. H1
Z5.
G1 Z1. F330.
Z-11.42
G18 G2 X13.94 Z-12. I0.58 K0. F1440.
G1 X14.52
G17 G3 X15.1 Y0. I0. J0.58
X-15.1 I-15.1 J0.
X15.1 I15.1 J0.
X14.52 Y0.58 I-0.58 J0.
G1 X13.94
G18 G3 X13.36 Z-11.42 I0. K0.58
G0 Z5.
X33.768 Y16.543
G1 Z1. F330.
Z-11.42
X33.761 Y16.544 Z-11.511 F1440.
X33.74 Y16.548 Z-11.599
X33.705 Y16.554 Z-11.683
X33.659 Y16.563 Z-11.761
X33.6 Y16.573 Z-11.83
X33.532 Y16.586 Z-11.889
X33.456 Y16.6 Z-11.937
X33.373 Y16.615 Z-11.972
X33.286 Y16.63 Z-11.993
X33.197 Y16.647 Z-12.
X32.626 Y16.75
G17 G3 X31.952 Y16.283 I-0.103 J-0.571
G2 X30.548 Y14.289 I-2.853 J0.517
G1 X25.481 Y11.363
G2 Y-11.363 I-25.481 J-11.363
G1 X30.548 Y-14.289
G2 X31.61 Y-18.25 I-1.45 J-2.511
X18.25 Y-31.61 I-31.61 J18.25
X14.289 Y-30.548 I-1.45 J2.511
G1 X11.363 Y-25.481
G2 X-11.363 I-11.363 J25.481
G1 X-14.289 Y-30.548
G2 X-18.25 Y-31.61 I-2.511 J1.45
X-31.61 Y-18.25 I18.25 J31.61
X-30.548 Y-14.289 I2.511 J1.45
G1 X-25.481 Y-11.363
G2 Y11.363 I25.481 J11.363
G1 X-30.548 Y14.289
G2 X-31.61 Y18.25 I1.45 J2.511
X-18.25 Y31.61 I31.61 J-18.25
X-14.289 Y30.548 I1.45 J-2.511
G1 X-11.363 Y25.481
G2 X11.363 I11.363 J-25.481
G1 X14.289 Y30.548
G2 X18.25 Y31.61 I2.511 J-1.45
X31.61 Y18.25 I-18.25 J-31.61
X31.952 Y16.283 I-2.511 J-1.45
G3 X32.419 Y15.609 I0.571 J-0.103
G1 X32.99 Y15.505
X33.079 Y15.489 Z-11.993
X33.166 Y15.473 Z-11.972
X33.249 Y15.458 Z-11.937
X33.325 Y15.444 Z-11.889
X33.393 Y15.432 Z-11.83
X33.452 Y15.421 Z-11.761
X33.498 Y15.413 Z-11.683
X33.533 Y15.407 Z-11.599
X33.554 Y15.403 Z-11.511
X33.561 Y15.402 Z-11.42
G0 Z15.

M9
M30
