(1001)
(T3  D=6. CR=0. - ZMIN=-12. - FLAT END MILL)
G90 G94 G91.1 G40 G49 G17
G21

(2D ADAPTIVE3)
M5
T3 M6
S10000 M3
G54
M8
G0 X-34.395 Y-33.548
G43 Z15. H3
Z5.
Z-3.8
G1 Z-4.4 F1440.
X-34.388 Y-33.544 Z-4.494
X-34.369 Y-33.533 Z-4.585
X-34.338 Y-33.514 Z-4.672
X-34.296 Y-33.489 Z-4.753
X-34.243 Y-33.458 Z-4.824
X-34.182 Y-33.422 Z-4.885
X-34.113 Y-33.381 Z-4.935
X-34.038 Y-33.336 Z-4.971
X-33.959 Y-33.29 Z-4.993
X-33.878 Y-33.242 Z-5.
G3 X-31.237 Y-31.264 I-7.805 J13.18
G1 X-31.158 Y-31.185
X-30.976 Y-30.892
X-30.782 Y-30.515
X-30.577 Y-30.023
X-30.363 Y-29.364
X-30.158 Y-28.502
X-30.017 Y-27.627
X-29.92 Y-26.746
X-29.853 Y-25.862
X-29.806 Y-24.977
X-29.773 Y-24.092
X-29.751 Y-23.206
X-29.735 Y-22.32
X-29.728 Y-21.771
X-29.752 Y-21.497
X-29.828 Y-21.233
X-29.955 Y-20.989
X-31.365 Y-18.817
X-31.614 Y-18.415
X-31.619 Y-18.408
G2 X-31.822 Y-18.145 I1.403 J1.29
G1 X-31.862 Y-18.072
X-31.891 Y-17.993
X-31.971 Y-17.728
X-32.016 Y-17.575
X-32.097 Y-17.306
X-32.115 Y-17.224
X-32.122 Y-17.141
G2 X-32.097 Y-16.81 I1.906 J0.023
G1 X-32.096 Y-16.805
X-32.088 Y-16.604
X-32.069 Y-16.402
X-32.037 Y-16.201
X-31.986 Y-16.
X-31.924 Y-15.799
X-31.899 Y-15.734
X-31.845 Y-15.597
X-31.748 Y-15.396
X-31.698 Y-15.309
X-31.628 Y-15.195
X-31.497 Y-15.006
X-31.324 Y-14.792
X-31.23 Y-14.676
X-31.053 Y-14.412
X-30.864 Y-14.073
X-30.664 Y-13.633
X-30.453 Y-13.052
X-30.234 Y-12.252
X-30.07 Y-11.381
X-29.956 Y-10.502
X-29.878 Y-9.62
X-29.823 Y-8.735
X-29.786 Y-7.85
X-29.759 Y-6.964
X-29.741 Y-6.078
X-29.728 Y-5.192
X-29.719 Y-4.306
X-29.713 Y-3.42
X-29.709 Y-2.534
X-29.703 Y-0.762
X-29.7 Y1.897
X-29.699 Y8.099
Y12.875
X-29.729 Y13.165
X-29.819 Y13.443
X-29.964 Y13.695
X-30.159 Y13.913
X-30.394 Y14.085
X-30.572 Y14.189
G3 X-31.293 Y14.071 I-0.284 J-0.529
G1 X-31.358 Y14.002 Z-4.993
X-31.42 Y13.935 Z-4.971
X-31.48 Y13.872 Z-4.935
X-31.535 Y13.813 Z-4.885
X-31.584 Y13.761 Z-4.824
X-31.626 Y13.717 Z-4.753
X-31.659 Y13.681 Z-4.672
X-31.684 Y13.655 Z-4.585
X-31.699 Y13.639 Z-4.494
X-31.704 Y13.633 Z-4.4
G0 Z5.
X-32.595 Y-15.317
Z-3.8
G1 Z-4.4 F1440.
X-32.588 Y-15.315 Z-4.494
X-32.566 Y-15.31 Z-4.585
X-32.531 Y-15.301 Z-4.672
X-32.484 Y-15.289 Z-4.753
X-32.424 Y-15.273 Z-4.824
X-32.355 Y-15.256 Z-4.885
X-32.277 Y-15.236 Z-4.935
X-32.193 Y-15.215 Z-4.971
X-32.104 Y-15.192 Z-4.993
X-32.013 Y-15.169 Z-5.
G3 X-31.324 Y-14.792 I-0.39 J1.534
G1 X-31.094 Y-14.562
X-30.879 Y-14.39
X-30.692 Y-14.259
X-30.227 Y-13.987
X-30.088 Y-13.907
X-29.924 Y-13.801
X-29.744 Y-13.663
X-29.547 Y-13.485
X-29.348 Y-13.275
X-29.129 Y-13.001
X-28.906 Y-12.673
X-28.668 Y-12.252
X-28.428 Y-11.736
X-28.179 Y-11.063
X-27.94 Y-10.21
X-27.765 Y-9.341
X-27.638 Y-8.464
X-27.545 Y-7.583
X-27.478 Y-6.699
X-27.428 Y-5.815
X-27.425 Y-5.735
X-27.426 Y-5.61
X-27.438 Y-5.485
X-27.461 Y-5.362
G3 X-28.611 Y-5.299 I-0.584 J-0.136
G1 X-31.41 Y-13.294
G3 X-30.851 Y-14.092 I0.566 J-0.198
X-30.088 Y-13.907 I0.02 J1.582
G1 X-28.075 Y-12.745
X-27.818 Y-12.579
X-27.601 Y-12.413
X-27.39 Y-12.222
X-27.155 Y-11.973
X-26.913 Y-11.671
X-26.659 Y-11.297
X-26.399 Y-10.837
X-26.311 Y-10.648
X-26.221 Y-10.389
X-26.182 Y-10.118
X-26.197 Y-9.844
X-26.265 Y-9.579
G3 X-27.328 Y-9.482 I-0.556 J-0.225
G1 X-28.863 Y-11.893
G3 X-28.075 Y-12.745 I0.506 J-0.322
G1 X-26.063 Y-11.583
X-26.046 Y-11.572
X-25.954 Y-11.5
X-25.902 Y-11.445
X-25.861 Y-11.39
X-25.85 Y-11.371
X-25.823 Y-11.321
X-25.801 Y-11.27
X-25.774 Y-11.17
X-25.764 Y-11.069
X-25.772 Y-10.968
X-25.797 Y-10.868
X-26.712 Y-8.352
X-26.781 Y-8.151
X-26.943 Y-7.547
X-27.42 Y-5.535
X-27.561 Y-4.931
X-27.615 Y-4.528
X-27.642 Y-4.327
X-27.736 Y-3.522
X-27.901 Y-2.113
X-27.944 Y-1.711
X-27.952 Y-1.509
X-27.957 Y-1.107
X-27.958 Y-0.906
Y0.906
X-27.955 Y1.308
X-27.952 Y1.509
X-27.944 Y1.711
X-27.901 Y2.113
X-27.666 Y4.126
X-27.642 Y4.327
X-27.569 Y5.21
X-27.487 Y6.092
X-27.43 Y6.977
X-27.39 Y7.862
X-27.362 Y8.748
X-27.343 Y9.634
X-27.33 Y10.52
X-27.334 Y11.406
X-27.352 Y11.628
X-27.399 Y11.894
X-27.497 Y12.147
X-27.641 Y12.375
X-27.827 Y12.572
X-28.047 Y12.729
G3 X-28.768 Y12.608 I-0.282 J-0.53
G1 X-28.832 Y12.54 Z-4.993
X-28.894 Y12.473 Z-4.971
X-28.953 Y12.409 Z-4.935
X-29.008 Y12.35 Z-4.885
X-29.057 Y12.298 Z-4.824
X-29.099 Y12.253 Z-4.753
X-29.132 Y12.217 Z-4.672
X-29.157 Y12.191 Z-4.585
X-29.172 Y12.175 Z-4.494
X-29.177 Y12.17 Z-4.4
G0 Z5.
X-28.332 Y3.138
Z-3.8
G1 Z-4.4 F1440.
X-28.327 Y3.144 Z-4.494
X-28.313 Y3.161 Z-4.585
X-28.291 Y3.189 Z-4.672
X-28.261 Y3.228 Z-4.753
X-28.223 Y3.276 Z-4.824
X-28.178 Y3.332 Z-4.885
X-28.129 Y3.395 Z-4.935
X-28.075 Y3.463 Z-4.971
X-28.018 Y3.535 Z-4.993
X-27.96 Y3.609 Z-5.
G3 X-27.642 Y4.327 I-1.242 J0.98
G1 X-27.588 Y4.73
X-27.561 Y4.931
X-27.42 Y5.535
X-26.943 Y7.547
X-26.781 Y8.151
X-26.712 Y8.352
X-26.063 Y10.136
X-25.94 Y10.534
X-25.911 Y10.787
X-25.936 Y11.041
X-26.014 Y11.284
X-26.14 Y11.505
X-26.31 Y11.695
X-26.517 Y11.845
G3 X-27.388 Y11.205 I-0.282 J-0.53
G1 X-27.209 Y10.25
G3 X-26.063 Y10.136 I0.59 J0.111
G1 X-25.797 Y10.868
X-25.772 Y10.968
X-25.764 Y11.069
X-25.774 Y11.17
X-25.801 Y11.27
X-25.823 Y11.321
X-25.85 Y11.371
X-25.861 Y11.39
X-25.902 Y11.445
X-25.954 Y11.5
X-26.046 Y11.572
X-26.063 Y11.583
X-30.289 Y14.024
X-30.394 Y14.085
X-30.402 Y14.088
G2 X-31.176 Y14.521 I0.839 J2.41
G1 X-31.224 Y14.565
X-31.268 Y14.614
X-31.306 Y14.668
X-31.973 Y15.736
X-32.004 Y15.794
X-32.029 Y15.854
X-32.048 Y15.917
G2 X-32.097 Y16.802 I2.485 J0.581
G1 X-32.096 Y16.805
X-32.089 Y17.006
X-32.067 Y17.207
X-32.032 Y17.409
X-31.987 Y17.61
X-31.916 Y17.811
X-31.832 Y18.012
X-31.738 Y18.214
X-31.49 Y18.616
X-31.365 Y18.817
X-31.104 Y19.22
X-30.907 Y19.56
X-30.709 Y19.974
X-30.5 Y20.519
X-30.283 Y21.261
X-30.103 Y22.129
X-29.979 Y23.006
X-29.894 Y23.888
X-29.835 Y24.772
X-29.793 Y25.658
X-29.765 Y26.543
X-29.613 Y26.959
X-29.13 Y27.703
X-28.444 Y28.264
X-27.66 Y28.675
X-26.825 Y28.973
X-25.965 Y29.187
X-25.092 Y29.338
X-24.212 Y29.446
X-23.329 Y29.521
X-22.445 Y29.574
X-21.897 Y29.597
X-21.649 Y29.63
X-21.411 Y29.706
X-21.191 Y29.823
X-19.545 Y30.893
X-18.817 Y31.365
X-18.415 Y31.614
X-18.408 Y31.619
G2 X-18.145 Y31.822 I1.29 J-1.403
G1 X-18.072 Y31.862
X-17.993 Y31.891
X-17.728 Y31.971
X-17.575 Y32.016
X-17.306 Y32.097
X-17.224 Y32.115
X-17.141 Y32.122
G2 X-16.81 Y32.097 I0.023 J-1.906
G1 X-16.805 Y32.096
X-16.604 Y32.088
X-16.402 Y32.069
X-16.201 Y32.037
X-16. Y31.986
X-15.799 Y31.924
X-15.734 Y31.899
X-15.597 Y31.845
X-15.396 Y31.748
X-15.309 Y31.698
X-15.195 Y31.628
X-15.006 Y31.497
X-14.792 Y31.324
X-14.676 Y31.23
X-14.412 Y31.053
X-14.073 Y30.864
X-13.633 Y30.664
X-13.052 Y30.453
X-12.252 Y30.234
X-11.381 Y30.07
X-10.502 Y29.956
X-9.62 Y29.878
X-8.735 Y29.823
X-7.85 Y29.786
X-6.964 Y29.759
X-6.078 Y29.741
X-5.192 Y29.728
X-4.306 Y29.719
X-3.42 Y29.713
X-2.534 Y29.709
X-0.762 Y29.703
X1.897 Y29.7
X8.099 Y29.699
X12.875
X13.165 Y29.729
X13.443 Y29.819
X13.695 Y29.964
X13.913 Y30.159
X14.085 Y30.394
X14.189 Y30.572
G3 X14.071 Y31.293 I-0.529 J0.284
G1 X14.002 Y31.358 Z-4.993
X13.935 Y31.42 Z-4.971
X13.872 Y31.48 Z-4.935
X13.813 Y31.535 Z-4.885
X13.761 Y31.584 Z-4.824
X13.717 Y31.626 Z-4.753
X13.681 Y31.659 Z-4.672
X13.655 Y31.684 Z-4.585
X13.639 Y31.699 Z-4.494
X13.633 Y31.704 Z-4.4
G0 Z5.
X-15.317 Y32.595
Z-3.8
G1 Z-4.4 F1440.
X-15.315 Y32.588 Z-4.494
X-15.31 Y32.566 Z-4.585
X-15.301 Y32.531 Z-4.672
X-15.289 Y32.484 Z-4.753
X-15.273 Y32.424 Z-4.824
X-15.256 Y32.355 Z-4.885
X-15.236 Y32.277 Z-4.935
X-15.215 Y32.193 Z-4.971
X-15.192 Y32.104 Z-4.993
X-15.169 Y32.013 Z-5.
G3 X-14.792 Y31.324 I1.534 J0.39
G1 X-14.562 Y31.094
X-14.39 Y30.879
X-14.259 Y30.692
X-13.987 Y30.227
X-13.907 Y30.088
X-13.801 Y29.924
X-13.663 Y29.744
X-13.485 Y29.547
X-13.275 Y29.348
X-13.001 Y29.129
X-12.673 Y28.906
X-12.252 Y28.668
X-11.736 Y28.428
X-11.063 Y28.179
X-10.21 Y27.94
X-9.341 Y27.765
X-8.464 Y27.638
X-7.583 Y27.545
X-6.699 Y27.478
X-5.815 Y27.428
X-5.735 Y27.425
X-5.61 Y27.426
X-5.485 Y27.438
X-5.362 Y27.461
G3 X-5.299 Y28.611 I-0.136 J0.584
G1 X-13.294 Y31.41
G3 X-14.092 Y30.851 I-0.198 J-0.566
X-13.907 Y30.088 I1.582 J-0.02
G1 X-12.745 Y28.075
X-12.579 Y27.818
X-12.413 Y27.601
X-12.222 Y27.39
X-11.973 Y27.155
X-11.671 Y26.913
X-11.297 Y26.659
X-10.837 Y26.399
X-10.648 Y26.311
X-10.389 Y26.221
X-10.118 Y26.182
X-9.844 Y26.197
X-9.579 Y26.265
G3 X-9.482 Y27.328 I-0.225 J0.556
G1 X-11.893 Y28.863
G3 X-12.745 Y28.075 I-0.322 J-0.506
G1 X-11.583 Y26.063
X-11.572 Y26.046
X-11.5 Y25.954
X-11.445 Y25.902
X-11.39 Y25.861
X-11.371 Y25.85
X-11.321 Y25.823
X-11.27 Y25.801
X-11.17 Y25.774
X-11.069 Y25.764
X-10.968 Y25.772
X-10.868 Y25.797
X-8.352 Y26.712
X-8.151 Y26.781
X-7.547 Y26.943
X-5.535 Y27.42
X-4.931 Y27.561
X-4.528 Y27.615
X-4.327 Y27.642
X-3.522 Y27.736
X-2.113 Y27.901
X-1.711 Y27.944
X-1.509 Y27.952
X-1.107 Y27.957
X-0.906 Y27.958
X0.906
X1.308 Y27.955
X1.509 Y27.952
X1.711 Y27.944
X2.113 Y27.901
X4.126 Y27.666
X4.327 Y27.642
X5.21 Y27.569
X6.092 Y27.487
X6.977 Y27.43
X7.862 Y27.39
X8.748 Y27.362
X9.634 Y27.343
X10.52 Y27.33
X11.406 Y27.334
X11.628 Y27.352
X11.894 Y27.399
X12.147 Y27.497
X12.375 Y27.641
X12.572 Y27.827
X12.729 Y28.047
G3 X12.608 Y28.768 I-0.53 J0.282
G1 X12.54 Y28.832 Z-4.993
X12.473 Y28.894 Z-4.971
X12.409 Y28.953 Z-4.935
X12.35 Y29.008 Z-4.885
X12.298 Y29.057 Z-4.824
X12.253 Y29.099 Z-4.753
X12.217 Y29.132 Z-4.672
X12.191 Y29.157 Z-4.585
X12.175 Y29.172 Z-4.494
X12.17 Y29.177 Z-4.4
G0 Z5.
X3.138 Y28.332
Z-3.8
G1 Z-4.4 F1440.
X3.144 Y28.327 Z-4.494
X3.161 Y28.313 Z-4.585
X3.189 Y28.291 Z-4.672
X3.228 Y28.261 Z-4.753
X3.276 Y28.223 Z-4.824
X3.332 Y28.178 Z-4.885
X3.395 Y28.129 Z-4.935
X3.463 Y28.075 Z-4.971
X3.535 Y28.018 Z-4.993
X3.609 Y27.96 Z-5.
G3 X4.327 Y27.642 I0.98 J1.242
G1 X4.73 Y27.588
X4.931 Y27.561
X5.535 Y27.42
X7.547 Y26.943
X8.151 Y26.781
X8.352 Y26.712
X10.136 Y26.063
X10.534 Y25.94
X10.787 Y25.911
X11.041 Y25.936
X11.284 Y26.014
X11.505 Y26.14
X11.695 Y26.31
X11.845 Y26.517
G3 X11.205 Y27.388 I-0.53 J0.282
G1 X10.25 Y27.209
G3 X10.136 Y26.063 I0.111 J-0.59
G1 X10.868 Y25.797
X10.968 Y25.772
X11.069 Y25.764
X11.17 Y25.774
X11.27 Y25.801
X11.321 Y25.823
X11.371 Y25.85
X11.39 Y25.861
X11.445 Y25.902
X11.5 Y25.954
X11.572 Y26.046
X11.583 Y26.063
X14.024 Y30.289
X14.085 Y30.394
X14.088 Y30.402
G2 X14.521 Y31.176 I2.41 J-0.839
G1 X14.565 Y31.224
X14.614 Y31.268
X14.668 Y31.306
X15.736 Y31.973
X15.794 Y32.004
X15.854 Y32.029
X15.917 Y32.048
G2 X16.802 Y32.097 I0.581 J-2.485
G1 X16.805 Y32.096
X17.006 Y32.089
X17.207 Y32.067
X17.409 Y32.032
X17.61 Y31.987
X17.811 Y31.916
X18.012 Y31.832
X18.214 Y31.738
X18.616 Y31.49
X18.817 Y31.365
X19.22 Y31.104
X19.56 Y30.907
X19.974 Y30.709
X20.519 Y30.5
X21.261 Y30.283
X22.129 Y30.103
X23.006 Y29.979
X23.888 Y29.894
X24.772 Y29.835
X25.658 Y29.793
X26.543 Y29.765
X26.959 Y29.613
X27.703 Y29.13
X28.264 Y28.444
X28.675 Y27.66
X28.973 Y26.825
X29.187 Y25.965
X29.338 Y25.092
X29.446 Y24.212
X29.521 Y23.329
X29.574 Y22.445
X29.597 Y21.897
X29.63 Y21.649
X29.706 Y21.411
X29.823 Y21.191
X30.893 Y19.545
X31.365 Y18.817
X31.614 Y18.415
X31.619 Y18.408
G2 X31.822 Y18.145 I-1.403 J-1.29
G1 X31.862 Y18.072
X31.891 Y17.993
X31.971 Y17.728
X32.016 Y17.575
X32.097 Y17.306
X32.115 Y17.224
X32.122 Y17.141
G2 X32.097 Y16.81 I-1.906 J-0.023
G1 X32.096 Y16.805
X32.088 Y16.604
X32.069 Y16.402
X32.037 Y16.201
X31.986 Y16.
X31.924 Y15.799
X31.899 Y15.734
X31.845 Y15.597
X31.748 Y15.396
X31.698 Y15.309
X31.628 Y15.195
X31.497 Y15.006
X31.324 Y14.792
X31.23 Y14.676
X31.053 Y14.412
X30.864 Y14.073
X30.664 Y13.633
X30.453 Y13.052
X30.234 Y12.252
X30.07 Y11.381
X29.956 Y10.502
X29.878 Y9.62
X29.823 Y8.735
X29.786 Y7.85
X29.759 Y6.964
X29.741 Y6.078
X29.728 Y5.192
X29.719 Y4.306
X29.713 Y3.42
X29.709 Y2.534
X29.703 Y0.762
X29.7 Y-1.897
X29.699 Y-8.099
Y-12.875
X29.729 Y-13.165
X29.819 Y-13.443
X29.964 Y-13.695
X30.159 Y-13.913
X30.394 Y-14.085
X30.572 Y-14.189
G3 X31.293 Y-14.071 I0.284 J0.529
G1 X31.358 Y-14.002 Z-4.993
X31.42 Y-13.935 Z-4.971
X31.48 Y-13.872 Z-4.935
X31.535 Y-13.813 Z-4.885
X31.584 Y-13.761 Z-4.824
X31.626 Y-13.717 Z-4.753
X31.659 Y-13.681 Z-4.672
X31.684 Y-13.655 Z-4.585
X31.699 Y-13.639 Z-4.494
X31.704 Y-13.633 Z-4.4
G0 Z5.
X32.595 Y15.317
Z-3.8
G1 Z-4.4 F1440.
X32.588 Y15.315 Z-4.494
X32.566 Y15.31 Z-4.585
X32.531 Y15.301 Z-4.672
X32.484 Y15.289 Z-4.753
X32.424 Y15.273 Z-4.824
X32.355 Y15.256 Z-4.885
X32.277 Y15.236 Z-4.935
X32.193 Y15.215 Z-4.971
X32.104 Y15.192 Z-4.993
X32.013 Y15.169 Z-5.
G3 X31.324 Y14.792 I0.39 J-1.534
G1 X31.094 Y14.562
X30.879 Y14.39
X30.692 Y14.259
X30.227 Y13.987
X30.088 Y13.907
X29.924 Y13.801
X29.744 Y13.663
X29.547 Y13.485
X29.348 Y13.275
X29.129 Y13.001
X28.906 Y12.673
X28.668 Y12.252
X28.428 Y11.736
X28.179 Y11.063
X27.94 Y10.21
X27.765 Y9.341
X27.638 Y8.464
X27.545 Y7.583
X27.478 Y6.699
X27.428 Y5.815
X27.425 Y5.735
X27.426 Y5.61
X27.438 Y5.485
X27.461 Y5.362
G3 X28.611 Y5.299 I0.584 J0.136
G1 X31.41 Y13.294
G3 X30.851 Y14.092 I-0.566 J0.198
X30.088 Y13.907 I-0.02 J-1.582
G1 X28.075 Y12.745
X27.818 Y12.579
X27.601 Y12.413
X27.39 Y12.222
X27.155 Y11.973
X26.913 Y11.671
X26.659 Y11.297
X26.399 Y10.837
X26.311 Y10.648
X26.221 Y10.389
X26.182 Y10.118
X26.197 Y9.844
X26.265 Y9.579
G3 X27.328 Y9.482 I0.556 J0.225
G1 X28.863 Y11.893
G3 X28.075 Y12.745 I-0.506 J0.322
G1 X26.063 Y11.583
X26.046 Y11.572
X25.954 Y11.5
X25.902 Y11.445
X25.861 Y11.39
X25.85 Y11.371
X25.823 Y11.321
X25.801 Y11.27
X25.774 Y11.17
X25.764 Y11.069
X25.772 Y10.968
X25.797 Y10.868
X26.712 Y8.352
X26.781 Y8.151
X26.943 Y7.547
X27.42 Y5.535
X27.561 Y4.931
X27.615 Y4.528
X27.642 Y4.327
X27.736 Y3.522
X27.901 Y2.113
X27.944 Y1.711
X27.952 Y1.509
X27.957 Y1.107
X27.958 Y0.906
Y-0.906
X27.955 Y-1.308
X27.952 Y-1.509
X27.944 Y-1.711
X27.901 Y-2.113
X27.666 Y-4.126
X27.642 Y-4.327
X27.569 Y-5.21
X27.487 Y-6.092
X27.43 Y-6.977
X27.39 Y-7.862
X27.362 Y-8.748
X27.343 Y-9.634
X27.33 Y-10.52
X27.334 Y-11.406
X27.352 Y-11.628
X27.399 Y-11.894
X27.497 Y-12.147
X27.641 Y-12.375
X27.827 Y-12.572
X28.047 Y-12.729
G3 X28.768 Y-12.608 I0.282 J0.53
G1 X28.832 Y-12.54 Z-4.993
X28.894 Y-12.473 Z-4.971
X28.953 Y-12.409 Z-4.935
X29.008 Y-12.35 Z-4.885
X29.057 Y-12.298 Z-4.824
X29.099 Y-12.253 Z-4.753
X29.132 Y-12.217 Z-4.672
X29.157 Y-12.191 Z-4.585
X29.172 Y-12.175 Z-4.494
X29.177 Y-12.17 Z-4.4
G0 Z5.
X28.332 Y-3.138
Z-3.8
G1 Z-4.4 F1440.
X28.327 Y-3.144 Z-4.494
X28.313 Y-3.161 Z-4.585
X28.291 Y-3.189 Z-4.672
X28.261 Y-3.228 Z-4.753
X28.223 Y-3.276 Z-4.824
X28.178 Y-3.332 Z-4.885
X28.129 Y-3.395 Z-4.935
X28.075 Y-3.463 Z-4.971
X28.018 Y-3.535 Z-4.993
X27.96 Y-3.609 Z-5.
G3 X27.642 Y-4.327 I1.242 J-0.98
G1 X27.588 Y-4.73
X27.561 Y-4.931
X27.42 Y-5.535
X26.943 Y-7.547
X26.781 Y-8.151
X26.712 Y-8.352
X26.063 Y-10.136
X25.94 Y-10.534
X25.911 Y-10.787
X25.936 Y-11.041
X26.014 Y-11.284
X26.14 Y-11.505
X26.31 Y-11.695
X26.517 Y-11.845
G3 X27.388 Y-11.205 I0.282 J0.53
G1 X27.209 Y-10.25
G3 X26.063 Y-10.136 I-0.59 J-0.111
G1 X25.797 Y-10.868
X25.772 Y-10.968
X25.764 Y-11.069
X25.774 Y-11.17
X25.801 Y-11.27
X25.823 Y-11.321
X25.85 Y-11.371
X25.861 Y-11.39
X25.902 Y-11.445
X25.954 Y-11.5
X26.046 Y-11.572
X26.063 Y-11.583
X30.289 Y-14.024
X30.394 Y-14.085
X30.402 Y-14.088
G2 X31.176 Y-14.521 I-0.839 J-2.41
G1 X31.224 Y-14.565
X31.268 Y-14.614
X31.306 Y-14.668
X31.973 Y-15.736
X32.004 Y-15.794
X32.029 Y-15.854
X32.048 Y-15.917
G2 X32.097 Y-16.802 I-2.485 J-0.581
G1 X32.096 Y-16.805
X32.089 Y-17.006
X32.067 Y-17.207
X32.032 Y-17.409
X31.987 Y-17.61
X31.916 Y-17.811
X31.832 Y-18.012
X31.738 Y-18.214
X31.49 Y-18.616
X31.365 Y-18.817
X31.104 Y-19.22
X30.907 Y-19.56
X30.709 Y-19.974
X30.5 Y-20.519
X30.283 Y-21.261
X30.103 Y-22.129
X29.979 Y-23.006
X29.894 Y-23.888
X29.835 Y-24.772
X29.793 Y-25.658
X29.765 Y-26.543
X29.613 Y-26.959
X29.13 Y-27.703
X28.444 Y-28.264
X27.66 Y-28.675
X26.825 Y-28.973
X25.965 Y-29.187
X25.092 Y-29.338
X24.212 Y-29.446
X23.329 Y-29.521
X22.445 Y-29.574
X21.897 Y-29.597
X21.649 Y-29.63
X21.411 Y-29.706
X21.191 Y-29.823
X19.545 Y-30.893
X18.817 Y-31.365
X18.415 Y-31.614
X18.408 Y-31.619
G2 X18.145 Y-31.822 I-1.29 J1.403
G1 X18.072 Y-31.862
X17.993 Y-31.891
X17.728 Y-31.971
X17.575 Y-32.016
X17.306 Y-32.097
X17.224 Y-32.115
X17.141 Y-32.122
G2 X16.81 Y-32.097 I-0.023 J1.906
G1 X16.805 Y-32.096
X16.604 Y-32.088
X16.402 Y-32.069
X16.201 Y-32.037
X16. Y-31.986
X15.799 Y-31.924
X15.734 Y-31.899
X15.597 Y-31.845
X15.396 Y-31.748
X15.309 Y-31.698
X15.195 Y-31.628
X15.006 Y-31.497
X14.792 Y-31.324
X14.676 Y-31.23
X14.412 Y-31.053
X14.073 Y-30.864
X13.633 Y-30.664
X13.052 Y-30.453
X12.252 Y-30.234
X11.381 Y-30.07
X10.502 Y-29.956
X9.62 Y-29.878
X8.735 Y-29.823
X7.85 Y-29.786
X6.964 Y-29.759
X6.078 Y-29.741
X5.192 Y-29.728
X4.306 Y-29.719
X3.42 Y-29.713
X2.534 Y-29.709
X0.762 Y-29.703
X-1.897 Y-29.7
X-8.099 Y-29.699
X-12.875
X-13.165 Y-29.729
X-13.443 Y-29.819
X-13.695 Y-29.964
X-13.913 Y-30.159
X-14.085 Y-30.394
X-14.189 Y-30.572
G3 X-14.071 Y-31.293 I0.529 J-0.284
G1 X-14.002 Y-31.358 Z-4.993
X-13.935 Y-31.42 Z-4.971
X-13.872 Y-31.48 Z-4.935
X-13.813 Y-31.535 Z-4.885
X-13.761 Y-31.584 Z-4.824
X-13.717 Y-31.626 Z-4.753
X-13.681 Y-31.659 Z-4.672
X-13.655 Y-31.684 Z-4.585
X-13.639 Y-31.699 Z-4.494
X-13.633 Y-31.704 Z-4.4
G0 Z5.
X15.317 Y-32.595
Z-3.8
G1 Z-4.4 F1440.
X15.315 Y-32.588 Z-4.494
X15.31 Y-32.566 Z-4.585
X15.301 Y-32.531 Z-4.672
X15.289 Y-32.484 Z-4.753
X15.273 Y-32.424 Z-4.824
X15.256 Y-32.355 Z-4.885
X15.236 Y-32.277 Z-4.935
X15.215 Y-32.193 Z-4.971
X15.192 Y-32.104 Z-4.993
X15.169 Y-32.013 Z-5.
G3 X14.792 Y-31.324 I-1.534 J-0.39
G1 X14.562 Y-31.094
X14.39 Y-30.879
X14.259 Y-30.692
X13.987 Y-30.227
X13.907 Y-30.088
X13.801 Y-29.924
X13.663 Y-29.744
X13.485 Y-29.547
X13.275 Y-29.348
X13.001 Y-29.129
X12.673 Y-28.906
X12.252 Y-28.668
X11.736 Y-28.428
X11.063 Y-28.179
X10.21 Y-27.94
X9.341 Y-27.765
X8.464 Y-27.638
X7.583 Y-27.545
X6.699 Y-27.478
X5.815 Y-27.428
X5.735 Y-27.425
X5.61 Y-27.426
X5.485 Y-27.438
X5.362 Y-27.461
G3 X5.299 Y-28.611 I0.136 J-0.584
G1 X13.294 Y-31.41
G3 X14.092 Y-30.851 I0.198 J0.566
X13.907 Y-30.088 I-1.582 J0.02
G1 X12.745 Y-28.075
X12.579 Y-27.818
X12.413 Y-27.601
X12.222 Y-27.39
X11.973 Y-27.155
X11.671 Y-26.913
X11.297 Y-26.659
X10.837 Y-26.399
X10.648 Y-26.311
X10.389 Y-26.221
X10.118 Y-26.182
X9.844 Y-26.197
X9.579 Y-26.265
G3 X9.482 Y-27.328 I0.225 J-0.556
G1 X11.893 Y-28.863
G3 X12.745 Y-28.075 I0.322 J0.506
G1 X11.583 Y-26.063
X11.572 Y-26.046
X11.5 Y-25.954
X11.445 Y-25.902
X11.39 Y-25.861
X11.371 Y-25.85
X11.321 Y-25.823
X11.27 Y-25.801
X11.17 Y-25.774
X11.069 Y-25.764
X10.968 Y-25.772
X10.868 Y-25.797
X8.352 Y-26.712
X8.151 Y-26.781
X7.547 Y-26.943
X5.535 Y-27.42
X4.931 Y-27.561
X4.528 Y-27.615
X4.327 Y-27.642
X3.522 Y-27.736
X2.113 Y-27.901
X1.711 Y-27.944
X1.509 Y-27.952
X1.107 Y-27.957
X0.906 Y-27.958
X-0.906
X-1.308 Y-27.955
X-1.509 Y-27.952
X-1.711 Y-27.944
X-2.113 Y-27.901
X-4.126 Y-27.666
X-4.327 Y-27.642
X-5.21 Y-27.569
X-6.092 Y-27.487
X-6.977 Y-27.43
X-7.862 Y-27.39
X-8.748 Y-27.362
X-9.634 Y-27.343
X-10.52 Y-27.33
X-11.406 Y-27.334
X-11.628 Y-27.352
X-11.894 Y-27.399
X-12.147 Y-27.497
X-12.375 Y-27.641
X-12.572 Y-27.827
X-12.729 Y-28.047
G3 X-12.608 Y-28.768 I0.53 J-0.282
G1 X-12.54 Y-28.832 Z-4.993
X-12.473 Y-28.894 Z-4.971
X-12.409 Y-28.953 Z-4.935
X-12.35 Y-29.008 Z-4.885
X-12.298 Y-29.057 Z-4.824
X-12.253 Y-29.099 Z-4.753
X-12.217 Y-29.132 Z-4.672
X-12.191 Y-29.157 Z-4.585
X-12.175 Y-29.172 Z-4.494
X-12.17 Y-29.177 Z-4.4
G0 Z5.
X-3.138 Y-28.332
Z-3.8
G1 Z-4.4 F1440.
X-3.144 Y-28.327 Z-4.494
X-3.161 Y-28.313 Z-4.585
X-3.189 Y-28.291 Z-4.672
X-3.228 Y-28.261 Z-4.753
X-3.276 Y-28.223 Z-4.824
X-3.332 Y-28.178 Z-4.885
X-3.395 Y-28.129 Z-4.935
X-3.463 Y-28.075 Z-4.971
X-3.535 Y-28.018 Z-4.993
X-3.609 Y-27.96 Z-5.
G3 X-4.327 Y-27.642 I-0.98 J-1.242
G1 X-4.73 Y-27.588
X-4.931 Y-27.561
X-5.535 Y-27.42
X-7.547 Y-26.943
X-8.151 Y-26.781
X-8.352 Y-26.712
X-10.136 Y-26.063
X-10.534 Y-25.94
X-10.787 Y-25.911
X-11.041 Y-25.936
X-11.284 Y-26.014
X-11.505 Y-26.14
X-11.695 Y-26.31
X-11.845 Y-26.517
G3 X-11.205 Y-27.388 I0.53 J-0.282
G1 X-10.25 Y-27.209
G3 X-10.136 Y-26.063 I-0.111 J0.59
G1 X-10.868 Y-25.797
X-10.968 Y-25.772
X-11.069 Y-25.764
X-11.17 Y-25.774
X-11.27 Y-25.801
X-11.321 Y-25.823
X-11.371 Y-25.85
X-11.39 Y-25.861
X-11.445 Y-25.902
X-11.5 Y-25.954
X-11.572 Y-26.046
X-11.583 Y-26.063
X-14.024 Y-30.289
X-14.085 Y-30.394
X-14.088 Y-30.402
G2 X-14.521 Y-31.176 I-2.41 J0.839
G1 X-14.565 Y-31.224
X-14.614 Y-31.268
X-14.668 Y-31.306
X-15.736 Y-31.973
X-15.794 Y-32.004
X-15.854 Y-32.029
X-15.917 Y-32.048
G2 X-16.802 Y-32.097 I-0.581 J2.485
G1 X-16.805 Y-32.096
X-17.006 Y-32.089
X-17.207 Y-32.067
X-17.409 Y-32.032
X-17.61 Y-31.987
X-17.811 Y-31.916
X-18.012 Y-31.832
X-18.214 Y-31.738
X-18.616 Y-31.49
X-18.817 Y-31.365
X-19.22 Y-31.104
X-19.56 Y-30.907
X-19.974 Y-30.709
X-20.519 Y-30.5
X-21.261 Y-30.283
X-22.129 Y-30.103
X-23.006 Y-29.979
X-23.888 Y-29.894
X-24.33 Y-29.864
X-24.551 Y-29.842
X-24.765 Y-29.785
X-25.17 Y-29.606
X-25.828 Y-29.012
X-26.296 Y-28.26
X-26.622 Y-27.436
X-26.846 Y-26.578
X-26.998 Y-25.705
X-27.079 Y-25.01
X-27.137 Y-24.738
X-27.244 Y-24.482
X-27.398 Y-24.251
X-29.353 Y-21.836
X-29.51 Y-21.635
X-29.665 Y-21.434
X-29.955 Y-20.989
G3 X-30.652 Y-20.77 I-0.491 J-0.345
G1 X-30.74 Y-20.803 Z-4.993
X-30.826 Y-20.834 Z-4.971
X-30.908 Y-20.864 Z-4.935
X-30.983 Y-20.891 Z-4.885
X-31.05 Y-20.916 Z-4.824
X-31.108 Y-20.937 Z-4.753
X-31.154 Y-20.954 Z-4.672
X-31.188 Y-20.966 Z-4.585
X-31.208 Y-20.974 Z-4.494
X-31.215 Y-20.976 Z-4.4
G0 Z5.
X-18.443 Y-32.238
Z-3.8
G1 Z-4.4 F1440.
X-18.446 Y-32.232 Z-4.494
X-18.456 Y-32.212 Z-4.585
X-18.472 Y-32.179 Z-4.672
X-18.494 Y-32.135 Z-4.753
X-18.521 Y-32.081 Z-4.824
X-18.552 Y-32.016 Z-4.885
X-18.588 Y-31.944 Z-4.935
X-18.626 Y-31.866 Z-4.971
X-18.667 Y-31.784 Z-4.993
X-18.709 Y-31.7 Z-5.
G3 X-19.22 Y-31.104 I-1.419 J-0.7
G1 X-21.094 Y-29.887
X-21.434 Y-29.665
X-21.668 Y-29.484
X-21.836 Y-29.353
X-24.251 Y-27.398
X-24.395 Y-27.27
X-24.654 Y-27.035
X-24.827 Y-26.868
X-26.868 Y-24.827
X-27.035 Y-24.654
X-27.27 Y-24.395
X-27.398 Y-24.251
G3 X-28.119 Y-24.137 I-0.435 J-0.413
G1 X-28.202 Y-24.182 Z-4.993
X-28.282 Y-24.226 Z-4.971
X-28.359 Y-24.267 Z-4.935
X-28.429 Y-24.306 Z-4.885
X-28.492 Y-24.34 Z-4.824
X-28.546 Y-24.369 Z-4.753
X-28.589 Y-24.393 Z-4.672
X-28.621 Y-24.41 Z-4.585
X-28.64 Y-24.42 Z-4.494
X-28.647 Y-24.424 Z-4.4
G0 Z5.
X-32.238 Y18.443
Z-3.8
G1 Z-4.4 F1440.
X-32.232 Y18.446 Z-4.494
X-32.212 Y18.456 Z-4.585
X-32.179 Y18.472 Z-4.672
X-32.135 Y18.494 Z-4.753
X-32.081 Y18.521 Z-4.824
X-32.016 Y18.552 Z-4.885
X-31.944 Y18.588 Z-4.935
X-31.866 Y18.626 Z-4.971
X-31.784 Y18.667 Z-4.993
X-31.7 Y18.709 Z-5.
G3 X-31.104 Y19.22 I-0.7 J1.419
G1 X-29.887 Y21.094
X-29.665 Y21.434
X-29.484 Y21.668
X-29.353 Y21.836
X-29.191 Y22.038
X-28.886 Y22.455
X-28.68 Y22.79
X-28.462 Y23.221
X-28.125 Y24.04
X-27.616 Y24.765
X-26.961 Y25.362
X-26.213 Y25.837
X-25.789 Y26.031
X-25.642 Y26.109
X-25.506 Y26.204
X-25.381 Y26.314
G3 X-25.416 Y27.167 I-0.439 J0.409
X-26.268 Y27.122 I-0.404 J-0.443
G1 X-30.091 Y22.83
G3 X-30.04 Y21.981 I0.448 J-0.399
X-29.191 Y22.038 I0.396 J0.45
G1 X-27.398 Y24.251
X-27.27 Y24.395
X-27.035 Y24.654
X-26.868 Y24.827
X-24.827 Y26.868
X-24.654 Y27.035
X-24.395 Y27.27
X-24.251 Y27.398
X-21.836 Y29.353
X-21.497 Y29.616
X-21.434 Y29.665
X-21.191 Y29.823
G3 X-20.972 Y30.521 I-0.345 J0.491
G1 X-21.005 Y30.609 Z-4.993
X-21.036 Y30.695 Z-4.971
X-21.066 Y30.776 Z-4.935
X-21.094 Y30.852 Z-4.885
X-21.118 Y30.919 Z-4.824
X-21.139 Y30.976 Z-4.753
X-21.156 Y31.023 Z-4.672
X-21.169 Y31.056 Z-4.585
X-21.176 Y31.077 Z-4.494
X-21.179 Y31.084 Z-4.4
G0 Z5.
X18.443 Y32.238
Z-3.8
G1 Z-4.4 F1440.
X18.446 Y32.232 Z-4.494
X18.456 Y32.212 Z-4.585
X18.472 Y32.179 Z-4.672
X18.494 Y32.135 Z-4.753
X18.521 Y32.081 Z-4.824
X18.552 Y32.016 Z-4.885
X18.588 Y31.944 Z-4.935
X18.626 Y31.866 Z-4.971
X18.667 Y31.784 Z-4.993
X18.709 Y31.7 Z-5.
G3 X19.22 Y31.104 I1.419 J0.7
G1 X21.094 Y29.887
X21.434 Y29.665
X21.668 Y29.484
X21.836 Y29.353
X22.038 Y29.191
X22.455 Y28.886
X22.79 Y28.68
X23.221 Y28.462
X24.04 Y28.125
X24.765 Y27.616
X25.362 Y26.961
X25.837 Y26.213
X26.031 Y25.789
X26.109 Y25.642
X26.204 Y25.506
X26.314 Y25.381
G3 X27.167 Y25.416 I0.409 J0.439
X27.122 Y26.268 I-0.443 J0.404
G1 X22.83 Y30.091
G3 X21.981 Y30.04 I-0.399 J-0.448
X22.038 Y29.191 I0.45 J-0.396
G1 X24.251 Y27.398
X24.395 Y27.27
X24.654 Y27.035
X24.827 Y26.868
X26.868 Y24.827
X27.035 Y24.654
X27.27 Y24.395
X27.398 Y24.251
X29.353 Y21.836
X29.616 Y21.497
X29.665 Y21.434
X29.823 Y21.191
G3 X30.521 Y20.972 I0.491 J0.345
G1 X30.609 Y21.005 Z-4.993
X30.695 Y21.036 Z-4.971
X30.776 Y21.066 Z-4.935
X30.852 Y21.094 Z-4.885
X30.919 Y21.118 Z-4.824
X30.976 Y21.139 Z-4.753
X31.023 Y21.156 Z-4.672
X31.056 Y21.169 Z-4.585
X31.077 Y21.176 Z-4.494
X31.084 Y21.179 Z-4.4
G0 Z5.
X32.238 Y-18.443
Z-3.8
G1 Z-4.4 F1440.
X32.232 Y-18.446 Z-4.494
X32.212 Y-18.456 Z-4.585
X32.179 Y-18.472 Z-4.672
X32.135 Y-18.494 Z-4.753
X32.081 Y-18.521 Z-4.824
X32.016 Y-18.552 Z-4.885
X31.944 Y-18.588 Z-4.935
X31.866 Y-18.626 Z-4.971
X31.784 Y-18.667 Z-4.993
X31.7 Y-18.709 Z-5.
G3 X31.104 Y-19.22 I0.7 J-1.419
G1 X29.887 Y-21.094
X29.665 Y-21.434
X29.484 Y-21.668
X29.353 Y-21.836
X29.191 Y-22.038
X28.886 Y-22.455
X28.68 Y-22.79
X28.462 Y-23.221
X28.125 Y-24.04
X27.616 Y-24.765
X26.961 Y-25.362
X26.213 Y-25.837
X25.789 Y-26.031
X25.642 Y-26.109
X25.506 Y-26.204
X25.381 Y-26.314
G3 X25.416 Y-27.167 I0.439 J-0.409
X26.268 Y-27.122 I0.404 J0.443
G1 X30.091 Y-22.83
G3 X30.04 Y-21.981 I-0.448 J0.399
X29.191 Y-22.038 I-0.396 J-0.45
G1 X27.398 Y-24.251
X27.27 Y-24.395
X27.035 Y-24.654
X26.868 Y-24.827
X24.827 Y-26.868
X24.654 Y-27.035
X24.395 Y-27.27
X24.251 Y-27.398
X21.836 Y-29.353
X21.497 Y-29.616
X21.434 Y-29.665
X21.191 Y-29.823
X21.119 Y-29.882
X21.058 Y-29.952
X21.025 Y-30.018 Z-4.995
X20.992 Y-30.082 Z-4.982
X20.96 Y-30.145 Z-4.959
X20.951 Y-30.205 Z-4.931
X20.943 Y-30.262 Z-4.897
X20.936 Y-30.314 Z-4.856
X20.946 Y-30.375 Z-4.796
X20.956 Y-30.426 Z-4.727
X20.963 Y-30.467 Z-4.651
X20.968 Y-30.496 Z-4.571
X20.971 Y-30.515 Z-4.487
X20.972 Y-30.521 Z-4.401
G0 Z5.
X0. Y0.
Z2.5
G1 Z-5. F330.
X-0.037 Y-0.009 F1440.
X-0.021 Y-0.043
X0.016 Y-0.052
X0.048 Y-0.033
X0.063 Y0.001
X0.054 Y0.038
X0.03 Y0.067
X-0.003 Y0.085
X-0.04 Y0.09
X-0.076 Y0.08
X-0.106 Y0.058
X-0.129 Y0.028
X-0.142 Y-0.007
X-0.147 Y-0.082
X-0.117 Y-0.15
X-0.061 Y-0.2
X0.01 Y-0.225
X0.085 Y-0.224
X0.156 Y-0.199
X0.215 Y-0.154
X0.304 Y-0.033
X0.32 Y0.116
X0.271 Y0.258
X0.17 Y0.369
X0.035 Y0.435
X-0.114 Y0.451
X-0.261 Y0.419
X-0.392 Y0.346
X-0.496 Y0.238
X-0.569 Y0.107
X-0.605 Y-0.039
X-0.603 Y-0.189
X-0.567 Y-0.335
X-0.498 Y-0.468
X-0.401 Y-0.582
X-0.282 Y-0.673
X-0.146 Y-0.738
X0. Y-0.773
X0.149 Y-0.781
X0.298 Y-0.762
X0.441 Y-0.716
X0.573 Y-0.646
X0.692 Y-0.554
X0.793 Y-0.443
X0.876 Y-0.318
X0.937 Y-0.181
X0.976 Y-0.036
X0.993 Y0.113
X0.986 Y0.263
X0.959 Y0.41
X0.91 Y0.552
X0.842 Y0.686
X0.756 Y0.809
X0.654 Y0.919
X0.539 Y1.015
X0.412 Y1.095
X0.276 Y1.158
X0.133 Y1.204
X-0.014 Y1.231
X-0.164 Y1.241
X-0.314 Y1.232
X-0.461 Y1.206
X-0.605 Y1.164
X-0.743 Y1.105
X-0.874 Y1.031
X-0.995 Y0.943
X-1.106 Y0.842
X-1.205 Y0.729
X-1.293 Y0.607
X-1.366 Y0.477
X-1.426 Y0.339
X-1.472 Y0.196
X-1.502 Y0.049
X-1.518 Y-0.1
X-1.519 Y-0.25
X-1.505 Y-0.399
X-1.477 Y-0.546
X-1.434 Y-0.69
X-1.379 Y-0.83
X-1.31 Y-0.963
X-1.229 Y-1.089
X-1.138 Y-1.208
X-1.035 Y-1.318
X-0.924 Y-1.418
X-0.804 Y-1.508
X-0.676 Y-1.587
X-0.542 Y-1.655
X-0.403 Y-1.711
X-0.26 Y-1.755
X-0.113 Y-1.786
X0.036 Y-1.805
X0.185 Y-1.812
X0.335 Y-1.807
X0.488 Y-1.788
X0.635 Y-1.759
X0.784 Y-1.716
X0.924 Y-1.663
X1.066 Y-1.595
X1.198 Y-1.519
X1.33 Y-1.428
X1.45 Y-1.331
X1.568 Y-1.218
X1.672 Y-1.101
X1.772 Y-0.968
X1.858 Y-0.833
X1.937 Y-0.685
X2.001 Y-0.534
X2.055 Y-0.374
X2.096 Y-0.21
X2.124 Y-0.043
X2.138 Y0.129
X2.139 Y0.299
X2.125 Y0.476
X2.098 Y0.648
X2.057 Y0.82
X2. Y0.991
X1.932 Y1.155
X1.847 Y1.319
X1.75 Y1.473
X1.641 Y1.62
X1.517 Y1.762
X1.384 Y1.891
X1.239 Y2.011
X1.081 Y2.122
X0.917 Y2.218
X0.742 Y2.302
X0.559 Y2.373
X0.371 Y2.429
X0.179 Y2.47
X-0.021 Y2.496
X-0.222 Y2.505
X-0.422 Y2.499
X-0.627 Y2.476
X-0.83 Y2.436
X-1.028 Y2.38
X-1.223 Y2.309
X-1.415 Y2.219
X-1.6 Y2.115
X-1.776 Y1.996
X-1.943 Y1.863
X-2.101 Y1.713
X-2.248 Y1.551
X-2.382 Y1.377
X-2.501 Y1.193
X-2.606 Y0.998
X-2.697 Y0.791
X-2.771 Y0.577
X-2.828 Y0.357
X-2.867 Y0.133
X-2.888 Y-0.095
X-2.891 Y-0.327
X-2.875 Y-0.56
X-2.84 Y-0.794
X-2.786 Y-1.025
X-2.713 Y-1.252
X-2.622 Y-1.474
X-2.513 Y-1.689
X-2.386 Y-1.895
X-2.242 Y-2.093
X-2.081 Y-2.28
X-1.905 Y-2.454
X-1.713 Y-2.615
X-1.508 Y-2.761
X-1.29 Y-2.891
X-1.061 Y-3.004
X-0.823 Y-3.099
X-0.576 Y-3.175
X-0.322 Y-3.231
X-0.062 Y-3.266
X0.201 Y-3.281
X0.466 Y-3.275
X0.731 Y-3.247
X0.995 Y-3.198
X1.255 Y-3.127
X1.511 Y-3.035
X1.76 Y-2.922
X2.001 Y-2.789
X2.231 Y-2.636
X2.45 Y-2.464
X2.655 Y-2.273
X2.846 Y-2.066
X3.02 Y-1.843
X3.177 Y-1.605
X3.315 Y-1.353
X3.434 Y-1.09
X3.531 Y-0.816
X3.606 Y-0.534
X3.659 Y-0.245
X3.689 Y0.049
X3.695 Y0.347
X3.677 Y0.645
X3.635 Y0.944
X3.569 Y1.239
X3.478 Y1.53
X3.364 Y1.814
X3.227 Y2.09
X3.067 Y2.356
X2.885 Y2.609
X2.683 Y2.848
X2.46 Y3.072
X2.219 Y3.278
X1.961 Y3.465
X1.688 Y3.631
X1.4 Y3.776
X1.099 Y3.898
X0.789 Y3.996
X0.469 Y4.069
X0.143 Y4.117
X-0.187 Y4.138
X-0.521 Y4.133
X-0.854 Y4.101
X-1.185 Y4.042
X-1.513 Y3.956
X-1.834 Y3.843
X-2.147 Y3.705
X-2.449 Y3.54
X-2.738 Y3.352
X-3.013 Y3.139
X-3.272 Y2.903
X-3.512 Y2.646
X-3.732 Y2.37
X-3.929 Y2.075
X-4.104 Y1.764
X-4.253 Y1.438
X-4.377 Y1.099
X-4.474 Y0.749
X-4.542 Y0.391
X-4.582 Y0.027
X-4.593 Y-0.341
X-4.573 Y-0.71
X-4.524 Y-1.079
X-4.446 Y-1.444
X-4.337 Y-1.804
X-4.2 Y-2.155
X-4.033 Y-2.496
X-3.839 Y-2.825
X-3.618 Y-3.138
X-3.372 Y-3.434
X-3.101 Y-3.71
X-2.808 Y-3.966
X-2.493 Y-4.197
X-2.159 Y-4.404
X-1.808 Y-4.585
X-1.442 Y-4.737
X-1.063 Y-4.86
X-0.674 Y-4.952
X-0.277 Y-5.014
X0.126 Y-5.043
X0.532 Y-5.04
X0.938 Y-5.004
X1.342 Y-4.936
X1.741 Y-4.835
X2.132 Y-4.701
X2.513 Y-4.536
X2.881 Y-4.34
X3.234 Y-4.113
X3.57 Y-3.858
X3.885 Y-3.576
X4.177 Y-3.268
X4.446 Y-2.936
X4.688 Y-2.581
X4.901 Y-2.207
X5.085 Y-1.815
X5.238 Y-1.408
X5.358 Y-0.988
X5.444 Y-0.557
X5.495 Y-0.119
X5.512 Y0.323
X5.492 Y0.768
X5.437 Y1.211
X5.346 Y1.651
X5.219 Y2.083
X5.058 Y2.506
X4.862 Y2.917
X4.633 Y3.312
X4.371 Y3.689
X4.08 Y4.045
X3.759 Y4.378
X3.41 Y4.686
X3.037 Y4.966
X2.641 Y5.216
X2.224 Y5.434
X1.789 Y5.62
X1.339 Y5.77
X0.877 Y5.884
X0.404 Y5.961
X-0.074 Y6.
X-0.557
X-1.04 Y5.961
X-1.52 Y5.884
X-1.994 Y5.768
X-2.459 Y5.613
X-2.912 Y5.421
X-3.35 Y5.192
X-3.77 Y4.928
X-4.169 Y4.63
X-4.545 Y4.299
X-4.894 Y3.938
X-5.214 Y3.548
X-5.503 Y3.132
X-5.759 Y2.693
X-5.979 Y2.232
X-6.163 Y1.754
X-6.308 Y1.26
X-6.413 Y0.755
X-6.478 Y0.24
X-6.502 Y-0.28
X-6.483 Y-0.802
X-6.422 Y-1.323
X-6.32 Y-1.84
X-6.176 Y-2.349
X-5.99 Y-2.846
X-5.764 Y-3.329
X-5.5 Y-3.794
X-5.197 Y-4.238
X-4.859 Y-4.658
X-4.487 Y-5.051
X-4.083 Y-5.414
X-3.649 Y-5.745
X-3.189 Y-6.041
X-2.704 Y-6.3
X-2.199 Y-6.52
X-1.675 Y-6.7
X-1.137 Y-6.837
X-0.587 Y-6.931
X-0.03 Y-6.981
X0.532 Y-6.986
X1.094 Y-6.946
X1.653 Y-6.861
X2.205 Y-6.73
X2.748 Y-6.555
X3.276 Y-6.336
X3.787 Y-6.075
X4.277 Y-5.772
X4.742 Y-5.429
X5.181 Y-5.049
X5.589 Y-4.634
X5.964 Y-4.185
X6.302 Y-3.707
X6.603 Y-3.2
X6.862 Y-2.67
X7.079 Y-2.118
X7.252 Y-1.548
X7.378 Y-0.965
X7.458 Y-0.371
X7.49 Y0.229
X7.474 Y0.833
X7.409 Y1.435
X7.295 Y2.032
X7.134 Y2.62
X6.925 Y3.195
X6.67 Y3.754
X6.369 Y4.291
X6.026 Y4.805
X5.64 Y5.292
X5.216 Y5.747
X4.755 Y6.168
X4.26 Y6.552
X3.734 Y6.896
X3.18 Y7.198
X2.602 Y7.456
X2.003 Y7.667
X1.387 Y7.829
X0.758 Y7.942
X0.12 Y8.005
X-0.523 Y8.016
X-1.167 Y7.975
X-1.808 Y7.882
X-2.441 Y7.738
X-3.063 Y7.543
X-3.669 Y7.298
X-4.255 Y7.004
X-4.818 Y6.662
X-5.353 Y6.276
X-5.857 Y5.846
X-6.326 Y5.376
X-6.758 Y4.868
X-7.148 Y4.325
X-7.495 Y3.751
X-7.796 Y3.149
X-8.048 Y2.523
X-8.25 Y1.876
X-8.4 Y1.213
X-8.496 Y0.539
X-8.538 Y-0.144
X-8.525 Y-0.83
X-8.457 Y-1.515
X-8.334 Y-2.194
X-8.156 Y-2.863
X-7.924 Y-3.518
X-7.639 Y-4.154
X-7.304 Y-4.767
X-6.919 Y-5.353
X-6.487 Y-5.908
X-6.01 Y-6.428
X-5.491 Y-6.91
X-4.934 Y-7.349
X-4.342 Y-7.744
X-3.718 Y-8.091
X-3.066 Y-8.387
X-2.391 Y-8.632
X-1.696 Y-8.821
X-0.986 Y-8.955
X-0.265 Y-9.031
X0.461 Y-9.05
X1.189 Y-9.01
X1.913 Y-8.911
X2.629 Y-8.754
X3.333 Y-8.54
X4.018 Y-8.269
X4.682 Y-7.943
X5.32 Y-7.563
X5.926 Y-7.133
X6.498 Y-6.653
X7.031 Y-6.128
X7.522 Y-5.56
X7.966 Y-4.953
X8.362 Y-4.31
X8.706 Y-3.635
X8.995 Y-2.933
X9.228 Y-2.208
X9.403 Y-1.464
X9.517 Y-0.707
X9.571 Y0.06
X9.562 Y0.83
X9.492 Y1.599
X9.36 Y2.363
X9.166 Y3.116
X8.912 Y3.852
X8.599 Y4.568
X8.229 Y5.258
X7.802 Y5.919
X7.323 Y6.544
X6.794 Y7.131
X6.218 Y7.675
X5.599 Y8.173
X4.939 Y8.62
X4.244 Y9.014
X3.518 Y9.352
X2.765 Y9.631
X1.989 Y9.849
X1.197 Y10.005
X0.392 Y10.097
X-0.419 Y10.125
X-1.233 Y10.087
X-2.043 Y9.983
X-2.844 Y9.815
X-3.631 Y9.582
X-4.399 Y9.285
X-5.142 Y8.928
X-5.857 Y8.51
X-6.537 Y8.035
X-7.179 Y7.506
X-7.778 Y6.926
X-8.33 Y6.298
X-8.831 Y5.625
X-9.277 Y4.913
X-9.666 Y4.165
X-9.995 Y3.386
X-10.26 Y2.582
X-10.461 Y1.756
X-10.595 Y0.915
X-10.662 Y0.063
X-10.66 Y-0.793
X-10.589 Y-1.649
X-10.449 Y-2.498
X-10.241 Y-3.336
X-9.966 Y-4.156
X-9.624 Y-4.954
X-9.219 Y-5.724
X-8.752 Y-6.46
X-8.227 Y-7.159
X-7.645 Y-7.814
X-7.011 Y-8.423
X-6.329 Y-8.98
X-5.602 Y-9.482
X-4.836 Y-9.925
X-4.035 Y-10.305
X-3.207 Y-10.62
X-2.356 Y-10.867
X-1.488 Y-11.047
X-0.609 Y-11.156
X0.276 Y-11.195
X1.162 Y-11.165
X2.042 Y-11.064
X2.912 Y-10.894
X3.766 Y-10.657
X4.598 Y-10.353
X5.404 Y-9.985
X6.179 Y-9.556
X6.919 Y-9.067
X7.618 Y-8.523
X8.273 Y-7.926
X8.88 Y-7.281
X9.436 Y-6.59
X9.937 Y-5.859
X10.38 Y-5.092
X10.764 Y-4.294
X11.085 Y-3.468
X11.344 Y-2.62
X11.537 Y-1.755
X11.664 Y-0.879
X11.725 Y0.006
X11.718 Y0.892
X11.644 Y1.775
X11.503 Y2.649
X11.296 Y3.511
X11.026 Y4.355
X10.693 Y5.176
X10.3 Y5.971
X9.85 Y6.734
X9.344 Y7.462
X9.276 Y7.545
X8.755 Y8.155
X8.553 Y8.385
X8.391 Y8.553
X7.346 Y9.446
X7.205 Y9.56
X6.742 Y9.884
X6.621 Y9.962
X6.138 Y10.258
X5.962 Y10.365
X5.333 Y10.723
X5.242 Y10.767
X3.924 Y11.313
X3.723 Y11.375
X3.321 Y11.49
X3.119 Y11.544
X2.516 Y11.689
X2.113 Y11.777
X1.912 Y11.82
X1.711 Y11.856
X0.503 Y11.951
X0.302 Y11.962
X-0.302
X-0.503 Y11.951
X-1.711 Y11.856
X-1.912 Y11.82
X-2.314 Y11.734
X-2.516 Y11.689
X-3.119 Y11.544
X-3.321 Y11.49
X-3.739 Y11.371
X-3.924 Y11.313
X-5.242 Y10.767
X-5.333 Y10.723
X-5.962 Y10.365
X-6.138 Y10.258
X-6.621 Y9.962
X-6.742 Y9.884
X-7.205 Y9.56
X-7.346 Y9.446
X-8.391 Y8.553
X-8.553 Y8.385
X-8.758 Y8.151
X-9.358 Y7.449
X-9.446 Y7.346
X-9.56 Y7.205
X-9.884 Y6.742
X-9.962 Y6.621
X-10.258 Y6.138
X-10.365 Y5.962
X-10.723 Y5.333
X-10.767 Y5.242
X-11.313 Y3.924
X-11.375 Y3.723
X-11.49 Y3.321
X-11.544 Y3.119
X-11.689 Y2.516
X-11.777 Y2.113
X-11.82 Y1.912
X-11.856 Y1.711
X-11.951 Y0.503
X-11.962 Y0.302
Y-0.302
X-11.951 Y-0.503
X-11.856 Y-1.711
X-11.82 Y-1.912
X-11.734 Y-2.314
X-11.689 Y-2.516
X-11.544 Y-3.119
X-11.49 Y-3.321
X-11.371 Y-3.739
X-11.313 Y-3.924
X-10.767 Y-5.242
X-10.723 Y-5.333
X-10.365 Y-5.962
X-10.258 Y-6.138
X-9.962 Y-6.621
X-9.884 Y-6.742
X-9.56 Y-7.205
X-9.446 Y-7.346
X-8.553 Y-8.391
X-8.385 Y-8.553
X-8.151 Y-8.758
X-7.449 Y-9.358
X-7.346 Y-9.446
X-7.205 Y-9.56
X-6.742 Y-9.884
X-6.621 Y-9.962
X-6.138 Y-10.258
X-5.962 Y-10.365
X-5.333 Y-10.723
X-5.242 Y-10.767
X-3.924 Y-11.313
X-3.723 Y-11.375
X-3.321 Y-11.49
X-3.119 Y-11.544
X-2.516 Y-11.689
X-2.113 Y-11.777
X-1.912 Y-11.82
X-1.711 Y-11.856
X-0.503 Y-11.951
X-0.302 Y-11.962
X0.302
X0.503 Y-11.951
X1.711 Y-11.856
X1.912 Y-11.82
X2.314 Y-11.734
X2.516 Y-11.689
X3.119 Y-11.544
X3.321 Y-11.49
X3.739 Y-11.371
X3.924 Y-11.313
X5.242 Y-10.767
X5.333 Y-10.723
X5.962 Y-10.365
X6.138 Y-10.258
X6.621 Y-9.962
X6.742 Y-9.884
X7.205 Y-9.56
X7.346 Y-9.446
X8.391 Y-8.553
X8.553 Y-8.385
X8.758 Y-8.151
X9.358 Y-7.449
X9.446 Y-7.346
X9.56 Y-7.205
X9.884 Y-6.742
X9.962 Y-6.621
X10.258 Y-6.138
X10.365 Y-5.962
X10.723 Y-5.333
X10.767 Y-5.242
X11.313 Y-3.924
X11.375 Y-3.723
X11.49 Y-3.321
X11.544 Y-3.119
X11.689 Y-2.516
X11.777 Y-2.113
X11.82 Y-1.912
X11.856 Y-1.711
X11.951 Y-0.503
X11.962 Y-0.302
Y0.302
X11.951 Y0.503
X11.856 Y1.711
X11.82 Y1.912
X11.734 Y2.314
X11.689 Y2.516
X11.544 Y3.119
X11.49 Y3.321
X11.371 Y3.739
X11.313 Y3.924
X10.767 Y5.242
X10.723 Y5.333
X10.365 Y5.962
X10.258 Y6.138
X9.962 Y6.621
X9.884 Y6.742
X9.56 Y7.205
X9.446 Y7.346
X9.276 Y7.545
X9.208 Y7.608
X9.132 Y7.66
X9.062 Y7.685 Z-4.995
X8.994 Y7.709 Z-4.982
X8.927 Y7.732 Z-4.959
X8.879 Y7.736 Z-4.938
X8.834 Y7.74 Z-4.912
X8.769 Y7.728 Z-4.866
X8.712 Y7.717 Z-4.811
X8.662 Y7.708 Z-4.749
X8.62 Y7.701 Z-4.681
X8.585 Y7.685 Z-4.591
X8.564 Y7.675 Z-4.497
X8.557 Y7.672 Z-4.4
G0 Z5.
X-34.395 Y-33.548
Z-8.8
G1 Z-9.4 F1440.
X-34.388 Y-33.544 Z-9.494
X-34.369 Y-33.533 Z-9.585
X-34.338 Y-33.514 Z-9.672
X-34.296 Y-33.489 Z-9.753
X-34.243 Y-33.458 Z-9.824
X-34.182 Y-33.422 Z-9.885
X-34.113 Y-33.381 Z-9.935
X-34.038 Y-33.336 Z-9.971
X-33.959 Y-33.29 Z-9.993
X-33.878 Y-33.242 Z-10.
G3 X-31.237 Y-31.264 I-7.805 J13.18
G1 X-31.158 Y-31.185
X-30.976 Y-30.892
X-30.782 Y-30.515
X-30.577 Y-30.023
X-30.363 Y-29.364
X-30.158 Y-28.502
X-30.017 Y-27.627
X-29.92 Y-26.746
X-29.853 Y-25.862
X-29.806 Y-24.977
X-29.773 Y-24.092
X-29.751 Y-23.206
X-29.735 Y-22.32
X-29.728 Y-21.771
X-29.752 Y-21.497
X-29.828 Y-21.233
X-29.955 Y-20.989
X-31.365 Y-18.817
X-31.614 Y-18.415
X-31.619 Y-18.408
G2 X-31.822 Y-18.145 I1.403 J1.29
G1 X-31.862 Y-18.072
X-31.891 Y-17.993
X-31.971 Y-17.728
X-32.016 Y-17.575
X-32.097 Y-17.306
X-32.115 Y-17.224
X-32.122 Y-17.141
G2 X-32.097 Y-16.81 I1.906 J0.023
G1 X-32.096 Y-16.805
X-32.088 Y-16.604
X-32.069 Y-16.402
X-32.037 Y-16.201
X-31.986 Y-16.
X-31.924 Y-15.799
X-31.899 Y-15.734
X-31.845 Y-15.597
X-31.748 Y-15.396
X-31.698 Y-15.309
X-31.628 Y-15.195
X-31.497 Y-15.006
X-31.324 Y-14.792
X-31.23 Y-14.676
X-31.053 Y-14.412
X-30.864 Y-14.073
X-30.664 Y-13.633
X-30.453 Y-13.052
X-30.234 Y-12.252
X-30.07 Y-11.381
X-29.956 Y-10.502
X-29.878 Y-9.62
X-29.823 Y-8.735
X-29.786 Y-7.85
X-29.759 Y-6.964
X-29.741 Y-6.078
X-29.728 Y-5.192
X-29.719 Y-4.306
X-29.713 Y-3.42
X-29.709 Y-2.534
X-29.703 Y-0.762
X-29.7 Y1.897
X-29.699 Y8.099
Y12.875
X-29.729 Y13.165
X-29.819 Y13.443
X-29.964 Y13.695
X-30.159 Y13.913
X-30.394 Y14.085
X-30.572 Y14.189
G3 X-31.293 Y14.071 I-0.284 J-0.529
G1 X-31.358 Y14.002 Z-9.993
X-31.42 Y13.935 Z-9.971
X-31.48 Y13.872 Z-9.935
X-31.535 Y13.813 Z-9.885
X-31.584 Y13.761 Z-9.824
X-31.626 Y13.717 Z-9.753
X-31.659 Y13.681 Z-9.672
X-31.684 Y13.655 Z-9.585
X-31.699 Y13.639 Z-9.494
X-31.704 Y13.633 Z-9.4
G0 Z5.
X-32.595 Y-15.317
Z-8.8
G1 Z-9.4 F1440.
X-32.588 Y-15.315 Z-9.494
X-32.566 Y-15.31 Z-9.585
X-32.531 Y-15.301 Z-9.672
X-32.484 Y-15.289 Z-9.753
X-32.424 Y-15.273 Z-9.824
X-32.355 Y-15.256 Z-9.885
X-32.277 Y-15.236 Z-9.935
X-32.193 Y-15.215 Z-9.971
X-32.104 Y-15.192 Z-9.993
X-32.013 Y-15.169 Z-10.
G3 X-31.324 Y-14.792 I-0.39 J1.534
G1 X-31.094 Y-14.562
X-30.879 Y-14.39
X-30.692 Y-14.259
X-30.227 Y-13.987
X-30.088 Y-13.907
X-29.924 Y-13.801
X-29.744 Y-13.663
X-29.547 Y-13.485
X-29.348 Y-13.275
X-29.129 Y-13.001
X-28.906 Y-12.673
X-28.668 Y-12.252
X-28.428 Y-11.736
X-28.179 Y-11.063
X-27.94 Y-10.21
X-27.765 Y-9.341
X-27.638 Y-8.464
X-27.545 Y-7.583
X-27.478 Y-6.699
X-27.428 Y-5.815
X-27.425 Y-5.735
X-27.426 Y-5.61
X-27.438 Y-5.485
X-27.461 Y-5.362
G3 X-28.611 Y-5.299 I-0.584 J-0.136
G1 X-31.41 Y-13.294
G3 X-30.851 Y-14.092 I0.566 J-0.198
X-30.088 Y-13.907 I0.02 J1.582
G1 X-28.075 Y-12.745
X-27.818 Y-12.579
X-27.601 Y-12.413
X-27.39 Y-12.222
X-27.155 Y-11.973
X-26.913 Y-11.671
X-26.659 Y-11.297
X-26.399 Y-10.837
X-26.311 Y-10.648
X-26.221 Y-10.389
X-26.182 Y-10.118
X-26.197 Y-9.844
X-26.265 Y-9.579
G3 X-27.328 Y-9.482 I-0.556 J-0.225
G1 X-28.863 Y-11.893
G3 X-28.075 Y-12.745 I0.506 J-0.322
G1 X-26.063 Y-11.583
X-26.046 Y-11.572
X-25.954 Y-11.5
X-25.902 Y-11.445
X-25.861 Y-11.39
X-25.85 Y-11.371
X-25.823 Y-11.321
X-25.801 Y-11.27
X-25.774 Y-11.17
X-25.764 Y-11.069
X-25.772 Y-10.968
X-25.797 Y-10.868
X-26.712 Y-8.352
X-26.781 Y-8.151
X-26.943 Y-7.547
X-27.42 Y-5.535
X-27.561 Y-4.931
X-27.615 Y-4.528
X-27.642 Y-4.327
X-27.736 Y-3.522
X-27.901 Y-2.113
X-27.944 Y-1.711
X-27.952 Y-1.509
X-27.957 Y-1.107
X-27.958 Y-0.906
Y0.906
X-27.955 Y1.308
X-27.952 Y1.509
X-27.944 Y1.711
X-27.901 Y2.113
X-27.666 Y4.126
X-27.642 Y4.327
X-27.569 Y5.21
X-27.487 Y6.092
X-27.43 Y6.977
X-27.39 Y7.862
X-27.362 Y8.748
X-27.343 Y9.634
X-27.33 Y10.52
X-27.334 Y11.406
X-27.352 Y11.628
X-27.399 Y11.894
X-27.497 Y12.147
X-27.641 Y12.375
X-27.827 Y12.572
X-28.047 Y12.729
G3 X-28.768 Y12.608 I-0.282 J-0.53
G1 X-28.832 Y12.54 Z-9.993
X-28.894 Y12.473 Z-9.971
X-28.953 Y12.409 Z-9.935
X-29.008 Y12.35 Z-9.885
X-29.057 Y12.298 Z-9.824
X-29.099 Y12.253 Z-9.753
X-29.132 Y12.217 Z-9.672
X-29.157 Y12.191 Z-9.585
X-29.172 Y12.175 Z-9.494
X-29.177 Y12.17 Z-9.4
G0 Z5.
X-28.332 Y3.138
Z-8.8
G1 Z-9.4 F1440.
X-28.327 Y3.144 Z-9.494
X-28.313 Y3.161 Z-9.585
X-28.291 Y3.189 Z-9.672
X-28.261 Y3.228 Z-9.753
X-28.223 Y3.276 Z-9.824
X-28.178 Y3.332 Z-9.885
X-28.129 Y3.395 Z-9.935
X-28.075 Y3.463 Z-9.971
X-28.018 Y3.535 Z-9.993
X-27.96 Y3.609 Z-10.
G3 X-27.642 Y4.327 I-1.242 J0.98
G1 X-27.588 Y4.73
X-27.561 Y4.931
X-27.42 Y5.535
X-26.943 Y7.547
X-26.781 Y8.151
X-26.712 Y8.352
X-26.063 Y10.136
X-25.94 Y10.534
X-25.911 Y10.787
X-25.936 Y11.041
X-26.014 Y11.284
X-26.14 Y11.505
X-26.31 Y11.695
X-26.517 Y11.845
G3 X-27.388 Y11.205 I-0.282 J-0.53
G1 X-27.209 Y10.25
G3 X-26.063 Y10.136 I0.59 J0.111
G1 X-25.797 Y10.868
X-25.772 Y10.968
X-25.764 Y11.069
X-25.774 Y11.17
X-25.801 Y11.27
X-25.823 Y11.321
X-25.85 Y11.371
X-25.861 Y11.39
X-25.902 Y11.445
X-25.954 Y11.5
X-26.046 Y11.572
X-26.063 Y11.583
X-30.289 Y14.024
X-30.394 Y14.085
X-30.402 Y14.088
G2 X-31.176 Y14.521 I0.839 J2.41
G1 X-31.224 Y14.565
X-31.268 Y14.614
X-31.306 Y14.668
X-31.973 Y15.736
X-32.004 Y15.794
X-32.029 Y15.854
X-32.048 Y15.917
G2 X-32.097 Y16.802 I2.485 J0.581
G1 X-32.096 Y16.805
X-32.089 Y17.006
X-32.067 Y17.207
X-32.032 Y17.409
X-31.987 Y17.61
X-31.916 Y17.811
X-31.832 Y18.012
X-31.738 Y18.214
X-31.49 Y18.616
X-31.365 Y18.817
X-31.104 Y19.22
X-30.907 Y19.56
X-30.709 Y19.974
X-30.5 Y20.519
X-30.283 Y21.261
X-30.103 Y22.129
X-29.979 Y23.006
X-29.894 Y23.888
X-29.835 Y24.772
X-29.793 Y25.658
X-29.765 Y26.543
X-29.613 Y26.959
X-29.13 Y27.703
X-28.444 Y28.264
X-27.66 Y28.675
X-26.825 Y28.973
X-25.965 Y29.187
X-25.092 Y29.338
X-24.212 Y29.446
X-23.329 Y29.521
X-22.445 Y29.574
X-21.897 Y29.597
X-21.649 Y29.63
X-21.411 Y29.706
X-21.191 Y29.823
X-19.545 Y30.893
X-18.817 Y31.365
X-18.415 Y31.614
X-18.408 Y31.619
G2 X-18.145 Y31.822 I1.29 J-1.403
G1 X-18.072 Y31.862
X-17.993 Y31.891
X-17.728 Y31.971
X-17.575 Y32.016
X-17.306 Y32.097
X-17.224 Y32.115
X-17.141 Y32.122
G2 X-16.81 Y32.097 I0.023 J-1.906
G1 X-16.805 Y32.096
X-16.604 Y32.088
X-16.402 Y32.069
X-16.201 Y32.037
X-16. Y31.986
X-15.799 Y31.924
X-15.734 Y31.899
X-15.597 Y31.845
X-15.396 Y31.748
X-15.309 Y31.698
X-15.195 Y31.628
X-15.006 Y31.497
X-14.792 Y31.324
X-14.676 Y31.23
X-14.412 Y31.053
X-14.073 Y30.864
X-13.633 Y30.664
X-13.052 Y30.453
X-12.252 Y30.234
X-11.381 Y30.07
X-10.502 Y29.956
X-9.62 Y29.878
X-8.735 Y29.823
X-7.85 Y29.786
X-6.964 Y29.759
X-6.078 Y29.741
X-5.192 Y29.728
X-4.306 Y29.719
X-3.42 Y29.713
X-2.534 Y29.709
X-0.762 Y29.703
X1.897 Y29.7
X8.099 Y29.699
X12.875
X13.165 Y29.729
X13.443 Y29.819
X13.695 Y29.964
X13.913 Y30.159
X14.085 Y30.394
X14.189 Y30.572
G3 X14.071 Y31.293 I-0.529 J0.284
G1 X14.002 Y31.358 Z-9.993
X13.935 Y31.42 Z-9.971
X13.872 Y31.48 Z-9.935
X13.813 Y31.535 Z-9.885
X13.761 Y31.584 Z-9.824
X13.717 Y31.626 Z-9.753
X13.681 Y31.659 Z-9.672
X13.655 Y31.684 Z-9.585
X13.639 Y31.699 Z-9.494
X13.633 Y31.704 Z-9.4
G0 Z5.
X-15.317 Y32.595
Z-8.8
G1 Z-9.4 F1440.
X-15.315 Y32.588 Z-9.494
X-15.31 Y32.566 Z-9.585
X-15.301 Y32.531 Z-9.672
X-15.289 Y32.484 Z-9.753
X-15.273 Y32.424 Z-9.824
X-15.256 Y32.355 Z-9.885
X-15.236 Y32.277 Z-9.935
X-15.215 Y32.193 Z-9.971
X-15.192 Y32.104 Z-9.993
X-15.169 Y32.013 Z-10.
G3 X-14.792 Y31.324 I1.534 J0.39
G1 X-14.562 Y31.094
X-14.39 Y30.879
X-14.259 Y30.692
X-13.987 Y30.227
X-13.907 Y30.088
X-13.801 Y29.924
X-13.663 Y29.744
X-13.485 Y29.547
X-13.275 Y29.348
X-13.001 Y29.129
X-12.673 Y28.906
X-12.252 Y28.668
X-11.736 Y28.428
X-11.063 Y28.179
X-10.21 Y27.94
X-9.341 Y27.765
X-8.464 Y27.638
X-7.583 Y27.545
X-6.699 Y27.478
X-5.815 Y27.428
X-5.735 Y27.425
X-5.61 Y27.426
X-5.485 Y27.438
X-5.362 Y27.461
G3 X-5.299 Y28.611 I-0.136 J0.584
G1 X-13.294 Y31.41
G3 X-14.092 Y30.851 I-0.198 J-0.566
X-13.907 Y30.088 I1.582 J-0.02
G1 X-12.745 Y28.075
X-12.579 Y27.818
X-12.413 Y27.601
X-12.222 Y27.39
X-11.973 Y27.155
X-11.671 Y26.913
X-11.297 Y26.659
X-10.837 Y26.399
X-10.648 Y26.311
X-10.389 Y26.221
X-10.118 Y26.182
X-9.844 Y26.197
X-9.579 Y26.265
G3 X-9.482 Y27.328 I-0.225 J0.556
G1 X-11.893 Y28.863
G3 X-12.745 Y28.075 I-0.322 J-0.506
G1 X-11.583 Y26.063
X-11.572 Y26.046
X-11.5 Y25.954
X-11.445 Y25.902
X-11.39 Y25.861
X-11.371 Y25.85
X-11.321 Y25.823
X-11.27 Y25.801
X-11.17 Y25.774
X-11.069 Y25.764
X-10.968 Y25.772
X-10.868 Y25.797
X-8.352 Y26.712
X-8.151 Y26.781
X-7.547 Y26.943
X-5.535 Y27.42
X-4.931 Y27.561
X-4.528 Y27.615
X-4.327 Y27.642
X-3.522 Y27.736
X-2.113 Y27.901
X-1.711 Y27.944
X-1.509 Y27.952
X-1.107 Y27.957
X-0.906 Y27.958
X0.906
X1.308 Y27.955
X1.509 Y27.952
X1.711 Y27.944
X2.113 Y27.901
X4.126 Y27.666
X4.327 Y27.642
X5.21 Y27.569
X6.092 Y27.487
X6.977 Y27.43
X7.862 Y27.39
X8.748 Y27.362
X9.634 Y27.343
X10.52 Y27.33
X11.406 Y27.334
X11.628 Y27.352
X11.894 Y27.399
X12.147 Y27.497
X12.375 Y27.641
X12.572 Y27.827
X12.729 Y28.047
G3 X12.608 Y28.768 I-0.53 J0.282
G1 X12.54 Y28.832 Z-9.993
X12.473 Y28.894 Z-9.971
X12.409 Y28.953 Z-9.935
X12.35 Y29.008 Z-9.885
X12.298 Y29.057 Z-9.824
X12.253 Y29.099 Z-9.753
X12.217 Y29.132 Z-9.672
X12.191 Y29.157 Z-9.585
X12.175 Y29.172 Z-9.494
X12.17 Y29.177 Z-9.4
G0 Z5.
X3.138 Y28.332
Z-8.8
G1 Z-9.4 F1440.
X3.144 Y28.327 Z-9.494
X3.161 Y28.313 Z-9.585
X3.189 Y28.291 Z-9.672
X3.228 Y28.261 Z-9.753
X3.276 Y28.223 Z-9.824
X3.332 Y28.178 Z-9.885
X3.395 Y28.129 Z-9.935
X3.463 Y28.075 Z-9.971
X3.535 Y28.018 Z-9.993
X3.609 Y27.96 Z-10.
G3 X4.327 Y27.642 I0.98 J1.242
G1 X4.73 Y27.588
X4.931 Y27.561
X5.535 Y27.42
X7.547 Y26.943
X8.151 Y26.781
X8.352 Y26.712
X10.136 Y26.063
X10.534 Y25.94
X10.787 Y25.911
X11.041 Y25.936
X11.284 Y26.014
X11.505 Y26.14
X11.695 Y26.31
X11.845 Y26.517
G3 X11.205 Y27.388 I-0.53 J0.282
G1 X10.25 Y27.209
G3 X10.136 Y26.063 I0.111 J-0.59
G1 X10.868 Y25.797
X10.968 Y25.772
X11.069 Y25.764
X11.17 Y25.774
X11.27 Y25.801
X11.321 Y25.823
X11.371 Y25.85
X11.39 Y25.861
X11.445 Y25.902
X11.5 Y25.954
X11.572 Y26.046
X11.583 Y26.063
X14.024 Y30.289
X14.085 Y30.394
X14.088 Y30.402
G2 X14.521 Y31.176 I2.41 J-0.839
G1 X14.565 Y31.224
X14.614 Y31.268
X14.668 Y31.306
X15.736 Y31.973
X15.794 Y32.004
X15.854 Y32.029
X15.917 Y32.048
G2 X16.802 Y32.097 I0.581 J-2.485
G1 X16.805 Y32.096
X17.006 Y32.089
X17.207 Y32.067
X17.409 Y32.032
X17.61 Y31.987
X17.811 Y31.916
X18.012 Y31.832
X18.214 Y31.738
X18.616 Y31.49
X18.817 Y31.365
X19.22 Y31.104
X19.56 Y30.907
X19.974 Y30.709
X20.519 Y30.5
X21.261 Y30.283
X22.129 Y30.103
X23.006 Y29.979
X23.888 Y29.894
X24.772 Y29.835
X25.658 Y29.793
X26.543 Y29.765
X26.959 Y29.613
X27.703 Y29.13
X28.264 Y28.444
X28.675 Y27.66
X28.973 Y26.825
X29.187 Y25.965
X29.338 Y25.092
X29.446 Y24.212
X29.521 Y23.329
X29.574 Y22.445
X29.597 Y21.897
X29.63 Y21.649
X29.706 Y21.411
X29.823 Y21.191
X30.893 Y19.545
X31.365 Y18.817
X31.614 Y18.415
X31.619 Y18.408
G2 X31.822 Y18.145 I-1.403 J-1.29
G1 X31.862 Y18.072
X31.891 Y17.993
X31.971 Y17.728
X32.016 Y17.575
X32.097 Y17.306
X32.115 Y17.224
X32.122 Y17.141
G2 X32.097 Y16.81 I-1.906 J-0.023
G1 X32.096 Y16.805
X32.088 Y16.604
X32.069 Y16.402
X32.037 Y16.201
X31.986 Y16.
X31.924 Y15.799
X31.899 Y15.734
X31.845 Y15.597
X31.748 Y15.396
X31.698 Y15.309
X31.628 Y15.195
X31.497 Y15.006
X31.324 Y14.792
X31.23 Y14.676
X31.053 Y14.412
X30.864 Y14.073
X30.664 Y13.633
X30.453 Y13.052
X30.234 Y12.252
X30.07 Y11.381
X29.956 Y10.502
X29.878 Y9.62
X29.823 Y8.735
X29.786 Y7.85
X29.759 Y6.964
X29.741 Y6.078
X29.728 Y5.192
X29.719 Y4.306
X29.713 Y3.42
X29.709 Y2.534
X29.703 Y0.762
X29.7 Y-1.897
X29.699 Y-8.099
Y-12.875
X29.729 Y-13.165
X29.819 Y-13.443
X29.964 Y-13.695
X30.159 Y-13.913
X30.394 Y-14.085
X30.572 Y-14.189
G3 X31.293 Y-14.071 I0.284 J0.529
G1 X31.358 Y-14.002 Z-9.993
X31.42 Y-13.935 Z-9.971
X31.48 Y-13.872 Z-9.935
X31.535 Y-13.813 Z-9.885
X31.584 Y-13.761 Z-9.824
X31.626 Y-13.717 Z-9.753
X31.659 Y-13.681 Z-9.672
X31.684 Y-13.655 Z-9.585
X31.699 Y-13.639 Z-9.494
X31.704 Y-13.633 Z-9.4
G0 Z5.
X32.595 Y15.317
Z-8.8
G1 Z-9.4 F1440.
X32.588 Y15.315 Z-9.494
X32.566 Y15.31 Z-9.585
X32.531 Y15.301 Z-9.672
X32.484 Y15.289 Z-9.753
X32.424 Y15.273 Z-9.824
X32.355 Y15.256 Z-9.885
X32.277 Y15.236 Z-9.935
X32.193 Y15.215 Z-9.971
X32.104 Y15.192 Z-9.993
X32.013 Y15.169 Z-10.
G3 X31.324 Y14.792 I0.39 J-1.534
G1 X31.094 Y14.562
X30.879 Y14.39
X30.692 Y14.259
X30.227 Y13.987
X30.088 Y13.907
X29.924 Y13.801
X29.744 Y13.663
X29.547 Y13.485
X29.348 Y13.275
X29.129 Y13.001
X28.906 Y12.673
X28.668 Y12.252
X28.428 Y11.736
X28.179 Y11.063
X27.94 Y10.21
X27.765 Y9.341
X27.638 Y8.464
X27.545 Y7.583
X27.478 Y6.699
X27.428 Y5.815
X27.425 Y5.735
X27.426 Y5.61
X27.438 Y5.485
X27.461 Y5.362
G3 X28.611 Y5.299 I0.584 J0.136
G1 X31.41 Y13.294
G3 X30.851 Y14.092 I-0.566 J0.198
X30.088 Y13.907 I-0.02 J-1.582
G1 X28.075 Y12.745
X27.818 Y12.579
X27.601 Y12.413
X27.39 Y12.222
X27.155 Y11.973
X26.913 Y11.671
X26.659 Y11.297
X26.399 Y10.837
X26.311 Y10.648
X26.221 Y10.389
X26.182 Y10.118
X26.197 Y9.844
X26.265 Y9.579
G3 X27.328 Y9.482 I0.556 J0.225
G1 X28.863 Y11.893
G3 X28.075 Y12.745 I-0.506 J0.322
G1 X26.063 Y11.583
X26.046 Y11.572
X25.954 Y11.5
X25.902 Y11.445
X25.861 Y11.39
X25.85 Y11.371
X25.823 Y11.321
X25.801 Y11.27
X25.774 Y11.17
X25.764 Y11.069
X25.772 Y10.968
X25.797 Y10.868
X26.712 Y8.352
X26.781 Y8.151
X26.943 Y7.547
X27.42 Y5.535
X27.561 Y4.931
X27.615 Y4.528
X27.642 Y4.327
X27.736 Y3.522
X27.901 Y2.113
X27.944 Y1.711
X27.952 Y1.509
X27.957 Y1.107
X27.958 Y0.906
Y-0.906
X27.955 Y-1.308
X27.952 Y-1.509
X27.944 Y-1.711
X27.901 Y-2.113
X27.666 Y-4.126
X27.642 Y-4.327
X27.569 Y-5.21
X27.487 Y-6.092
X27.43 Y-6.977
X27.39 Y-7.862
X27.362 Y-8.748
X27.343 Y-9.634
X27.33 Y-10.52
X27.334 Y-11.406
X27.352 Y-11.628
X27.399 Y-11.894
X27.497 Y-12.147
X27.641 Y-12.375
X27.827 Y-12.572
X28.047 Y-12.729
G3 X28.768 Y-12.608 I0.282 J0.53
G1 X28.832 Y-12.54 Z-9.993
X28.894 Y-12.473 Z-9.971
X28.953 Y-12.409 Z-9.935
X29.008 Y-12.35 Z-9.885
X29.057 Y-12.298 Z-9.824
X29.099 Y-12.253 Z-9.753
X29.132 Y-12.217 Z-9.672
X29.157 Y-12.191 Z-9.585
X29.172 Y-12.175 Z-9.494
X29.177 Y-12.17 Z-9.4
G0 Z5.
X28.332 Y-3.138
Z-8.8
G1 Z-9.4 F1440.
X28.327 Y-3.144 Z-9.494
X28.313 Y-3.161 Z-9.585
X28.291 Y-3.189 Z-9.672
X28.261 Y-3.228 Z-9.753
X28.223 Y-3.276 Z-9.824
X28.178 Y-3.332 Z-9.885
X28.129 Y-3.395 Z-9.935
X28.075 Y-3.463 Z-9.971
X28.018 Y-3.535 Z-9.993
X27.96 Y-3.609 Z-10.
G3 X27.642 Y-4.327 I1.242 J-0.98
G1 X27.588 Y-4.73
X27.561 Y-4.931
X27.42 Y-5.535
X26.943 Y-7.547
X26.781 Y-8.151
X26.712 Y-8.352
X26.063 Y-10.136
X25.94 Y-10.534
X25.911 Y-10.787
X25.936 Y-11.041
X26.014 Y-11.284
X26.14 Y-11.505
X26.31 Y-11.695
X26.517 Y-11.845
G3 X27.388 Y-11.205 I0.282 J0.53
G1 X27.209 Y-10.25
G3 X26.063 Y-10.136 I-0.59 J-0.111
G1 X25.797 Y-10.868
X25.772 Y-10.968
X25.764 Y-11.069
X25.774 Y-11.17
X25.801 Y-11.27
X25.823 Y-11.321
X25.85 Y-11.371
X25.861 Y-11.39
X25.902 Y-11.445
X25.954 Y-11.5
X26.046 Y-11.572
X26.063 Y-11.583
X30.289 Y-14.024
X30.394 Y-14.085
X30.402 Y-14.088
G2 X31.176 Y-14.521 I-0.839 J-2.41
G1 X31.224 Y-14.565
X31.268 Y-14.614
X31.306 Y-14.668
X31.973 Y-15.736
X32.004 Y-15.794
X32.029 Y-15.854
X32.048 Y-15.917
G2 X32.097 Y-16.802 I-2.485 J-0.581
G1 X32.096 Y-16.805
X32.089 Y-17.006
X32.067 Y-17.207
X32.032 Y-17.409
X31.987 Y-17.61
X31.916 Y-17.811
X31.832 Y-18.012
X31.738 Y-18.214
X31.49 Y-18.616
X31.365 Y-18.817
X31.104 Y-19.22
X30.907 Y-19.56
X30.709 Y-19.974
X30.5 Y-20.519
X30.283 Y-21.261
X30.103 Y-22.129
X29.979 Y-23.006
X29.894 Y-23.888
X29.835 Y-24.772
X29.793 Y-25.658
X29.765 Y-26.543
X29.613 Y-26.959
X29.13 Y-27.703
X28.444 Y-28.264
X27.66 Y-28.675
X26.825 Y-28.973
X25.965 Y-29.187
X25.092 Y-29.338
X24.212 Y-29.446
X23.329 Y-29.521
X22.445 Y-29.574
X21.897 Y-29.597
X21.649 Y-29.63
X21.411 Y-29.706
X21.191 Y-29.823
X19.545 Y-30.893
X18.817 Y-31.365
X18.415 Y-31.614
X18.408 Y-31.619
G2 X18.145 Y-31.822 I-1.29 J1.403
G1 X18.072 Y-31.862
X17.993 Y-31.891
X17.728 Y-31.971
X17.575 Y-32.016
X17.306 Y-32.097
X17.224 Y-32.115
X17.141 Y-32.122
G2 X16.81 Y-32.097 I-0.023 J1.906
G1 X16.805 Y-32.096
X16.604 Y-32.088
X16.402 Y-32.069
X16.201 Y-32.037
X16. Y-31.986
X15.799 Y-31.924
X15.734 Y-31.899
X15.597 Y-31.845
X15.396 Y-31.748
X15.309 Y-31.698
X15.195 Y-31.628
X15.006 Y-31.497
X14.792 Y-31.324
X14.676 Y-31.23
X14.412 Y-31.053
X14.073 Y-30.864
X13.633 Y-30.664
X13.052 Y-30.453
X12.252 Y-30.234
X11.381 Y-30.07
X10.502 Y-29.956
X9.62 Y-29.878
X8.735 Y-29.823
X7.85 Y-29.786
X6.964 Y-29.759
X6.078 Y-29.741
X5.192 Y-29.728
X4.306 Y-29.719
X3.42 Y-29.713
X2.534 Y-29.709
X0.762 Y-29.703
X-1.897 Y-29.7
X-8.099 Y-29.699
X-12.875
X-13.165 Y-29.729
X-13.443 Y-29.819
X-13.695 Y-29.964
X-13.913 Y-30.159
X-14.085 Y-30.394
X-14.189 Y-30.572
G3 X-14.071 Y-31.293 I0.529 J-0.284
G1 X-14.002 Y-31.358 Z-9.993
X-13.935 Y-31.42 Z-9.971
X-13.872 Y-31.48 Z-9.935
X-13.813 Y-31.535 Z-9.885
X-13.761 Y-31.584 Z-9.824
X-13.717 Y-31.626 Z-9.753
X-13.681 Y-31.659 Z-9.672
X-13.655 Y-31.684 Z-9.585
X-13.639 Y-31.699 Z-9.494
X-13.633 Y-31.704 Z-9.4
G0 Z5.
X15.317 Y-32.595
Z-8.8
G1 Z-9.4 F1440.
X15.315 Y-32.588 Z-9.494
X15.31 Y-32.566 Z-9.585
X15.301 Y-32.531 Z-9.672
X15.289 Y-32.484 Z-9.753
X15.273 Y-32.424 Z-9.824
X15.256 Y-32.355 Z-9.885
X15.236 Y-32.277 Z-9.935
X15.215 Y-32.193 Z-9.971
X15.192 Y-32.104 Z-9.993
X15.169 Y-32.013 Z-10.
G3 X14.792 Y-31.324 I-1.534 J-0.39
G1 X14.562 Y-31.094
X14.39 Y-30.879
X14.259 Y-30.692
X13.987 Y-30.227
X13.907 Y-30.088
X13.801 Y-29.924
X13.663 Y-29.744
X13.485 Y-29.547
X13.275 Y-29.348
X13.001 Y-29.129
X12.673 Y-28.906
X12.252 Y-28.668
X11.736 Y-28.428
X11.063 Y-28.179
X10.21 Y-27.94
X9.341 Y-27.765
X8.464 Y-27.638
X7.583 Y-27.545
X6.699 Y-27.478
X5.815 Y-27.428
X5.735 Y-27.425
X5.61 Y-27.426
X5.485 Y-27.438
X5.362 Y-27.461
G3 X5.299 Y-28.611 I0.136 J-0.584
G1 X13.294 Y-31.41
G3 X14.092 Y-30.851 I0.198 J0.566
X13.907 Y-30.088 I-1.582 J0.02
G1 X12.745 Y-28.075
X12.579 Y-27.818
X12.413 Y-27.601
X12.222 Y-27.39
X11.973 Y-27.155
X11.671 Y-26.913
X11.297 Y-26.659
X10.837 Y-26.399
X10.648 Y-26.311
X10.389 Y-26.221
X10.118 Y-26.182
X9.844 Y-26.197
X9.579 Y-26.265
G3 X9.482 Y-27.328 I0.225 J-0.556
G1 X11.893 Y-28.863
G3 X12.745 Y-28.075 I0.322 J0.506
G1 X11.583 Y-26.063
X11.572 Y-26.046
X11.5 Y-25.954
X11.445 Y-25.902
X11.39 Y-25.861
X11.371 Y-25.85
X11.321 Y-25.823
X11.27 Y-25.801
X11.17 Y-25.774
X11.069 Y-25.764
X10.968 Y-25.772
X10.868 Y-25.797
X8.352 Y-26.712
X8.151 Y-26.781
X7.547 Y-26.943
X5.535 Y-27.42
X4.931 Y-27.561
X4.528 Y-27.615
X4.327 Y-27.642
X3.522 Y-27.736
X2.113 Y-27.901
X1.711 Y-27.944
X1.509 Y-27.952
X1.107 Y-27.957
X0.906 Y-27.958
X-0.906
X-1.308 Y-27.955
X-1.509 Y-27.952
X-1.711 Y-27.944
X-2.113 Y-27.901
X-4.126 Y-27.666
X-4.327 Y-27.642
X-5.21 Y-27.569
X-6.092 Y-27.487
X-6.977 Y-27.43
X-7.862 Y-27.39
X-8.748 Y-27.362
X-9.634 Y-27.343
X-10.52 Y-27.33
X-11.406 Y-27.334
X-11.628 Y-27.352
X-11.894 Y-27.399
X-12.147 Y-27.497
X-12.375 Y-27.641
X-12.572 Y-27.827
X-12.729 Y-28.047
G3 X-12.608 Y-28.768 I0.53 J-0.282
G1 X-12.54 Y-28.832 Z-9.993
X-12.473 Y-28.894 Z-9.971
X-12.409 Y-28.953 Z-9.935
X-12.35 Y-29.008 Z-9.885
X-12.298 Y-29.057 Z-9.824
X-12.253 Y-29.099 Z-9.753
X-12.217 Y-29.132 Z-9.672
X-12.191 Y-29.157 Z-9.585
X-12.175 Y-29.172 Z-9.494
X-12.17 Y-29.177 Z-9.4
G0 Z5.
X-3.138 Y-28.332
Z-8.8
G1 Z-9.4 F1440.
X-3.144 Y-28.327 Z-9.494
X-3.161 Y-28.313 Z-9.585
X-3.189 Y-28.291 Z-9.672
X-3.228 Y-28.261 Z-9.753
X-3.276 Y-28.223 Z-9.824
X-3.332 Y-28.178 Z-9.885
X-3.395 Y-28.129 Z-9.935
X-3.463 Y-28.075 Z-9.971
X-3.535 Y-28.018 Z-9.993
X-3.609 Y-27.96 Z-10.
G3 X-4.327 Y-27.642 I-0.98 J-1.242
G1 X-4.73 Y-27.588
X-4.931 Y-27.561
X-5.535 Y-27.42
X-7.547 Y-26.943
X-8.151 Y-26.781
X-8.352 Y-26.712
X-10.136 Y-26.063
X-10.534 Y-25.94
X-10.787 Y-25.911
X-11.041 Y-25.936
X-11.284 Y-26.014
X-11.505 Y-26.14
X-11.695 Y-26.31
X-11.845 Y-26.517
G3 X-11.205 Y-27.388 I0.53 J-0.282
G1 X-10.25 Y-27.209
G3 X-10.136 Y-26.063 I-0.111 J0.59
G1 X-10.868 Y-25.797
X-10.968 Y-25.772
X-11.069 Y-25.764
X-11.17 Y-25.774
X-11.27 Y-25.801
X-11.321 Y-25.823
X-11.371 Y-25.85
X-11.39 Y-25.861
X-11.445 Y-25.902
X-11.5 Y-25.954
X-11.572 Y-26.046
X-11.583 Y-26.063
X-14.024 Y-30.289
X-14.085 Y-30.394
X-14.088 Y-30.402
G2 X-14.521 Y-31.176 I-2.41 J0.839
G1 X-14.565 Y-31.224
X-14.614 Y-31.268
X-14.668 Y-31.306
X-15.736 Y-31.973
X-15.794 Y-32.004
X-15.854 Y-32.029
X-15.917 Y-32.048
G2 X-16.802 Y-32.097 I-0.581 J2.485
G1 X-16.805 Y-32.096
X-17.006 Y-32.089
X-17.207 Y-32.067
X-17.409 Y-32.032
X-17.61 Y-31.987
X-17.811 Y-31.916
X-18.012 Y-31.832
X-18.214 Y-31.738
X-18.616 Y-31.49
X-18.817 Y-31.365
X-19.22 Y-31.104
X-19.56 Y-30.907
X-19.974 Y-30.709
X-20.519 Y-30.5
X-21.261 Y-30.283
X-22.129 Y-30.103
X-23.006 Y-29.979
X-23.888 Y-29.894
X-24.33 Y-29.864
X-24.551 Y-29.842
X-24.765 Y-29.785
X-25.17 Y-29.606
X-25.828 Y-29.012
X-26.296 Y-28.26
X-26.622 Y-27.436
X-26.846 Y-26.578
X-26.998 Y-25.705
X-27.079 Y-25.01
X-27.137 Y-24.738
X-27.244 Y-24.482
X-27.398 Y-24.251
X-29.353 Y-21.836
X-29.51 Y-21.635
X-29.665 Y-21.434
X-29.955 Y-20.989
G3 X-30.652 Y-20.77 I-0.491 J-0.345
G1 X-30.74 Y-20.803 Z-9.993
X-30.826 Y-20.834 Z-9.971
X-30.908 Y-20.864 Z-9.935
X-30.983 Y-20.891 Z-9.885
X-31.05 Y-20.916 Z-9.824
X-31.108 Y-20.937 Z-9.753
X-31.154 Y-20.954 Z-9.672
X-31.188 Y-20.966 Z-9.585
X-31.208 Y-20.974 Z-9.494
X-31.215 Y-20.976 Z-9.4
G0 Z5.
X-18.443 Y-32.238
Z-8.8
G1 Z-9.4 F1440.
X-18.446 Y-32.232 Z-9.494
X-18.456 Y-32.212 Z-9.585
X-18.472 Y-32.179 Z-9.672
X-18.494 Y-32.135 Z-9.753
X-18.521 Y-32.081 Z-9.824
X-18.552 Y-32.016 Z-9.885
X-18.588 Y-31.944 Z-9.935
X-18.626 Y-31.866 Z-9.971
X-18.667 Y-31.784 Z-9.993
X-18.709 Y-31.7 Z-10.
G3 X-19.22 Y-31.104 I-1.419 J-0.7
G1 X-21.094 Y-29.887
X-21.434 Y-29.665
X-21.668 Y-29.484
X-21.836 Y-29.353
X-24.251 Y-27.398
X-24.395 Y-27.27
X-24.654 Y-27.035
X-24.827 Y-26.868
X-26.868 Y-24.827
X-27.035 Y-24.654
X-27.27 Y-24.395
X-27.398 Y-24.251
G3 X-28.119 Y-24.137 I-0.435 J-0.413
G1 X-28.202 Y-24.182 Z-9.993
X-28.282 Y-24.226 Z-9.971
X-28.359 Y-24.267 Z-9.935
X-28.429 Y-24.306 Z-9.885
X-28.492 Y-24.34 Z-9.824
X-28.546 Y-24.369 Z-9.753
X-28.589 Y-24.393 Z-9.672
X-28.621 Y-24.41 Z-9.585
X-28.64 Y-24.42 Z-9.494
X-28.647 Y-24.424 Z-9.4
G0 Z5.
X-32.238 Y18.443
Z-8.8
G1 Z-9.4 F1440.
X-32.232 Y18.446 Z-9.494
X-32.212 Y18.456 Z-9.585
X-32.179 Y18.472 Z-9.672
X-32.135 Y18.494 Z-9.753
X-32.081 Y18.521 Z-9.824
X-32.016 Y18.552 Z-9.885
X-31.944 Y18.588 Z-9.935
X-31.866 Y18.626 Z-9.971
X-31.784 Y18.667 Z-9.993
X-31.7 Y18.709 Z-10.
G3 X-31.104 Y19.22 I-0.7 J1.419
G1 X-29.887 Y21.094
X-29.665 Y21.434
X-29.484 Y21.668
X-29.353 Y21.836
X-29.191 Y22.038
X-28.886 Y22.455
X-28.68 Y22.79
X-28.462 Y23.221
X-28.125 Y24.04
X-27.616 Y24.765
X-26.961 Y25.362
X-26.213 Y25.837
X-25.789 Y26.031
X-25.642 Y26.109
X-25.506 Y26.204
X-25.381 Y26.314
G3 X-25.416 Y27.167 I-0.439 J0.409
X-26.268 Y27.122 I-0.404 J-0.443
G1 X-30.091 Y22.83
G3 X-30.04 Y21.981 I0.448 J-0.399
X-29.191 Y22.038 I0.396 J0.45
G1 X-27.398 Y24.251
X-27.27 Y24.395
X-27.035 Y24.654
X-26.868 Y24.827
X-24.827 Y26.868
X-24.654 Y27.035
X-24.395 Y27.27
X-24.251 Y27.398
X-21.836 Y29.353
X-21.497 Y29.616
X-21.434 Y29.665
X-21.191 Y29.823
G3 X-20.972 Y30.521 I-0.345 J0.491
G1 X-21.005 Y30.609 Z-9.993
X-21.036 Y30.695 Z-9.971
X-21.066 Y30.776 Z-9.935
X-21.094 Y30.852 Z-9.885
X-21.118 Y30.919 Z-9.824
X-21.139 Y30.976 Z-9.753
X-21.156 Y31.023 Z-9.672
X-21.169 Y31.056 Z-9.585
X-21.176 Y31.077 Z-9.494
X-21.179 Y31.084 Z-9.4
G0 Z5.
X18.443 Y32.238
Z-8.8
G1 Z-9.4 F1440.
X18.446 Y32.232 Z-9.494
X18.456 Y32.212 Z-9.585
X18.472 Y32.179 Z-9.672
X18.494 Y32.135 Z-9.753
X18.521 Y32.081 Z-9.824
X18.552 Y32.016 Z-9.885
X18.588 Y31.944 Z-9.935
X18.626 Y31.866 Z-9.971
X18.667 Y31.784 Z-9.993
X18.709 Y31.7 Z-10.
G3 X19.22 Y31.104 I1.419 J0.7
G1 X21.094 Y29.887
X21.434 Y29.665
X21.668 Y29.484
X21.836 Y29.353
X22.038 Y29.191
X22.455 Y28.886
X22.79 Y28.68
X23.221 Y28.462
X24.04 Y28.125
X24.765 Y27.616
X25.362 Y26.961
X25.837 Y26.213
X26.031 Y25.789
X26.109 Y25.642
X26.204 Y25.506
X26.314 Y25.381
G3 X27.167 Y25.416 I0.409 J0.439
X27.122 Y26.268 I-0.443 J0.404
G1 X22.83 Y30.091
G3 X21.981 Y30.04 I-0.399 J-0.448
X22.038 Y29.191 I0.45 J-0.396
G1 X24.251 Y27.398
X24.395 Y27.27
X24.654 Y27.035
X24.827 Y26.868
X26.868 Y24.827
X27.035 Y24.654
X27.27 Y24.395
X27.398 Y24.251
X29.353 Y21.836
X29.616 Y21.497
X29.665 Y21.434
X29.823 Y21.191
G3 X30.521 Y20.972 I0.491 J0.345
G1 X30.609 Y21.005 Z-9.993
X30.695 Y21.036 Z-9.971
X30.776 Y21.066 Z-9.935
X30.852 Y21.094 Z-9.885
X30.919 Y21.118 Z-9.824
X30.976 Y21.139 Z-9.753
X31.023 Y21.156 Z-9.672
X31.056 Y21.169 Z-9.585
X31.077 Y21.176 Z-9.494
X31.084 Y21.179 Z-9.4
G0 Z5.
X32.238 Y-18.443
Z-8.8
G1 Z-9.4 F1440.
X32.232 Y-18.446 Z-9.494
X32.212 Y-18.456 Z-9.585
X32.179 Y-18.472 Z-9.672
X32.135 Y-18.494 Z-9.753
X32.081 Y-18.521 Z-9.824
X32.016 Y-18.552 Z-9.885
X31.944 Y-18.588 Z-9.935
X31.866 Y-18.626 Z-9.971
X31.784 Y-18.667 Z-9.993
X31.7 Y-18.709 Z-10.
G3 X31.104 Y-19.22 I0.7 J-1.419
G1 X29.887 Y-21.094
X29.665 Y-21.434
X29.484 Y-21.668
X29.353 Y-21.836
X29.191 Y-22.038
X28.886 Y-22.455
X28.68 Y-22.79
X28.462 Y-23.221
X28.125 Y-24.04
X27.616 Y-24.765
X26.961 Y-25.362
X26.213 Y-25.837
X25.789 Y-26.031
X25.642 Y-26.109
X25.506 Y-26.204
X25.381 Y-26.314
G3 X25.416 Y-27.167 I0.439 J-0.409
X26.268 Y-27.122 I0.404 J0.443
G1 X30.091 Y-22.83
G3 X30.04 Y-21.981 I-0.448 J0.399
X29.191 Y-22.038 I-0.396 J-0.45
G1 X27.398 Y-24.251
X27.27 Y-24.395
X27.035 Y-24.654
X26.868 Y-24.827
X24.827 Y-26.868
X24.654 Y-27.035
X24.395 Y-27.27
X24.251 Y-27.398
X21.836 Y-29.353
X21.497 Y-29.616
X21.434 Y-29.665
X21.191 Y-29.823
X21.119 Y-29.882
X21.058 Y-29.952
X21.025 Y-30.018 Z-9.995
X20.992 Y-30.082 Z-9.982
X20.96 Y-30.145 Z-9.959
X20.951 Y-30.205 Z-9.931
X20.943 Y-30.262 Z-9.897
X20.936 Y-30.314 Z-9.856
X20.946 Y-30.375 Z-9.796
X20.956 Y-30.426 Z-9.727
X20.963 Y-30.467 Z-9.651
X20.968 Y-30.496 Z-9.571
X20.971 Y-30.515 Z-9.487
X20.972 Y-30.521 Z-9.401
G0 Z5.
X0. Y0.
Z-2.5
G1 Z-10. F330.
X-0.037 Y-0.009 F1440.
X-0.021 Y-0.043
X0.016 Y-0.052
X0.048 Y-0.033
X0.063 Y0.001
X0.054 Y0.038
X0.03 Y0.067
X-0.003 Y0.085
X-0.04 Y0.09
X-0.076 Y0.08
X-0.106 Y0.058
X-0.129 Y0.028
X-0.142 Y-0.007
X-0.147 Y-0.082
X-0.117 Y-0.15
X-0.061 Y-0.2
X0.01 Y-0.225
X0.085 Y-0.224
X0.156 Y-0.199
X0.215 Y-0.154
X0.304 Y-0.033
X0.32 Y0.116
X0.271 Y0.258
X0.17 Y0.369
X0.035 Y0.435
X-0.114 Y0.451
X-0.261 Y0.419
X-0.392 Y0.346
X-0.496 Y0.238
X-0.569 Y0.107
X-0.605 Y-0.039
X-0.603 Y-0.189
X-0.567 Y-0.335
X-0.498 Y-0.468
X-0.401 Y-0.582
X-0.282 Y-0.673
X-0.146 Y-0.738
X0. Y-0.773
X0.149 Y-0.781
X0.298 Y-0.762
X0.441 Y-0.716
X0.573 Y-0.646
X0.692 Y-0.554
X0.793 Y-0.443
X0.876 Y-0.318
X0.937 Y-0.181
X0.976 Y-0.036
X0.993 Y0.113
X0.986 Y0.263
X0.959 Y0.41
X0.91 Y0.552
X0.842 Y0.686
X0.756 Y0.809
X0.654 Y0.919
X0.539 Y1.015
X0.412 Y1.095
X0.276 Y1.158
X0.133 Y1.204
X-0.014 Y1.231
X-0.164 Y1.241
X-0.314 Y1.232
X-0.461 Y1.206
X-0.605 Y1.164
X-0.743 Y1.105
X-0.874 Y1.031
X-0.995 Y0.943
X-1.106 Y0.842
X-1.205 Y0.729
X-1.293 Y0.607
X-1.366 Y0.477
X-1.426 Y0.339
X-1.472 Y0.196
X-1.502 Y0.049
X-1.518 Y-0.1
X-1.519 Y-0.25
X-1.505 Y-0.399
X-1.477 Y-0.546
X-1.434 Y-0.69
X-1.379 Y-0.83
X-1.31 Y-0.963
X-1.229 Y-1.089
X-1.138 Y-1.208
X-1.035 Y-1.318
X-0.924 Y-1.418
X-0.804 Y-1.508
X-0.676 Y-1.587
X-0.542 Y-1.655
X-0.403 Y-1.711
X-0.26 Y-1.755
X-0.113 Y-1.786
X0.036 Y-1.805
X0.185 Y-1.812
X0.335 Y-1.807
X0.488 Y-1.788
X0.635 Y-1.759
X0.784 Y-1.716
X0.924 Y-1.663
X1.066 Y-1.595
X1.198 Y-1.519
X1.33 Y-1.428
X1.45 Y-1.331
X1.568 Y-1.218
X1.672 Y-1.101
X1.772 Y-0.968
X1.858 Y-0.833
X1.937 Y-0.685
X2.001 Y-0.534
X2.055 Y-0.374
X2.096 Y-0.21
X2.124 Y-0.043
X2.138 Y0.129
X2.139 Y0.299
X2.125 Y0.476
X2.098 Y0.648
X2.057 Y0.82
X2. Y0.991
X1.932 Y1.155
X1.847 Y1.319
X1.75 Y1.473
X1.641 Y1.62
X1.517 Y1.762
X1.384 Y1.891
X1.239 Y2.011
X1.081 Y2.122
X0.917 Y2.218
X0.742 Y2.302
X0.559 Y2.373
X0.371 Y2.429
X0.179 Y2.47
X-0.021 Y2.496
X-0.222 Y2.505
X-0.422 Y2.499
X-0.627 Y2.476
X-0.83 Y2.436
X-1.028 Y2.38
X-1.223 Y2.309
X-1.415 Y2.219
X-1.6 Y2.115
X-1.776 Y1.996
X-1.943 Y1.863
X-2.101 Y1.713
X-2.248 Y1.551
X-2.382 Y1.377
X-2.501 Y1.193
X-2.606 Y0.998
X-2.697 Y0.791
X-2.771 Y0.577
X-2.828 Y0.357
X-2.867 Y0.133
X-2.888 Y-0.095
X-2.891 Y-0.327
X-2.875 Y-0.56
X-2.84 Y-0.794
X-2.786 Y-1.025
X-2.713 Y-1.252
X-2.622 Y-1.474
X-2.513 Y-1.689
X-2.386 Y-1.895
X-2.242 Y-2.093
X-2.081 Y-2.28
X-1.905 Y-2.454
X-1.713 Y-2.615
X-1.508 Y-2.761
X-1.29 Y-2.891
X-1.061 Y-3.004
X-0.823 Y-3.099
X-0.576 Y-3.175
X-0.322 Y-3.231
X-0.062 Y-3.266
X0.201 Y-3.281
X0.466 Y-3.275
X0.731 Y-3.247
X0.995 Y-3.198
X1.255 Y-3.127
X1.511 Y-3.035
X1.76 Y-2.922
X2.001 Y-2.789
X2.231 Y-2.636
X2.45 Y-2.464
X2.655 Y-2.273
X2.846 Y-2.066
X3.02 Y-1.843
X3.177 Y-1.605
X3.315 Y-1.353
X3.434 Y-1.09
X3.531 Y-0.816
X3.606 Y-0.534
X3.659 Y-0.245
X3.689 Y0.049
X3.695 Y0.347
X3.677 Y0.645
X3.635 Y0.944
X3.569 Y1.239
X3.478 Y1.53
X3.364 Y1.814
X3.227 Y2.09
X3.067 Y2.356
X2.885 Y2.609
X2.683 Y2.848
X2.46 Y3.072
X2.219 Y3.278
X1.961 Y3.465
X1.688 Y3.631
X1.4 Y3.776
X1.099 Y3.898
X0.789 Y3.996
X0.469 Y4.069
X0.143 Y4.117
X-0.187 Y4.138
X-0.521 Y4.133
X-0.854 Y4.101
X-1.185 Y4.042
X-1.513 Y3.956
X-1.834 Y3.843
X-2.147 Y3.705
X-2.449 Y3.54
X-2.738 Y3.352
X-3.013 Y3.139
X-3.272 Y2.903
X-3.512 Y2.646
X-3.732 Y2.37
X-3.929 Y2.075
X-4.104 Y1.764
X-4.253 Y1.438
X-4.377 Y1.099
X-4.474 Y0.749
X-4.542 Y0.391
X-4.582 Y0.027
X-4.593 Y-0.341
X-4.573 Y-0.71
X-4.524 Y-1.079
X-4.446 Y-1.444
X-4.337 Y-1.804
X-4.2 Y-2.155
X-4.033 Y-2.496
X-3.839 Y-2.825
X-3.618 Y-3.138
X-3.372 Y-3.434
X-3.101 Y-3.71
X-2.808 Y-3.966
X-2.493 Y-4.197
X-2.159 Y-4.404
X-1.808 Y-4.585
X-1.442 Y-4.737
X-1.063 Y-4.86
X-0.674 Y-4.952
X-0.277 Y-5.014
X0.126 Y-5.043
X0.532 Y-5.04
X0.938 Y-5.004
X1.342 Y-4.936
X1.741 Y-4.835
X2.132 Y-4.701
X2.513 Y-4.536
X2.881 Y-4.34
X3.234 Y-4.113
X3.57 Y-3.858
X3.885 Y-3.576
X4.177 Y-3.268
X4.446 Y-2.936
X4.688 Y-2.581
X4.901 Y-2.207
X5.085 Y-1.815
X5.238 Y-1.408
X5.358 Y-0.988
X5.444 Y-0.557
X5.495 Y-0.119
X5.512 Y0.323
X5.492 Y0.768
X5.437 Y1.211
X5.346 Y1.651
X5.219 Y2.083
X5.058 Y2.506
X4.862 Y2.917
X4.633 Y3.312
X4.371 Y3.689
X4.08 Y4.045
X3.759 Y4.378
X3.41 Y4.686
X3.037 Y4.966
X2.641 Y5.216
X2.224 Y5.434
X1.789 Y5.62
X1.339 Y5.77
X0.877 Y5.884
X0.404 Y5.961
X-0.074 Y6.
X-0.557
X-1.04 Y5.961
X-1.52 Y5.884
X-1.994 Y5.768
X-2.459 Y5.613
X-2.912 Y5.421
X-3.35 Y5.192
X-3.77 Y4.928
X-4.169 Y4.63
X-4.545 Y4.299
X-4.894 Y3.938
X-5.214 Y3.548
X-5.503 Y3.132
X-5.759 Y2.693
X-5.979 Y2.232
X-6.163 Y1.754
X-6.308 Y1.26
X-6.413 Y0.755
X-6.478 Y0.24
X-6.502 Y-0.28
X-6.483 Y-0.802
X-6.422 Y-1.323
X-6.32 Y-1.84
X-6.176 Y-2.349
X-5.99 Y-2.846
X-5.764 Y-3.329
X-5.5 Y-3.794
X-5.197 Y-4.238
X-4.859 Y-4.658
X-4.487 Y-5.051
X-4.083 Y-5.414
X-3.649 Y-5.745
X-3.189 Y-6.041
X-2.704 Y-6.3
X-2.199 Y-6.52
X-1.675 Y-6.7
X-1.137 Y-6.837
X-0.587 Y-6.931
X-0.03 Y-6.981
X0.532 Y-6.986
X1.094 Y-6.946
X1.653 Y-6.861
X2.205 Y-6.73
X2.748 Y-6.555
X3.276 Y-6.336
X3.787 Y-6.075
X4.277 Y-5.772
X4.742 Y-5.429
X5.181 Y-5.049
X5.589 Y-4.634
X5.964 Y-4.185
X6.302 Y-3.707
X6.603 Y-3.2
X6.862 Y-2.67
X7.079 Y-2.118
X7.252 Y-1.548
X7.378 Y-0.965
X7.458 Y-0.371
X7.49 Y0.229
X7.474 Y0.833
X7.409 Y1.435
X7.295 Y2.032
X7.134 Y2.62
X6.925 Y3.195
X6.67 Y3.754
X6.369 Y4.291
X6.026 Y4.805
X5.64 Y5.292
X5.216 Y5.747
X4.755 Y6.168
X4.26 Y6.552
X3.734 Y6.896
X3.18 Y7.198
X2.602 Y7.456
X2.003 Y7.667
X1.387 Y7.829
X0.758 Y7.942
X0.12 Y8.005
X-0.523 Y8.016
X-1.167 Y7.975
X-1.808 Y7.882
X-2.441 Y7.738
X-3.063 Y7.543
X-3.669 Y7.298
X-4.255 Y7.004
X-4.818 Y6.662
X-5.353 Y6.276
X-5.857 Y5.846
X-6.326 Y5.376
X-6.758 Y4.868
X-7.148 Y4.325
X-7.495 Y3.751
X-7.796 Y3.149
X-8.048 Y2.523
X-8.25 Y1.876
X-8.4 Y1.213
X-8.496 Y0.539
X-8.538 Y-0.144
X-8.525 Y-0.83
X-8.457 Y-1.515
X-8.334 Y-2.194
X-8.156 Y-2.863
X-7.924 Y-3.518
X-7.639 Y-4.154
X-7.304 Y-4.767
X-6.919 Y-5.353
X-6.487 Y-5.908
X-6.01 Y-6.428
X-5.491 Y-6.91
X-4.934 Y-7.349
X-4.342 Y-7.744
X-3.718 Y-8.091
X-3.066 Y-8.387
X-2.391 Y-8.632
X-1.696 Y-8.821
X-0.986 Y-8.955
X-0.265 Y-9.031
X0.461 Y-9.05
X1.189 Y-9.01
X1.913 Y-8.911
X2.629 Y-8.754
X3.333 Y-8.54
X4.018 Y-8.269
X4.682 Y-7.943
X5.32 Y-7.563
X5.926 Y-7.133
X6.498 Y-6.653
X7.031 Y-6.128
X7.522 Y-5.56
X7.966 Y-4.953
X8.362 Y-4.31
X8.706 Y-3.635
X8.995 Y-2.933
X9.228 Y-2.208
X9.403 Y-1.464
X9.517 Y-0.707
X9.571 Y0.06
X9.562 Y0.83
X9.492 Y1.599
X9.36 Y2.363
X9.166 Y3.116
X8.912 Y3.852
X8.599 Y4.568
X8.229 Y5.258
X7.802 Y5.919
X7.323 Y6.544
X6.794 Y7.131
X6.218 Y7.675
X5.599 Y8.173
X4.939 Y8.62
X4.244 Y9.014
X3.518 Y9.352
X2.765 Y9.631
X1.989 Y9.849
X1.197 Y10.005
X0.392 Y10.097
X-0.419 Y10.125
X-1.233 Y10.087
X-2.043 Y9.983
X-2.844 Y9.815
X-3.631 Y9.582
X-4.399 Y9.285
X-5.142 Y8.928
X-5.857 Y8.51
X-6.537 Y8.035
X-7.179 Y7.506
X-7.778 Y6.926
X-8.33 Y6.298
X-8.831 Y5.625
X-9.277 Y4.913
X-9.666 Y4.165
X-9.995 Y3.386
X-10.26 Y2.582
X-10.461 Y1.756
X-10.595 Y0.915
X-10.662 Y0.063
X-10.66 Y-0.793
X-10.589 Y-1.649
X-10.449 Y-2.498
X-10.241 Y-3.336
X-9.966 Y-4.156
X-9.624 Y-4.954
X-9.219 Y-5.724
X-8.752 Y-6.46
X-8.227 Y-7.159
X-7.645 Y-7.814
X-7.011 Y-8.423
X-6.329 Y-8.98
X-5.602 Y-9.482
X-4.836 Y-9.925
X-4.035 Y-10.305
X-3.207 Y-10.62
X-2.356 Y-10.867
X-1.488 Y-11.047
X-0.609 Y-11.156
X0.276 Y-11.195
X1.162 Y-11.165
X2.042 Y-11.064
X2.912 Y-10.894
X3.766 Y-10.657
X4.598 Y-10.353
X5.404 Y-9.985
X6.179 Y-9.556
X6.919 Y-9.067
X7.618 Y-8.523
X8.273 Y-7.926
X8.88 Y-7.281
X9.436 Y-6.59
X9.937 Y-5.859
X10.38 Y-5.092
X10.764 Y-4.294
X11.085 Y-3.468
X11.344 Y-2.62
X11.537 Y-1.755
X11.664 Y-0.879
X11.725 Y0.006
X11.718 Y0.892
X11.644 Y1.775
X11.503 Y2.649
X11.296 Y3.511
X11.026 Y4.355
X10.693 Y5.176
X10.3 Y5.971
X9.85 Y6.734
X9.344 Y7.462
X9.276 Y7.545
X8.755 Y8.155
X8.553 Y8.385
X8.391 Y8.553
X7.346 Y9.446
X7.205 Y9.56
X6.742 Y9.884
X6.621 Y9.962
X6.138 Y10.258
X5.962 Y10.365
X5.333 Y10.723
X5.242 Y10.767
X3.924 Y11.313
X3.723 Y11.375
X3.321 Y11.49
X3.119 Y11.544
X2.516 Y11.689
X2.113 Y11.777
X1.912 Y11.82
X1.711 Y11.856
X0.503 Y11.951
X0.302 Y11.962
X-0.302
X-0.503 Y11.951
X-1.711 Y11.856
X-1.912 Y11.82
X-2.314 Y11.734
X-2.516 Y11.689
X-3.119 Y11.544
X-3.321 Y11.49
X-3.739 Y11.371
X-3.924 Y11.313
X-5.242 Y10.767
X-5.333 Y10.723
X-5.962 Y10.365
X-6.138 Y10.258
X-6.621 Y9.962
X-6.742 Y9.884
X-7.205 Y9.56
X-7.346 Y9.446
X-8.391 Y8.553
X-8.553 Y8.385
X-8.758 Y8.151
X-9.358 Y7.449
X-9.446 Y7.346
X-9.56 Y7.205
X-9.884 Y6.742
X-9.962 Y6.621
X-10.258 Y6.138
X-10.365 Y5.962
X-10.723 Y5.333
X-10.767 Y5.242
X-11.313 Y3.924
X-11.375 Y3.723
X-11.49 Y3.321
X-11.544 Y3.119
X-11.689 Y2.516
X-11.777 Y2.113
X-11.82 Y1.912
X-11.856 Y1.711
X-11.951 Y0.503
X-11.962 Y0.302
Y-0.302
X-11.951 Y-0.503
X-11.856 Y-1.711
X-11.82 Y-1.912
X-11.734 Y-2.314
X-11.689 Y-2.516
X-11.544 Y-3.119
X-11.49 Y-3.321
X-11.371 Y-3.739
X-11.313 Y-3.924
X-10.767 Y-5.242
X-10.723 Y-5.333
X-10.365 Y-5.962
X-10.258 Y-6.138
X-9.962 Y-6.621
X-9.884 Y-6.742
X-9.56 Y-7.205
X-9.446 Y-7.346
X-8.553 Y-8.391
X-8.385 Y-8.553
X-8.151 Y-8.758
X-7.449 Y-9.358
X-7.346 Y-9.446
X-7.205 Y-9.56
X-6.742 Y-9.884
X-6.621 Y-9.962
X-6.138 Y-10.258
X-5.962 Y-10.365
X-5.333 Y-10.723
X-5.242 Y-10.767
X-3.924 Y-11.313
X-3.723 Y-11.375
X-3.321 Y-11.49
X-3.119 Y-11.544
X-2.516 Y-11.689
X-2.113 Y-11.777
X-1.912 Y-11.82
X-1.711 Y-11.856
X-0.503 Y-11.951
X-0.302 Y-11.962
X0.302
X0.503 Y-11.951
X1.711 Y-11.856
X1.912 Y-11.82
X2.314 Y-11.734
X2.516 Y-11.689
X3.119 Y-11.544
X3.321 Y-11.49
X3.739 Y-11.371
X3.924 Y-11.313
X5.242 Y-10.767
X5.333 Y-10.723
X5.962 Y-10.365
X6.138 Y-10.258
X6.621 Y-9.962
X6.742 Y-9.884
X7.205 Y-9.56
X7.346 Y-9.446
X8.391 Y-8.553
X8.553 Y-8.385
X8.758 Y-8.151
X9.358 Y-7.449
X9.446 Y-7.346
X9.56 Y-7.205
X9.884 Y-6.742
X9.962 Y-6.621
X10.258 Y-6.138
X10.365 Y-5.962
X10.723 Y-5.333
X10.767 Y-5.242
X11.313 Y-3.924
X11.375 Y-3.723
X11.49 Y-3.321
X11.544 Y-3.119
X11.689 Y-2.516
X11.777 Y-2.113
X11.82 Y-1.912
X11.856 Y-1.711
X11.951 Y-0.503
X11.962 Y-0.302
Y0.302
X11.951 Y0.503
X11.856 Y1.711
X11.82 Y1.912
X11.734 Y2.314
X11.689 Y2.516
X11.544 Y3.119
X11.49 Y3.321
X11.371 Y3.739
X11.313 Y3.924
X10.767 Y5.242
X10.723 Y5.333
X10.365 Y5.962
X10.258 Y6.138
X9.962 Y6.621
X9.884 Y6.742
X9.56 Y7.205
X9.446 Y7.346
X9.276 Y7.545
X9.208 Y7.608
X9.132 Y7.66
X9.062 Y7.685 Z-9.995
X8.994 Y7.709 Z-9.982
X8.927 Y7.732 Z-9.959
X8.879 Y7.736 Z-9.938
X8.834 Y7.74 Z-9.912
X8.769 Y7.728 Z-9.866
X8.712 Y7.717 Z-9.811
X8.662 Y7.708 Z-9.749
X8.62 Y7.701 Z-9.681
X8.585 Y7.685 Z-9.591
X8.564 Y7.675 Z-9.497
X8.557 Y7.672 Z-9.4
G0 Z5.
X-34.395 Y-33.548
Z-10.8
G1 Z-11.4 F1440.
X-34.388 Y-33.544 Z-11.494
X-34.369 Y-33.533 Z-11.585
X-34.338 Y-33.514 Z-11.672
X-34.296 Y-33.489 Z-11.753
X-34.243 Y-33.458 Z-11.824
X-34.182 Y-33.422 Z-11.885
X-34.113 Y-33.381 Z-11.935
X-34.038 Y-33.336 Z-11.971
X-33.959 Y-33.29 Z-11.993
X-33.878 Y-33.242 Z-12.
G3 X-31.237 Y-31.264 I-7.805 J13.18
G1 X-31.158 Y-31.185
X-30.976 Y-30.892
X-30.782 Y-30.515
X-30.577 Y-30.023
X-30.363 Y-29.364
X-30.158 Y-28.502
X-30.017 Y-27.627
X-29.92 Y-26.746
X-29.853 Y-25.862
X-29.806 Y-24.977
X-29.773 Y-24.092
X-29.751 Y-23.206
X-29.735 Y-22.32
X-29.728 Y-21.771
X-29.752 Y-21.497
X-29.828 Y-21.233
X-29.955 Y-20.989
X-31.365 Y-18.817
X-31.614 Y-18.415
X-31.619 Y-18.408
G2 X-31.822 Y-18.145 I1.403 J1.29
G1 X-31.862 Y-18.072
X-31.891 Y-17.993
X-31.971 Y-17.728
X-32.016 Y-17.575
X-32.097 Y-17.306
X-32.115 Y-17.224
X-32.122 Y-17.141
G2 X-32.097 Y-16.81 I1.906 J0.023
G1 X-32.096 Y-16.805
X-32.088 Y-16.604
X-32.069 Y-16.402
X-32.037 Y-16.201
X-31.986 Y-16.
X-31.924 Y-15.799
X-31.899 Y-15.734
X-31.845 Y-15.597
X-31.748 Y-15.396
X-31.698 Y-15.309
X-31.628 Y-15.195
X-31.497 Y-15.006
X-31.324 Y-14.792
X-31.23 Y-14.676
X-31.053 Y-14.412
X-30.864 Y-14.073
X-30.664 Y-13.633
X-30.453 Y-13.052
X-30.234 Y-12.252
X-30.07 Y-11.381
X-29.956 Y-10.502
X-29.878 Y-9.62
X-29.823 Y-8.735
X-29.786 Y-7.85
X-29.759 Y-6.964
X-29.741 Y-6.078
X-29.728 Y-5.192
X-29.719 Y-4.306
X-29.713 Y-3.42
X-29.709 Y-2.534
X-29.703 Y-0.762
X-29.7 Y1.897
X-29.699 Y8.099
Y12.875
X-29.729 Y13.165
X-29.819 Y13.443
X-29.964 Y13.695
X-30.159 Y13.913
X-30.394 Y14.085
X-30.572 Y14.189
G3 X-31.293 Y14.071 I-0.284 J-0.529
G1 X-31.358 Y14.002 Z-11.993
X-31.42 Y13.935 Z-11.971
X-31.48 Y13.872 Z-11.935
X-31.535 Y13.813 Z-11.885
X-31.584 Y13.761 Z-11.824
X-31.626 Y13.717 Z-11.753
X-31.659 Y13.681 Z-11.672
X-31.684 Y13.655 Z-11.585
X-31.699 Y13.639 Z-11.494
X-31.704 Y13.633 Z-11.4
G0 Z5.
X-32.595 Y-15.317
Z-10.8
G1 Z-11.4 F1440.
X-32.588 Y-15.315 Z-11.494
X-32.566 Y-15.31 Z-11.585
X-32.531 Y-15.301 Z-11.672
X-32.484 Y-15.289 Z-11.753
X-32.424 Y-15.273 Z-11.824
X-32.355 Y-15.256 Z-11.885
X-32.277 Y-15.236 Z-11.935
X-32.193 Y-15.215 Z-11.971
X-32.104 Y-15.192 Z-11.993
X-32.013 Y-15.169 Z-12.
G3 X-31.324 Y-14.792 I-0.39 J1.534
G1 X-31.094 Y-14.562
X-30.879 Y-14.39
X-30.692 Y-14.259
X-30.227 Y-13.987
X-30.088 Y-13.907
X-29.924 Y-13.801
X-29.744 Y-13.663
X-29.547 Y-13.485
X-29.348 Y-13.275
X-29.129 Y-13.001
X-28.906 Y-12.673
X-28.668 Y-12.252
X-28.428 Y-11.736
X-28.179 Y-11.063
X-27.94 Y-10.21
X-27.765 Y-9.341
X-27.638 Y-8.464
X-27.545 Y-7.583
X-27.478 Y-6.699
X-27.428 Y-5.815
X-27.425 Y-5.735
X-27.426 Y-5.61
X-27.438 Y-5.485
X-27.461 Y-5.362
G3 X-28.611 Y-5.299 I-0.584 J-0.136
G1 X-31.41 Y-13.294
G3 X-30.851 Y-14.092 I0.566 J-0.198
X-30.088 Y-13.907 I0.02 J1.582
G1 X-28.075 Y-12.745
X-27.818 Y-12.579
X-27.601 Y-12.413
X-27.39 Y-12.222
X-27.155 Y-11.973
X-26.913 Y-11.671
X-26.659 Y-11.297
X-26.399 Y-10.837
X-26.311 Y-10.648
X-26.221 Y-10.389
X-26.182 Y-10.118
X-26.197 Y-9.844
X-26.265 Y-9.579
G3 X-27.328 Y-9.482 I-0.556 J-0.225
G1 X-28.863 Y-11.893
G3 X-28.075 Y-12.745 I0.506 J-0.322
G1 X-26.063 Y-11.583
X-26.046 Y-11.572
X-25.954 Y-11.5
X-25.902 Y-11.445
X-25.861 Y-11.39
X-25.85 Y-11.371
X-25.823 Y-11.321
X-25.801 Y-11.27
X-25.774 Y-11.17
X-25.764 Y-11.069
X-25.772 Y-10.968
X-25.797 Y-10.868
X-26.712 Y-8.352
X-26.781 Y-8.151
X-26.943 Y-7.547
X-27.42 Y-5.535
X-27.561 Y-4.931
X-27.615 Y-4.528
X-27.642 Y-4.327
X-27.736 Y-3.522
X-27.901 Y-2.113
X-27.944 Y-1.711
X-27.952 Y-1.509
X-27.957 Y-1.107
X-27.958 Y-0.906
Y0.906
X-27.955 Y1.308
X-27.952 Y1.509
X-27.944 Y1.711
X-27.901 Y2.113
X-27.666 Y4.126
X-27.642 Y4.327
X-27.569 Y5.21
X-27.487 Y6.092
X-27.43 Y6.977
X-27.39 Y7.862
X-27.362 Y8.748
X-27.343 Y9.634
X-27.33 Y10.52
X-27.334 Y11.406
X-27.352 Y11.628
X-27.399 Y11.894
X-27.497 Y12.147
X-27.641 Y12.375
X-27.827 Y12.572
X-28.047 Y12.729
G3 X-28.768 Y12.608 I-0.282 J-0.53
G1 X-28.832 Y12.54 Z-11.993
X-28.894 Y12.473 Z-11.971
X-28.953 Y12.409 Z-11.935
X-29.008 Y12.35 Z-11.885
X-29.057 Y12.298 Z-11.824
X-29.099 Y12.253 Z-11.753
X-29.132 Y12.217 Z-11.672
X-29.157 Y12.191 Z-11.585
X-29.172 Y12.175 Z-11.494
X-29.177 Y12.17 Z-11.4
G0 Z5.
X-28.332 Y3.138
Z-10.8
G1 Z-11.4 F1440.
X-28.327 Y3.144 Z-11.494
X-28.313 Y3.161 Z-11.585
X-28.291 Y3.189 Z-11.672
X-28.261 Y3.228 Z-11.753
X-28.223 Y3.276 Z-11.824
X-28.178 Y3.332 Z-11.885
X-28.129 Y3.395 Z-11.935
X-28.075 Y3.463 Z-11.971
X-28.018 Y3.535 Z-11.993
X-27.96 Y3.609 Z-12.
G3 X-27.642 Y4.327 I-1.242 J0.98
G1 X-27.588 Y4.73
X-27.561 Y4.931
X-27.42 Y5.535
X-26.943 Y7.547
X-26.781 Y8.151
X-26.712 Y8.352
X-26.063 Y10.136
X-25.94 Y10.534
X-25.911 Y10.787
X-25.936 Y11.041
X-26.014 Y11.284
X-26.14 Y11.505
X-26.31 Y11.695
X-26.517 Y11.845
G3 X-27.388 Y11.205 I-0.282 J-0.53
G1 X-27.209 Y10.25
G3 X-26.063 Y10.136 I0.59 J0.111
G1 X-25.797 Y10.868
X-25.772 Y10.968
X-25.764 Y11.069
X-25.774 Y11.17
X-25.801 Y11.27
X-25.823 Y11.321
X-25.85 Y11.371
X-25.861 Y11.39
X-25.902 Y11.445
X-25.954 Y11.5
X-26.046 Y11.572
X-26.063 Y11.583
X-30.289 Y14.024
X-30.394 Y14.085
X-30.402 Y14.088
G2 X-31.176 Y14.521 I0.839 J2.41
G1 X-31.224 Y14.565
X-31.268 Y14.614
X-31.306 Y14.668
X-31.973 Y15.736
X-32.004 Y15.794
X-32.029 Y15.854
X-32.048 Y15.917
G2 X-32.097 Y16.802 I2.485 J0.581
G1 X-32.096 Y16.805
X-32.089 Y17.006
X-32.067 Y17.207
X-32.032 Y17.409
X-31.987 Y17.61
X-31.916 Y17.811
X-31.832 Y18.012
X-31.738 Y18.214
X-31.49 Y18.616
X-31.365 Y18.817
X-31.104 Y19.22
X-30.907 Y19.56
X-30.709 Y19.974
X-30.5 Y20.519
X-30.283 Y21.261
X-30.103 Y22.129
X-29.979 Y23.006
X-29.894 Y23.888
X-29.835 Y24.772
X-29.793 Y25.658
X-29.765 Y26.543
X-29.613 Y26.959
X-29.13 Y27.703
X-28.444 Y28.264
X-27.66 Y28.675
X-26.825 Y28.973
X-25.965 Y29.187
X-25.092 Y29.338
X-24.212 Y29.446
X-23.329 Y29.521
X-22.445 Y29.574
X-21.897 Y29.597
X-21.649 Y29.63
X-21.411 Y29.706
X-21.191 Y29.823
X-19.545 Y30.893
X-18.817 Y31.365
X-18.415 Y31.614
X-18.408 Y31.619
G2 X-18.145 Y31.822 I1.29 J-1.403
G1 X-18.072 Y31.862
X-17.993 Y31.891
X-17.728 Y31.971
X-17.575 Y32.016
X-17.306 Y32.097
X-17.224 Y32.115
X-17.141 Y32.122
G2 X-16.81 Y32.097 I0.023 J-1.906
G1 X-16.805 Y32.096
X-16.604 Y32.088
X-16.402 Y32.069
X-16.201 Y32.037
X-16. Y31.986
X-15.799 Y31.924
X-15.734 Y31.899
X-15.597 Y31.845
X-15.396 Y31.748
X-15.309 Y31.698
X-15.195 Y31.628
X-15.006 Y31.497
X-14.792 Y31.324
X-14.676 Y31.23
X-14.412 Y31.053
X-14.073 Y30.864
X-13.633 Y30.664
X-13.052 Y30.453
X-12.252 Y30.234
X-11.381 Y30.07
X-10.502 Y29.956
X-9.62 Y29.878
X-8.735 Y29.823
X-7.85 Y29.786
X-6.964 Y29.759
X-6.078 Y29.741
X-5.192 Y29.728
X-4.306 Y29.719
X-3.42 Y29.713
X-2.534 Y29.709
X-0.762 Y29.703
X1.897 Y29.7
X8.099 Y29.699
X12.875
X13.165 Y29.729
X13.443 Y29.819
X13.695 Y29.964
X13.913 Y30.159
X14.085 Y30.394
X14.189 Y30.572
G3 X14.071 Y31.293 I-0.529 J0.284
G1 X14.002 Y31.358 Z-11.993
X13.935 Y31.42 Z-11.971
X13.872 Y31.48 Z-11.935
X13.813 Y31.535 Z-11.885
X13.761 Y31.584 Z-11.824
X13.717 Y31.626 Z-11.753
X13.681 Y31.659 Z-11.672
X13.655 Y31.684 Z-11.585
X13.639 Y31.699 Z-11.494
X13.633 Y31.704 Z-11.4
G0 Z5.
X-15.317 Y32.595
Z-10.8
G1 Z-11.4 F1440.
X-15.315 Y32.588 Z-11.494
X-15.31 Y32.566 Z-11.585
X-15.301 Y32.531 Z-11.672
X-15.289 Y32.484 Z-11.753
X-15.273 Y32.424 Z-11.824
X-15.256 Y32.355 Z-11.885
X-15.236 Y32.277 Z-11.935
X-15.215 Y32.193 Z-11.971
X-15.192 Y32.104 Z-11.993
X-15.169 Y32.013 Z-12.
G3 X-14.792 Y31.324 I1.534 J0.39
G1 X-14.562 Y31.094
X-14.39 Y30.879
X-14.259 Y30.692
X-13.987 Y30.227
X-13.907 Y30.088
X-13.801 Y29.924
X-13.663 Y29.744
X-13.485 Y29.547
X-13.275 Y29.348
X-13.001 Y29.129
X-12.673 Y28.906
X-12.252 Y28.668
X-11.736 Y28.428
X-11.063 Y28.179
X-10.21 Y27.94
X-9.341 Y27.765
X-8.464 Y27.638
X-7.583 Y27.545
X-6.699 Y27.478
X-5.815 Y27.428
X-5.735 Y27.425
X-5.61 Y27.426
X-5.485 Y27.438
X-5.362 Y27.461
G3 X-5.299 Y28.611 I-0.136 J0.584
G1 X-13.294 Y31.41
G3 X-14.092 Y30.851 I-0.198 J-0.566
X-13.907 Y30.088 I1.582 J-0.02
G1 X-12.745 Y28.075
X-12.579 Y27.818
X-12.413 Y27.601
X-12.222 Y27.39
X-11.973 Y27.155
X-11.671 Y26.913
X-11.297 Y26.659
X-10.837 Y26.399
X-10.648 Y26.311
X-10.389 Y26.221
X-10.118 Y26.182
X-9.844 Y26.197
X-9.579 Y26.265
G3 X-9.482 Y27.328 I-0.225 J0.556
G1 X-11.893 Y28.863
G3 X-12.745 Y28.075 I-0.322 J-0.506
G1 X-11.583 Y26.063
X-11.572 Y26.046
X-11.5 Y25.954
X-11.445 Y25.902
X-11.39 Y25.861
X-11.371 Y25.85
X-11.321 Y25.823
X-11.27 Y25.801
X-11.17 Y25.774
X-11.069 Y25.764
X-10.968 Y25.772
X-10.868 Y25.797
X-8.352 Y26.712
X-8.151 Y26.781
X-7.547 Y26.943
X-5.535 Y27.42
X-4.931 Y27.561
X-4.528 Y27.615
X-4.327 Y27.642
X-3.522 Y27.736
X-2.113 Y27.901
X-1.711 Y27.944
X-1.509 Y27.952
X-1.107 Y27.957
X-0.906 Y27.958
X0.906
X1.308 Y27.955
X1.509 Y27.952
X1.711 Y27.944
X2.113 Y27.901
X4.126 Y27.666
X4.327 Y27.642
X5.21 Y27.569
X6.092 Y27.487
X6.977 Y27.43
X7.862 Y27.39
X8.748 Y27.362
X9.634 Y27.343
X10.52 Y27.33
X11.406 Y27.334
X11.628 Y27.352
X11.894 Y27.399
X12.147 Y27.497
X12.375 Y27.641
X12.572 Y27.827
X12.729 Y28.047
G3 X12.608 Y28.768 I-0.53 J0.282
G1 X12.54 Y28.832 Z-11.993
X12.473 Y28.894 Z-11.971
X12.409 Y28.953 Z-11.935
X12.35 Y29.008 Z-11.885
X12.298 Y29.057 Z-11.824
X12.253 Y29.099 Z-11.753
X12.217 Y29.132 Z-11.672
X12.191 Y29.157 Z-11.585
X12.175 Y29.172 Z-11.494
X12.17 Y29.177 Z-11.4
G0 Z5.
X3.138 Y28.332
Z-10.8
G1 Z-11.4 F1440.
X3.144 Y28.327 Z-11.494
X3.161 Y28.313 Z-11.585
X3.189 Y28.291 Z-11.672
X3.228 Y28.261 Z-11.753
X3.276 Y28.223 Z-11.824
X3.332 Y28.178 Z-11.885
X3.395 Y28.129 Z-11.935
X3.463 Y28.075 Z-11.971
X3.535 Y28.018 Z-11.993
X3.609 Y27.96 Z-12.
G3 X4.327 Y27.642 I0.98 J1.242
G1 X4.73 Y27.588
X4.931 Y27.561
X5.535 Y27.42
X7.547 Y26.943
X8.151 Y26.781
X8.352 Y26.712
X10.136 Y26.063
X10.534 Y25.94
X10.787 Y25.911
X11.041 Y25.936
X11.284 Y26.014
X11.505 Y26.14
X11.695 Y26.31
X11.845 Y26.517
G3 X11.205 Y27.388 I-0.53 J0.282
G1 X10.25 Y27.209
G3 X10.136 Y26.063 I0.111 J-0.59
G1 X10.868 Y25.797
X10.968 Y25.772
X11.069 Y25.764
X11.17 Y25.774
X11.27 Y25.801
X11.321 Y25.823
X11.371 Y25.85
X11.39 Y25.861
X11.445 Y25.902
X11.5 Y25.954
X11.572 Y26.046
X11.583 Y26.063
X14.024 Y30.289
X14.085 Y30.394
X14.088 Y30.402
G2 X14.521 Y31.176 I2.41 J-0.839
G1 X14.565 Y31.224
X14.614 Y31.268
X14.668 Y31.306
X15.736 Y31.973
X15.794 Y32.004
X15.854 Y32.029
X15.917 Y32.048
G2 X16.802 Y32.097 I0.581 J-2.485
G1 X16.805 Y32.096
X17.006 Y32.089
X17.207 Y32.067
X17.409 Y32.032
X17.61 Y31.987
X17.811 Y31.916
X18.012 Y31.832
X18.214 Y31.738
X18.616 Y31.49
X18.817 Y31.365
X19.22 Y31.104
X19.56 Y30.907
X19.974 Y30.709
X20.519 Y30.5
X21.261 Y30.283
X22.129 Y30.103
X23.006 Y29.979
X23.888 Y29.894
X24.772 Y29.835
X25.658 Y29.793
X26.543 Y29.765
X26.959 Y29.613
X27.703 Y29.13
X28.264 Y28.444
X28.675 Y27.66
X28.973 Y26.825
X29.187 Y25.965
X29.338 Y25.092
X29.446 Y24.212
X29.521 Y23.329
X29.574 Y22.445
X29.597 Y21.897
X29.63 Y21.649
X29.706 Y21.411
X29.823 Y21.191
X30.893 Y19.545
X31.365 Y18.817
X31.614 Y18.415
X31.619 Y18.408
G2 X31.822 Y18.145 I-1.403 J-1.29
G1 X31.862 Y18.072
X31.891 Y17.993
X31.971 Y17.728
X32.016 Y17.575
X32.097 Y17.306
X32.115 Y17.224
X32.122 Y17.141
G2 X32.097 Y16.81 I-1.906 J-0.023
G1 X32.096 Y16.805
X32.088 Y16.604
X32.069 Y16.402
X32.037 Y16.201
X31.986 Y16.
X31.924 Y15.799
X31.899 Y15.734
X31.845 Y15.597
X31.748 Y15.396
X31.698 Y15.309
X31.628 Y15.195
X31.497 Y15.006
X31.324 Y14.792
X31.23 Y14.676
X31.053 Y14.412
X30.864 Y14.073
X30.664 Y13.633
X30.453 Y13.052
X30.234 Y12.252
X30.07 Y11.381
X29.956 Y10.502
X29.878 Y9.62
X29.823 Y8.735
X29.786 Y7.85
X29.759 Y6.964
X29.741 Y6.078
X29.728 Y5.192
X29.719 Y4.306
X29.713 Y3.42
X29.709 Y2.534
X29.703 Y0.762
X29.7 Y-1.897
X29.699 Y-8.099
Y-12.875
X29.729 Y-13.165
X29.819 Y-13.443
X29.964 Y-13.695
X30.159 Y-13.913
X30.394 Y-14.085
X30.572 Y-14.189
G3 X31.293 Y-14.071 I0.284 J0.529
G1 X31.358 Y-14.002 Z-11.993
X31.42 Y-13.935 Z-11.971
X31.48 Y-13.872 Z-11.935
X31.535 Y-13.813 Z-11.885
X31.584 Y-13.761 Z-11.824
X31.626 Y-13.717 Z-11.753
X31.659 Y-13.681 Z-11.672
X31.684 Y-13.655 Z-11.585
X31.699 Y-13.639 Z-11.494
X31.704 Y-13.633 Z-11.4
G0 Z5.
X32.595 Y15.317
Z-10.8
G1 Z-11.4 F1440.
X32.588 Y15.315 Z-11.494
X32.566 Y15.31 Z-11.585
X32.531 Y15.301 Z-11.672
X32.484 Y15.289 Z-11.753
X32.424 Y15.273 Z-11.824
X32.355 Y15.256 Z-11.885
X32.277 Y15.236 Z-11.935
X32.193 Y15.215 Z-11.971
X32.104 Y15.192 Z-11.993
X32.013 Y15.169 Z-12.
G3 X31.324 Y14.792 I0.39 J-1.534
G1 X31.094 Y14.562
X30.879 Y14.39
X30.692 Y14.259
X30.227 Y13.987
X30.088 Y13.907
X29.924 Y13.801
X29.744 Y13.663
X29.547 Y13.485
X29.348 Y13.275
X29.129 Y13.001
X28.906 Y12.673
X28.668 Y12.252
X28.428 Y11.736
X28.179 Y11.063
X27.94 Y10.21
X27.765 Y9.341
X27.638 Y8.464
X27.545 Y7.583
X27.478 Y6.699
X27.428 Y5.815
X27.425 Y5.735
X27.426 Y5.61
X27.438 Y5.485
X27.461 Y5.362
G3 X28.611 Y5.299 I0.584 J0.136
G1 X31.41 Y13.294
G3 X30.851 Y14.092 I-0.566 J0.198
X30.088 Y13.907 I-0.02 J-1.582
G1 X28.075 Y12.745
X27.818 Y12.579
X27.601 Y12.413
X27.39 Y12.222
X27.155 Y11.973
X26.913 Y11.671
X26.659 Y11.297
X26.399 Y10.837
X26.311 Y10.648
X26.221 Y10.389
X26.182 Y10.118
X26.197 Y9.844
X26.265 Y9.579
G3 X27.328 Y9.482 I0.556 J0.225
G1 X28.863 Y11.893
G3 X28.075 Y12.745 I-0.506 J0.322
G1 X26.063 Y11.583
X26.046 Y11.572
X25.954 Y11.5
X25.902 Y11.445
X25.861 Y11.39
X25.85 Y11.371
X25.823 Y11.321
X25.801 Y11.27
X25.774 Y11.17
X25.764 Y11.069
X25.772 Y10.968
X25.797 Y10.868
X26.712 Y8.352
X26.781 Y8.151
X26.943 Y7.547
X27.42 Y5.535
X27.561 Y4.931
X27.615 Y4.528
X27.642 Y4.327
X27.736 Y3.522
X27.901 Y2.113
X27.944 Y1.711
X27.952 Y1.509
X27.957 Y1.107
X27.958 Y0.906
Y-0.906
X27.955 Y-1.308
X27.952 Y-1.509
X27.944 Y-1.711
X27.901 Y-2.113
X27.666 Y-4.126
X27.642 Y-4.327
X27.569 Y-5.21
X27.487 Y-6.092
X27.43 Y-6.977
X27.39 Y-7.862
X27.362 Y-8.748
X27.343 Y-9.634
X27.33 Y-10.52
X27.334 Y-11.406
X27.352 Y-11.628
X27.399 Y-11.894
X27.497 Y-12.147
X27.641 Y-12.375
X27.827 Y-12.572
X28.047 Y-12.729
G3 X28.768 Y-12.608 I0.282 J0.53
G1 X28.832 Y-12.54 Z-11.993
X28.894 Y-12.473 Z-11.971
X28.953 Y-12.409 Z-11.935
X29.008 Y-12.35 Z-11.885
X29.057 Y-12.298 Z-11.824
X29.099 Y-12.253 Z-11.753
X29.132 Y-12.217 Z-11.672
X29.157 Y-12.191 Z-11.585
X29.172 Y-12.175 Z-11.494
X29.177 Y-12.17 Z-11.4
G0 Z5.
X28.332 Y-3.138
Z-10.8
G1 Z-11.4 F1440.
X28.327 Y-3.144 Z-11.494
X28.313 Y-3.161 Z-11.585
X28.291 Y-3.189 Z-11.672
X28.261 Y-3.228 Z-11.753
X28.223 Y-3.276 Z-11.824
X28.178 Y-3.332 Z-11.885
X28.129 Y-3.395 Z-11.935
X28.075 Y-3.463 Z-11.971
X28.018 Y-3.535 Z-11.993
X27.96 Y-3.609 Z-12.
G3 X27.642 Y-4.327 I1.242 J-0.98
G1 X27.588 Y-4.73
X27.561 Y-4.931
X27.42 Y-5.535
X26.943 Y-7.547
X26.781 Y-8.151
X26.712 Y-8.352
X26.063 Y-10.136
X25.94 Y-10.534
X25.911 Y-10.787
X25.936 Y-11.041
X26.014 Y-11.284
X26.14 Y-11.505
X26.31 Y-11.695
X26.517 Y-11.845
G3 X27.388 Y-11.205 I0.282 J0.53
G1 X27.209 Y-10.25
G3 X26.063 Y-10.136 I-0.59 J-0.111
G1 X25.797 Y-10.868
X25.772 Y-10.968
X25.764 Y-11.069
X25.774 Y-11.17
X25.801 Y-11.27
X25.823 Y-11.321
X25.85 Y-11.371
X25.861 Y-11.39
X25.902 Y-11.445
X25.954 Y-11.5
X26.046 Y-11.572
X26.063 Y-11.583
X30.289 Y-14.024
X30.394 Y-14.085
X30.402 Y-14.088
G2 X31.176 Y-14.521 I-0.839 J-2.41
G1 X31.224 Y-14.565
X31.268 Y-14.614
X31.306 Y-14.668
X31.973 Y-15.736
X32.004 Y-15.794
X32.029 Y-15.854
X32.048 Y-15.917
G2 X32.097 Y-16.802 I-2.485 J-0.581
G1 X32.096 Y-16.805
X32.089 Y-17.006
X32.067 Y-17.207
X32.032 Y-17.409
X31.987 Y-17.61
X31.916 Y-17.811
X31.832 Y-18.012
X31.738 Y-18.214
X31.49 Y-18.616
X31.365 Y-18.817
X31.104 Y-19.22
X30.907 Y-19.56
X30.709 Y-19.974
X30.5 Y-20.519
X30.283 Y-21.261
X30.103 Y-22.129
X29.979 Y-23.006
X29.894 Y-23.888
X29.835 Y-24.772
X29.793 Y-25.658
X29.765 Y-26.543
X29.613 Y-26.959
X29.13 Y-27.703
X28.444 Y-28.264
X27.66 Y-28.675
X26.825 Y-28.973
X25.965 Y-29.187
X25.092 Y-29.338
X24.212 Y-29.446
X23.329 Y-29.521
X22.445 Y-29.574
X21.897 Y-29.597
X21.649 Y-29.63
X21.411 Y-29.706
X21.191 Y-29.823
X19.545 Y-30.893
X18.817 Y-31.365
X18.415 Y-31.614
X18.408 Y-31.619
G2 X18.145 Y-31.822 I-1.29 J1.403
G1 X18.072 Y-31.862
X17.993 Y-31.891
X17.728 Y-31.971
X17.575 Y-32.016
X17.306 Y-32.097
X17.224 Y-32.115
X17.141 Y-32.122
G2 X16.81 Y-32.097 I-0.023 J1.906
G1 X16.805 Y-32.096
X16.604 Y-32.088
X16.402 Y-32.069
X16.201 Y-32.037
X16. Y-31.986
X15.799 Y-31.924
X15.734 Y-31.899
X15.597 Y-31.845
X15.396 Y-31.748
X15.309 Y-31.698
X15.195 Y-31.628
X15.006 Y-31.497
X14.792 Y-31.324
X14.676 Y-31.23
X14.412 Y-31.053
X14.073 Y-30.864
X13.633 Y-30.664
X13.052 Y-30.453
X12.252 Y-30.234
X11.381 Y-30.07
X10.502 Y-29.956
X9.62 Y-29.878
X8.735 Y-29.823
X7.85 Y-29.786
X6.964 Y-29.759
X6.078 Y-29.741
X5.192 Y-29.728
X4.306 Y-29.719
X3.42 Y-29.713
X2.534 Y-29.709
X0.762 Y-29.703
X-1.897 Y-29.7
X-8.099 Y-29.699
X-12.875
X-13.165 Y-29.729
X-13.443 Y-29.819
X-13.695 Y-29.964
X-13.913 Y-30.159
X-14.085 Y-30.394
X-14.189 Y-30.572
G3 X-14.071 Y-31.293 I0.529 J-0.284
G1 X-14.002 Y-31.358 Z-11.993
X-13.935 Y-31.42 Z-11.971
X-13.872 Y-31.48 Z-11.935
X-13.813 Y-31.535 Z-11.885
X-13.761 Y-31.584 Z-11.824
X-13.717 Y-31.626 Z-11.753
X-13.681 Y-31.659 Z-11.672
X-13.655 Y-31.684 Z-11.585
X-13.639 Y-31.699 Z-11.494
X-13.633 Y-31.704 Z-11.4
G0 Z5.
X15.317 Y-32.595
Z-10.8
G1 Z-11.4 F1440.
X15.315 Y-32.588 Z-11.494
X15.31 Y-32.566 Z-11.585
X15.301 Y-32.531 Z-11.672
X15.289 Y-32.484 Z-11.753
X15.273 Y-32.424 Z-11.824
X15.256 Y-32.355 Z-11.885
X15.236 Y-32.277 Z-11.935
X15.215 Y-32.193 Z-11.971
X15.192 Y-32.104 Z-11.993
X15.169 Y-32.013 Z-12.
G3 X14.792 Y-31.324 I-1.534 J-0.39
G1 X14.562 Y-31.094
X14.39 Y-30.879
X14.259 Y-30.692
X13.987 Y-30.227
X13.907 Y-30.088
X13.801 Y-29.924
X13.663 Y-29.744
X13.485 Y-29.547
X13.275 Y-29.348
X13.001 Y-29.129
X12.673 Y-28.906
X12.252 Y-28.668
X11.736 Y-28.428
X11.063 Y-28.179
X10.21 Y-27.94
X9.341 Y-27.765
X8.464 Y-27.638
X7.583 Y-27.545
X6.699 Y-27.478
X5.815 Y-27.428
X5.735 Y-27.425
X5.61 Y-27.426
X5.485 Y-27.438
X5.362 Y-27.461
G3 X5.299 Y-28.611 I0.136 J-0.584
G1 X13.294 Y-31.41
G3 X14.092 Y-30.851 I0.198 J0.566
X13.907 Y-30.088 I-1.582 J0.02
G1 X12.745 Y-28.075
X12.579 Y-27.818
X12.413 Y-27.601
X12.222 Y-27.39
X11.973 Y-27.155
X11.671 Y-26.913
X11.297 Y-26.659
X10.837 Y-26.399
X10.648 Y-26.311
X10.389 Y-26.221
X10.118 Y-26.182
X9.844 Y-26.197
X9.579 Y-26.265
G3 X9.482 Y-27.328 I0.225 J-0.556
G1 X11.893 Y-28.863
G3 X12.745 Y-28.075 I0.322 J0.506
G1 X11.583 Y-26.063
X11.572 Y-26.046
X11.5 Y-25.954
X11.445 Y-25.902
X11.39 Y-25.861
X11.371 Y-25.85
X11.321 Y-25.823
X11.27 Y-25.801
X11.17 Y-25.774
X11.069 Y-25.764
X10.968 Y-25.772
X10.868 Y-25.797
X8.352 Y-26.712
X8.151 Y-26.781
X7.547 Y-26.943
X5.535 Y-27.42
X4.931 Y-27.561
X4.528 Y-27.615
X4.327 Y-27.642
X3.522 Y-27.736
X2.113 Y-27.901
X1.711 Y-27.944
X1.509 Y-27.952
X1.107 Y-27.957
X0.906 Y-27.958
X-0.906
X-1.308 Y-27.955
X-1.509 Y-27.952
X-1.711 Y-27.944
X-2.113 Y-27.901
X-4.126 Y-27.666
X-4.327 Y-27.642
X-5.21 Y-27.569
X-6.092 Y-27.487
X-6.977 Y-27.43
X-7.862 Y-27.39
X-8.748 Y-27.362
X-9.634 Y-27.343
X-10.52 Y-27.33
X-11.406 Y-27.334
X-11.628 Y-27.352
X-11.894 Y-27.399
X-12.147 Y-27.497
X-12.375 Y-27.641
X-12.572 Y-27.827
X-12.729 Y-28.047
G3 X-12.608 Y-28.768 I0.53 J-0.282
G1 X-12.54 Y-28.832 Z-11.993
X-12.473 Y-28.894 Z-11.971
X-12.409 Y-28.953 Z-11.935
X-12.35 Y-29.008 Z-11.885
X-12.298 Y-29.057 Z-11.824
X-12.253 Y-29.099 Z-11.753
X-12.217 Y-29.132 Z-11.672
X-12.191 Y-29.157 Z-11.585
X-12.175 Y-29.172 Z-11.494
X-12.17 Y-29.177 Z-11.4
G0 Z5.
X-3.138 Y-28.332
Z-10.8
G1 Z-11.4 F1440.
X-3.144 Y-28.327 Z-11.494
X-3.161 Y-28.313 Z-11.585
X-3.189 Y-28.291 Z-11.672
X-3.228 Y-28.261 Z-11.753
X-3.276 Y-28.223 Z-11.824
X-3.332 Y-28.178 Z-11.885
X-3.395 Y-28.129 Z-11.935
X-3.463 Y-28.075 Z-11.971
X-3.535 Y-28.018 Z-11.993
X-3.609 Y-27.96 Z-12.
G3 X-4.327 Y-27.642 I-0.98 J-1.242
G1 X-4.73 Y-27.588
X-4.931 Y-27.561
X-5.535 Y-27.42
X-7.547 Y-26.943
X-8.151 Y-26.781
X-8.352 Y-26.712
X-10.136 Y-26.063
X-10.534 Y-25.94
X-10.787 Y-25.911
X-11.041 Y-25.936
X-11.284 Y-26.014
X-11.505 Y-26.14
X-11.695 Y-26.31
X-11.845 Y-26.517
G3 X-11.205 Y-27.388 I0.53 J-0.282
G1 X-10.25 Y-27.209
G3 X-10.136 Y-26.063 I-0.111 J0.59
G1 X-10.868 Y-25.797
X-10.968 Y-25.772
X-11.069 Y-25.764
X-11.17 Y-25.774
X-11.27 Y-25.801
X-11.321 Y-25.823
X-11.371 Y-25.85
X-11.39 Y-25.861
X-11.445 Y-25.902
X-11.5 Y-25.954
X-11.572 Y-26.046
X-11.583 Y-26.063
X-14.024 Y-30.289
X-14.085 Y-30.394
X-14.088 Y-30.402
G2 X-14.521 Y-31.176 I-2.41 J0.839
G1 X-14.565 Y-31.224
X-14.614 Y-31.268
X-14.668 Y-31.306
X-15.736 Y-31.973
X-15.794 Y-32.004
X-15.854 Y-32.029
X-15.917 Y-32.048
G2 X-16.802 Y-32.097 I-0.581 J2.485
G1 X-16.805 Y-32.096
X-17.006 Y-32.089
X-17.207 Y-32.067
X-17.409 Y-32.032
X-17.61 Y-31.987
X-17.811 Y-31.916
X-18.012 Y-31.832
X-18.214 Y-31.738
X-18.616 Y-31.49
X-18.817 Y-31.365
X-19.22 Y-31.104
X-19.56 Y-30.907
X-19.974 Y-30.709
X-20.519 Y-30.5
X-21.261 Y-30.283
X-22.129 Y-30.103
X-23.006 Y-29.979
X-23.888 Y-29.894
X-24.33 Y-29.864
X-24.551 Y-29.842
X-24.765 Y-29.785
X-25.17 Y-29.606
X-25.828 Y-29.012
X-26.296 Y-28.26
X-26.622 Y-27.436
X-26.846 Y-26.578
X-26.998 Y-25.705
X-27.079 Y-25.01
X-27.137 Y-24.738
X-27.244 Y-24.482
X-27.398 Y-24.251
X-29.353 Y-21.836
X-29.51 Y-21.635
X-29.665 Y-21.434
X-29.955 Y-20.989
G3 X-30.652 Y-20.77 I-0.491 J-0.345
G1 X-30.74 Y-20.803 Z-11.993
X-30.826 Y-20.834 Z-11.971
X-30.908 Y-20.864 Z-11.935
X-30.983 Y-20.891 Z-11.885
X-31.05 Y-20.916 Z-11.824
X-31.108 Y-20.937 Z-11.753
X-31.154 Y-20.954 Z-11.672
X-31.188 Y-20.966 Z-11.585
X-31.208 Y-20.974 Z-11.494
X-31.215 Y-20.976 Z-11.4
G0 Z5.
X-18.443 Y-32.238
Z-10.8
G1 Z-11.4 F1440.
X-18.446 Y-32.232 Z-11.494
X-18.456 Y-32.212 Z-11.585
X-18.472 Y-32.179 Z-11.672
X-18.494 Y-32.135 Z-11.753
X-18.521 Y-32.081 Z-11.824
X-18.552 Y-32.016 Z-11.885
X-18.588 Y-31.944 Z-11.935
X-18.626 Y-31.866 Z-11.971
X-18.667 Y-31.784 Z-11.993
X-18.709 Y-31.7 Z-12.
G3 X-19.22 Y-31.104 I-1.419 J-0.7
G1 X-21.094 Y-29.887
X-21.434 Y-29.665
X-21.668 Y-29.484
X-21.836 Y-29.353
X-24.251 Y-27.398
X-24.395 Y-27.27
X-24.654 Y-27.035
X-24.827 Y-26.868
X-26.868 Y-24.827
X-27.035 Y-24.654
X-27.27 Y-24.395
X-27.398 Y-24.251
G3 X-28.119 Y-24.137 I-0.435 J-0.413
G1 X-28.202 Y-24.182 Z-11.993
X-28.282 Y-24.226 Z-11.971
X-28.359 Y-24.267 Z-11.935
X-28.429 Y-24.306 Z-11.885
X-28.492 Y-24.34 Z-11.824
X-28.546 Y-24.369 Z-11.753
X-28.589 Y-24.393 Z-11.672
X-28.621 Y-24.41 Z-11.585
X-28.64 Y-24.42 Z-11.494
X-28.647 Y-24.424 Z-11.4
G0 Z5.
X-32.238 Y18.443
Z-10.8
G1 Z-11.4 F1440.
X-32.232 Y18.446 Z-11.494
X-32.212 Y18.456 Z-11.585
X-32.179 Y18.472 Z-11.672
X-32.135 Y18.494 Z-11.753
X-32.081 Y18.521 Z-11.824
X-32.016 Y18.552 Z-11.885
X-31.944 Y18.588 Z-11.935
X-31.866 Y18.626 Z-11.971
X-31.784 Y18.667 Z-11.993
X-31.7 Y18.709 Z-12.
G3 X-31.104 Y19.22 I-0.7 J1.419
G1 X-29.887 Y21.094
X-29.665 Y21.434
X-29.484 Y21.668
X-29.353 Y21.836
X-29.191 Y22.038
X-28.886 Y22.455
X-28.68 Y22.79
X-28.462 Y23.221
X-28.125 Y24.04
X-27.616 Y24.765
X-26.961 Y25.362
X-26.213 Y25.837
X-25.789 Y26.031
X-25.642 Y26.109
X-25.506 Y26.204
X-25.381 Y26.314
G3 X-25.416 Y27.167 I-0.439 J0.409
X-26.268 Y27.122 I-0.404 J-0.443
G1 X-30.091 Y22.83
G3 X-30.04 Y21.981 I0.448 J-0.399
X-29.191 Y22.038 I0.396 J0.45
G1 X-27.398 Y24.251
X-27.27 Y24.395
X-27.035 Y24.654
X-26.868 Y24.827
X-24.827 Y26.868
X-24.654 Y27.035
X-24.395 Y27.27
X-24.251 Y27.398
X-21.836 Y29.353
X-21.497 Y29.616
X-21.434 Y29.665
X-21.191 Y29.823
G3 X-20.972 Y30.521 I-0.345 J0.491
G1 X-21.005 Y30.609 Z-11.993
X-21.036 Y30.695 Z-11.971
X-21.066 Y30.776 Z-11.935
X-21.094 Y30.852 Z-11.885
X-21.118 Y30.919 Z-11.824
X-21.139 Y30.976 Z-11.753
X-21.156 Y31.023 Z-11.672
X-21.169 Y31.056 Z-11.585
X-21.176 Y31.077 Z-11.494
X-21.179 Y31.084 Z-11.4
G0 Z5.
X18.443 Y32.238
Z-10.8
G1 Z-11.4 F1440.
X18.446 Y32.232 Z-11.494
X18.456 Y32.212 Z-11.585
X18.472 Y32.179 Z-11.672
X18.494 Y32.135 Z-11.753
X18.521 Y32.081 Z-11.824
X18.552 Y32.016 Z-11.885
X18.588 Y31.944 Z-11.935
X18.626 Y31.866 Z-11.971
X18.667 Y31.784 Z-11.993
X18.709 Y31.7 Z-12.
G3 X19.22 Y31.104 I1.419 J0.7
G1 X21.094 Y29.887
X21.434 Y29.665
X21.668 Y29.484
X21.836 Y29.353
X22.038 Y29.191
X22.455 Y28.886
X22.79 Y28.68
X23.221 Y28.462
X24.04 Y28.125
X24.765 Y27.616
X25.362 Y26.961
X25.837 Y26.213
X26.031 Y25.789
X26.109 Y25.642
X26.204 Y25.506
X26.314 Y25.381
G3 X27.167 Y25.416 I0.409 J0.439
X27.122 Y26.268 I-0.443 J0.404
G1 X22.83 Y30.091
G3 X21.981 Y30.04 I-0.399 J-0.448
X22.038 Y29.191 I0.45 J-0.396
G1 X24.251 Y27.398
X24.395 Y27.27
X24.654 Y27.035
X24.827 Y26.868
X26.868 Y24.827
X27.035 Y24.654
X27.27 Y24.395
X27.398 Y24.251
X29.353 Y21.836
X29.616 Y21.497
X29.665 Y21.434
X29.823 Y21.191
G3 X30.521 Y20.972 I0.491 J0.345
G1 X30.609 Y21.005 Z-11.993
X30.695 Y21.036 Z-11.971
X30.776 Y21.066 Z-11.935
X30.852 Y21.094 Z-11.885
X30.919 Y21.118 Z-11.824
X30.976 Y21.139 Z-11.753
X31.023 Y21.156 Z-11.672
X31.056 Y21.169 Z-11.585
X31.077 Y21.176 Z-11.494
X31.084 Y21.179 Z-11.4
G0 Z5.
X32.238 Y-18.443
Z-10.8
G1 Z-11.4 F1440.
X32.232 Y-18.446 Z-11.494
X32.212 Y-18.456 Z-11.585
X32.179 Y-18.472 Z-11.672
X32.135 Y-18.494 Z-11.753
X32.081 Y-18.521 Z-11.824
X32.016 Y-18.552 Z-11.885
X31.944 Y-18.588 Z-11.935
X31.866 Y-18.626 Z-11.971
X31.784 Y-18.667 Z-11.993
X31.7 Y-18.709 Z-12.
G3 X31.104 Y-19.22 I0.7 J-1.419
G1 X29.887 Y-21.094
X29.665 Y-21.434
X29.484 Y-21.668
X29.353 Y-21.836
X29.191 Y-22.038
X28.886 Y-22.455
X28.68 Y-22.79
X28.462 Y-23.221
X28.125 Y-24.04
X27.616 Y-24.765
X26.961 Y-25.362
X26.213 Y-25.837
X25.789 Y-26.031
X25.642 Y-26.109
X25.506 Y-26.204
X25.381 Y-26.314
G3 X25.416 Y-27.167 I0.439 J-0.409
X26.268 Y-27.122 I0.404 J0.443
G1 X30.091 Y-22.83
G3 X30.04 Y-21.981 I-0.448 J0.399
X29.191 Y-22.038 I-0.396 J-0.45
G1 X27.398 Y-24.251
X27.27 Y-24.395
X27.035 Y-24.654
X26.868 Y-24.827
X24.827 Y-26.868
X24.654 Y-27.035
X24.395 Y-27.27
X24.251 Y-27.398
X21.836 Y-29.353
X21.497 Y-29.616
X21.434 Y-29.665
X21.191 Y-29.823
X21.119 Y-29.882
X21.058 Y-29.952
X21.025 Y-30.018 Z-11.995
X20.992 Y-30.082 Z-11.982
X20.96 Y-30.145 Z-11.959
X20.951 Y-30.205 Z-11.931
X20.943 Y-30.262 Z-11.897
X20.936 Y-30.314 Z-11.856
X20.946 Y-30.375 Z-11.796
X20.956 Y-30.426 Z-11.727
X20.963 Y-30.467 Z-11.651
X20.968 Y-30.496 Z-11.571
X20.971 Y-30.515 Z-11.487
X20.972 Y-30.521 Z-11.401
G0 Z5.
X0. Y0.
Z-7.5
G1 Z-12. F330.
X-0.037 Y-0.009 F1440.
X-0.021 Y-0.043
X0.016 Y-0.052
X0.048 Y-0.033
X0.063 Y0.001
X0.054 Y0.038
X0.03 Y0.067
X-0.003 Y0.085
X-0.04 Y0.09
X-0.076 Y0.08
X-0.106 Y0.058
X-0.129 Y0.028
X-0.142 Y-0.007
X-0.147 Y-0.082
X-0.117 Y-0.15
X-0.061 Y-0.2
X0.01 Y-0.225
X0.085 Y-0.224
X0.156 Y-0.199
X0.215 Y-0.154
X0.304 Y-0.033
X0.32 Y0.116
X0.271 Y0.258
X0.17 Y0.369
X0.035 Y0.435
X-0.114 Y0.451
X-0.261 Y0.419
X-0.392 Y0.346
X-0.496 Y0.238
X-0.569 Y0.107
X-0.605 Y-0.039
X-0.603 Y-0.189
X-0.567 Y-0.335
X-0.498 Y-0.468
X-0.401 Y-0.582
X-0.282 Y-0.673
X-0.146 Y-0.738
X0. Y-0.773
X0.149 Y-0.781
X0.298 Y-0.762
X0.441 Y-0.716
X0.573 Y-0.646
X0.692 Y-0.554
X0.793 Y-0.443
X0.876 Y-0.318
X0.937 Y-0.181
X0.976 Y-0.036
X0.993 Y0.113
X0.986 Y0.263
X0.959 Y0.41
X0.91 Y0.552
X0.842 Y0.686
X0.756 Y0.809
X0.654 Y0.919
X0.539 Y1.015
X0.412 Y1.095
X0.276 Y1.158
X0.133 Y1.204
X-0.014 Y1.231
X-0.164 Y1.241
X-0.314 Y1.232
X-0.461 Y1.206
X-0.605 Y1.164
X-0.743 Y1.105
X-0.874 Y1.031
X-0.995 Y0.943
X-1.106 Y0.842
X-1.205 Y0.729
X-1.293 Y0.607
X-1.366 Y0.477
X-1.426 Y0.339
X-1.472 Y0.196
X-1.502 Y0.049
X-1.518 Y-0.1
X-1.519 Y-0.25
X-1.505 Y-0.399
X-1.477 Y-0.546
X-1.434 Y-0.69
X-1.379 Y-0.83
X-1.31 Y-0.963
X-1.229 Y-1.089
X-1.138 Y-1.208
X-1.035 Y-1.318
X-0.924 Y-1.418
X-0.804 Y-1.508
X-0.676 Y-1.587
X-0.542 Y-1.655
X-0.403 Y-1.711
X-0.26 Y-1.755
X-0.113 Y-1.786
X0.036 Y-1.805
X0.185 Y-1.812
X0.335 Y-1.807
X0.488 Y-1.788
X0.635 Y-1.759
X0.784 Y-1.716
X0.924 Y-1.663
X1.066 Y-1.595
X1.198 Y-1.519
X1.33 Y-1.428
X1.45 Y-1.331
X1.568 Y-1.218
X1.672 Y-1.101
X1.772 Y-0.968
X1.858 Y-0.833
X1.937 Y-0.685
X2.001 Y-0.534
X2.055 Y-0.374
X2.096 Y-0.21
X2.124 Y-0.043
X2.138 Y0.129
X2.139 Y0.299
X2.125 Y0.476
X2.098 Y0.648
X2.057 Y0.82
X2. Y0.991
X1.932 Y1.155
X1.847 Y1.319
X1.75 Y1.473
X1.641 Y1.62
X1.517 Y1.762
X1.384 Y1.891
X1.239 Y2.011
X1.081 Y2.122
X0.917 Y2.218
X0.742 Y2.302
X0.559 Y2.373
X0.371 Y2.429
X0.179 Y2.47
X-0.021 Y2.496
X-0.222 Y2.505
X-0.422 Y2.499
X-0.627 Y2.476
X-0.83 Y2.436
