(1001)
(T3  D=6. CR=0. - ZMIN=-12. - FLAT END MILL)
G90 G94 G91.1 G40 G49 G17
G21

(DRILL1)
M5
T3 M6
S10000 M3
G54
M8
G0 X-21.651 Y12.5
G43 Z15. H3
Z5.
Z2.
G1 Z-1.5 F230.
G0 Z-1.38
G1 Z-3. F230.
G0 Z-2.88
G1 Z-4.5 F230.
G0 Z-4.38
G1 Z-6. F230.
G0 Z-5.88
G1 Z-7.5 F230.
G0 Z5.
Z-5.5
G1 Z-9. F230.
G0 Z-8.88
G1 Z-10.5 F230.
G0 Z-10.38
G1 Z-12. F230.
G0 Z5.
X-12.5 Y21.651
Z2.
G1 Z-1.5 F230.
G0 Z-1.38
G1 Z-3. F230.
G0 Z-2.88
G1 Z-4.5 F230.
G0 Z-4.38
G1 Z-6. F230.
G0 Z-5.88
G1 Z-7.5 F230.
G0 Z5.
Z-5.5
G1 Z-9. F230.
G0 Z-8.88
G1 Z-10.5 F230.
G0 Z-10.38
G1 Z-12. F230.
G0 Z5.
X12.5
Z2.
G1 Z-1.5 F230.
G0 Z-1.38
G1 Z-3. F230.
G0 Z-2.88
G1 Z-4.5 F230.
G0 Z-4.38
G1 Z-6. F230.
G0 Z-5.88
G1 Z-7.5 F230.
G0 Z5.
Z-5.5
G1 Z-9. F230.
G0 Z-8.88
G1 Z-10.5 F230.
G0 Z-10.38
G1 Z-12. F230.
G0 Z5.
X21.651 Y12.5
Z2.
G1 Z-1.5 F230.
G0 Z-1.38
G1 Z-3. F230.
G0 Z-2.88
G1 Z-4.5 F230.
G0 Z-4.38
G1 Z-6. F230.
G0 Z-5.88
G1 Z-7.5 F230.
G0 Z5.
Z-5.5
G1 Z-9. F230.
G0 Z-8.88
G1 Z-10.5 F230.
G0 Z-10.38
G1 Z-12. F230.
G0 Z5.
Y-12.5
Z2.
G1 Z-1.5 F230.
G0 Z-1.38
G1 Z-3. F230.
G0 Z-2.88
G1 Z-4.5 F230.
G0 Z-4.38
G1 Z-6. F230.
G0 Z-5.88
G1 Z-7.5 F230.
G0 Z5.
Z-5.5
G1 Z-9. F230.
G0 Z-8.88
G1 Z-10.5 F230.
G0 Z-10.38
G1 Z-12. F230.
G0 Z5.
X12.5 Y-21.651
Z2.
G1 Z-1.5 F230.
G0 Z-1.38
G1 Z-3. F230.
G0 Z-2.88
G1 Z-4.5 F230.
G0 Z-4.38
G1 Z-6. F230.
G0 Z-5.88
G1 Z-7.5 F230.
G0 Z5.
Z-5.5
G1 Z-9. F230.
G0 Z-8.88
G1 Z-10.5 F230.
G0 Z-10.38
G1 Z-12. F230.
G0 Z5.
X-12.5
Z2.
G1 Z-1.5 F230.
G0 Z-1.38
G1 Z-3. F230.
G0 Z-2.88
G1 Z-4.5 F230.
G0 Z-4.38
G1 Z-6. F230.
G0 Z-5.88
G1 Z-7.5 F230.
G0 Z5.
Z-5.5
G1 Z-9. F230.
G0 Z-8.88
G1 Z-10.5 F230.
G0 Z-10.38
G1 Z-12. F230.
G0 Z5.
X-21.651 Y-12.5
Z2.
G1 Z-1.5 F230.
G0 Z-1.38
G1 Z-3. F230.
G0 Z-2.88
G1 Z-4.5 F230.
G0 Z-4.38
G1 Z-6. F230.
G0 Z-5.88
G1 Z-7.5 F230.
G0 Z5.
Z-5.5
G1 Z-9. F230.
G0 Z-8.88
G1 Z-10.5 F230.
G0 Z-10.38
G1 Z-12. F230.
G0 Z5.
Z15.

M9
M30
