(1001)
(T1  D=6. CR=3. - ZMIN=-12. - BALL END MILL)
(T3  D=6. CR=0. - ZMIN=-12. - FLAT END MILL)
G90 G94 G91.1 G40 G49 G17
G21

(2D ADAPTIVE3)
M5
T3 M6
S10000 M3
G54
M8
G0 X-34.395 Y-33.548
G43 Z15. H3
Z5.
Z-8.8
G1 Z-9.4 F1440.
X-34.388 Y-33.544 Z-9.494
X-34.369 Y-33.533 Z-9.585
X-34.338 Y-33.514 Z-9.672
X-34.296 Y-33.489 Z-9.753
X-34.243 Y-33.458 Z-9.824
X-34.182 Y-33.422 Z-9.885
X-34.113 Y-33.381 Z-9.935
X-34.038 Y-33.336 Z-9.971
X-33.959 Y-33.29 Z-9.993
X-33.878 Y-33.242 Z-10.
G3 X-31.237 Y-31.264 I-7.805 J13.18
G1 X-31.158 Y-31.185
X-30.976 Y-30.892
X-30.782 Y-30.515
X-30.577 Y-30.023
X-30.363 Y-29.364
X-30.158 Y-28.502
X-30.017 Y-27.627
X-29.92 Y-26.746
X-29.853 Y-25.862
X-29.806 Y-24.977
X-29.773 Y-24.092
X-29.751 Y-23.206
X-29.735 Y-22.32
X-29.728 Y-21.771
X-29.752 Y-21.497
X-29.828 Y-21.233
X-29.955 Y-20.989
X-31.365 Y-18.817
X-31.614 Y-18.415
X-31.619 Y-18.408
G2 X-31.822 Y-18.145 I1.403 J1.29
G1 X-31.862 Y-18.072
X-31.891 Y-17.993
X-31.971 Y-17.728
X-32.016 Y-17.575
X-32.097 Y-17.306
X-32.115 Y-17.224
X-32.122 Y-17.141
G2 X-32.097 Y-16.81 I1.906 J0.023
G1 X-32.096 Y-16.805
X-32.088 Y-16.604
X-32.069 Y-16.402
X-32.037 Y-16.201
X-31.986 Y-16.
X-31.924 Y-15.799
X-31.899 Y-15.734
X-31.845 Y-15.597
X-31.748 Y-15.396
X-31.698 Y-15.309
X-31.628 Y-15.195
X-31.497 Y-15.006
X-31.324 Y-14.792
X-31.23 Y-14.676
X-31.053 Y-14.412
X-30.864 Y-14.073
X-30.664 Y-13.633
X-30.453 Y-13.052
X-30.234 Y-12.252
X-30.07 Y-11.381
X-29.956 Y-10.502
X-29.878 Y-9.62
X-29.823 Y-8.735
X-29.786 Y-7.85
X-29.759 Y-6.964
X-29.741 Y-6.078
X-29.728 Y-5.192
X-29.719 Y-4.306
X-29.713 Y-3.42
X-29.709 Y-2.534
X-29.703 Y-0.762
X-29.7 Y1.897
X-29.699 Y8.099
Y12.875
X-29.729 Y13.165
X-29.819 Y13.443
X-29.964 Y13.695
X-30.159 Y13.913
X-30.394 Y14.085
X-30.572 Y14.189
G3 X-31.293 Y14.071 I-0.284 J-0.529
G1 X-31.358 Y14.002 Z-9.993
X-31.42 Y13.935 Z-9.971
X-31.48 Y13.872 Z-9.935
X-31.535 Y13.813 Z-9.885
X-31.584 Y13.761 Z-9.824
X-31.626 Y13.717 Z-9.753
X-31.659 Y13.681 Z-9.672
X-31.684 Y13.655 Z-9.585
X-31.699 Y13.639 Z-9.494
X-31.704 Y13.633 Z-9.4
G0 Z5.
X-32.595 Y-15.317
Z-8.8
G1 Z-9.4 F1440.
X-32.588 Y-15.315 Z-9.494
X-32.566 Y-15.31 Z-9.585
X-32.531 Y-15.301 Z-9.672
X-32.484 Y-15.289 Z-9.753
X-32.424 Y-15.273 Z-9.824
X-32.355 Y-15.256 Z-9.885
X-32.277 Y-15.236 Z-9.935
X-32.193 Y-15.215 Z-9.971
X-32.104 Y-15.192 Z-9.993
X-32.013 Y-15.169 Z-10.
G3 X-31.324 Y-14.792 I-0.39 J1.534
G1 X-31.094 Y-14.562
X-30.879 Y-14.39
X-30.692 Y-14.259
X-30.227 Y-13.987
X-30.088 Y-13.907
X-29.924 Y-13.801
X-29.744 Y-13.663
X-29.547 Y-13.485
X-29.348 Y-13.275
X-29.129 Y-13.001
X-28.906 Y-12.673
X-28.668 Y-12.252
X-28.428 Y-11.736
X-28.179 Y-11.063
X-27.94 Y-10.21
X-27.765 Y-9.341
X-27.638 Y-8.464
X-27.545 Y-7.583
X-27.478 Y-6.699
X-27.428 Y-5.815
X-27.425 Y-5.735
X-27.426 Y-5.61
X-27.438 Y-5.485
X-27.461 Y-5.362
G3 X-28.611 Y-5.299 I-0.584 J-0.136
G1 X-31.41 Y-13.294
G3 X-30.851 Y-14.092 I0.566 J-0.198
X-30.088 Y-13.907 I0.02 J1.582
G1 X-28.075 Y-12.745
X-27.818 Y-12.579
X-27.601 Y-12.413
X-27.39 Y-12.222
X-27.155 Y-11.973
X-26.913 Y-11.671
X-26.659 Y-11.297
X-26.399 Y-10.837
X-26.311 Y-10.648
X-26.221 Y-10.389
X-26.182 Y-10.118
X-26.197 Y-9.844
X-26.265 Y-9.579
G3 X-27.328 Y-9.482 I-0.556 J-0.225
G1 X-28.863 Y-11.893
G3 X-28.075 Y-12.745 I0.506 J-0.322
G1 X-26.063 Y-11.583
X-26.046 Y-11.572
X-25.954 Y-11.5
X-25.902 Y-11.445
X-25.861 Y-11.39
X-25.85 Y-11.371
X-25.823 Y-11.321
X-25.801 Y-11.27
X-25.774 Y-11.17
X-25.764 Y-11.069
X-25.772 Y-10.968
X-25.797 Y-10.868
X-26.712 Y-8.352
X-26.781 Y-8.151
X-26.943 Y-7.547
X-27.42 Y-5.535
X-27.561 Y-4.931
X-27.615 Y-4.528
X-27.642 Y-4.327
X-27.736 Y-3.522
X-27.901 Y-2.113
X-27.944 Y-1.711
X-27.952 Y-1.509
X-27.957 Y-1.107
X-27.958 Y-0.906
Y0.906
X-27.955 Y1.308
X-27.952 Y1.509
X-27.944 Y1.711
X-27.901 Y2.113
X-27.666 Y4.126
X-27.642 Y4.327
X-27.569 Y5.21
X-27.487 Y6.092
X-27.43 Y6.977
X-27.39 Y7.862
X-27.362 Y8.748
X-27.343 Y9.634
X-27.33 Y10.52
X-27.334 Y11.406
X-27.352 Y11.628
X-27.399 Y11.894
X-27.497 Y12.147
X-27.641 Y12.375
X-27.827 Y12.572
X-28.047 Y12.729
G3 X-28.768 Y12.608 I-0.282 J-0.53
G1 X-28.832 Y12.54 Z-9.993
X-28.894 Y12.473 Z-9.971
X-28.953 Y12.409 Z-9.935
X-29.008 Y12.35 Z-9.885
X-29.057 Y12.298 Z-9.824
X-29.099 Y12.253 Z-9.753
X-29.132 Y12.217 Z-9.672
X-29.157 Y12.191 Z-9.585
X-29.172 Y12.175 Z-9.494
X-29.177 Y12.17 Z-9.4
G0 Z5.
X-28.332 Y3.138
Z-8.8
G1 Z-9.4 F1440.
X-28.327 Y3.144 Z-9.494
X-28.313 Y3.161 Z-9.585
X-28.291 Y3.189 Z-9.672
X-28.261 Y3.228 Z-9.753
X-28.223 Y3.276 Z-9.824
X-28.178 Y3.332 Z-9.885
X-28.129 Y3.395 Z-9.935
X-28.075 Y3.463 Z-9.971
X-28.018 Y3.535 Z-9.993
X-27.96 Y3.609 Z-10.
G3 X-27.642 Y4.327 I-1.242 J0.98
G1 X-27.588 Y4.73
X-27.561 Y4.931
X-27.42 Y5.535
X-26.943 Y7.547
X-26.781 Y8.151
X-26.712 Y8.352
X-26.063 Y10.136
X-25.94 Y10.534
X-25.911 Y10.787
X-25.936 Y11.041
X-26.014 Y11.284
X-26.14 Y11.505
X-26.31 Y11.695
X-26.517 Y11.845
G3 X-27.388 Y11.205 I-0.282 J-0.53
G1 X-27.209 Y10.25
G3 X-26.063 Y10.136 I0.59 J0.111
G1 X-25.797 Y10.868
X-25.772 Y10.968
X-25.764 Y11.069
X-25.774 Y11.17
X-25.801 Y11.27
X-25.823 Y11.321
X-25.85 Y11.371
X-25.861 Y11.39
X-25.902 Y11.445
X-25.954 Y11.5
X-26.046 Y11.572
X-26.063 Y11.583
X-30.289 Y14.024
X-30.394 Y14.085
X-30.402 Y14.088
G2 X-31.176 Y14.521 I0.839 J2.41
G1 X-31.224 Y14.565
X-31.268 Y14.614
X-31.306 Y14.668
X-31.973 Y15.736
X-32.004 Y15.794
X-32.029 Y15.854
X-32.048 Y15.917
G2 X-32.097 Y16.802 I2.485 J0.581
G1 X-32.096 Y16.805
X-32.089 Y17.006
X-32.067 Y17.207
X-32.032 Y17.409
X-31.987 Y17.61
X-31.916 Y17.811
X-31.832 Y18.012
X-31.738 Y18.214
X-31.49 Y18.616
X-31.365 Y18.817
X-31.104 Y19.22
X-30.907 Y19.56
X-30.709 Y19.974
X-30.5 Y20.519
X-30.283 Y21.261
X-30.103 Y22.129
X-29.979 Y23.006
X-29.894 Y23.888
X-29.835 Y24.772
X-29.793 Y25.658
X-29.765 Y26.543
X-29.613 Y26.959
X-29.13 Y27.703
X-28.444 Y28.264
X-27.66 Y28.675
X-26.825 Y28.973
X-25.965 Y29.187
X-25.092 Y29.338
X-24.212 Y29.446
X-23.329 Y29.521
X-22.445 Y29.574
X-21.897 Y29.597
X-21.649 Y29.63
X-21.411 Y29.706
X-21.191 Y29.823
X-19.545 Y30.893
X-18.817 Y31.365
X-18.415 Y31.614
X-18.408 Y31.619
G2 X-18.145 Y31.822 I1.29 J-1.403
G1 X-18.072 Y31.862
X-17.993 Y31.891
X-17.728 Y31.971
X-17.575 Y32.016
X-17.306 Y32.097
X-17.224 Y32.115
X-17.141 Y32.122
G2 X-16.81 Y32.097 I0.023 J-1.906
G1 X-16.805 Y32.096
X-16.604 Y32.088
X-16.402 Y32.069
X-16.201 Y32.037
X-16. Y31.986
X-15.799 Y31.924
X-15.734 Y31.899
X-15.597 Y31.845
X-15.396 Y31.748
X-15.309 Y31.698
X-15.195 Y31.628
X-15.006 Y31.497
X-14.792 Y31.324
X-14.676 Y31.23
X-14.412 Y31.053
X-14.073 Y30.864
X-13.633 Y30.664
X-13.052 Y30.453
X-12.252 Y30.234
X-11.381 Y30.07
X-10.502 Y29.956
X-9.62 Y29.878
X-8.735 Y29.823
X-7.85 Y29.786
X-6.964 Y29.759
X-6.078 Y29.741
X-5.192 Y29.728
X-4.306 Y29.719
X-3.42 Y29.713
X-2.534 Y29.709
X-0.762 Y29.703
X1.897 Y29.7
X8.099 Y29.699
X12.875
X13.165 Y29.729
X13.443 Y29.819
X13.695 Y29.964
X13.913 Y30.159
X14.085 Y30.394
X14.189 Y30.572
G3 X14.071 Y31.293 I-0.529 J0.284
G1 X14.002 Y31.358 Z-9.993
X13.935 Y31.42 Z-9.971
X13.872 Y31.48 Z-9.935
X13.813 Y31.535 Z-9.885
X13.761 Y31.584 Z-9.824
X13.717 Y31.626 Z-9.753
X13.681 Y31.659 Z-9.672
X13.655 Y31.684 Z-9.585
X13.639 Y31.699 Z-9.494
X13.633 Y31.704 Z-9.4
G0 Z5.
X-15.317 Y32.595
Z-8.8
G1 Z-9.4 F1440.
X-15.315 Y32.588 Z-9.494
X-15.31 Y32.566 Z-9.585
X-15.301 Y32.531 Z-9.672
X-15.289 Y32.484 Z-9.753
X-15.273 Y32.424 Z-9.824
X-15.256 Y32.355 Z-9.885
X-15.236 Y32.277 Z-9.935
X-15.215 Y32.193 Z-9.971
X-15.192 Y32.104 Z-9.993
X-15.169 Y32.013 Z-10.
G3 X-14.792 Y31.324 I1.534 J0.39
G1 X-14.562 Y31.094
X-14.39 Y30.879
X-14.259 Y30.692
X-13.987 Y30.227
X-13.907 Y30.088
X-13.801 Y29.924
X-13.663 Y29.744
X-13.485 Y29.547
X-13.275 Y29.348
X-13.001 Y29.129
X-12.673 Y28.906
X-12.252 Y28.668
X-11.736 Y28.428
X-11.063 Y28.179
X-10.21 Y27.94
X-9.341 Y27.765
X-8.464 Y27.638
X-7.583 Y27.545
X-6.699 Y27.478
X-5.815 Y27.428
X-5.735 Y27.425
X-5.61 Y27.426
X-5.485 Y27.438
X-5.362 Y27.461
G3 X-5.299 Y28.611 I-0.136 J0.584
G1 X-13.294 Y31.41
G3 X-14.092 Y30.851 I-0.198 J-0.566
X-13.907 Y30.088 I1.582 J-0.02
G1 X-12.745 Y28.075
X-12.579 Y27.818
X-12.413 Y27.601
X-12.222 Y27.39
X-11.973 Y27.155
X-11.671 Y26.913
X-11.297 Y26.659
X-10.837 Y26.399
X-10.648 Y26.311
X-10.389 Y26.221
X-10.118 Y26.182
X-9.844 Y26.197
X-9.579 Y26.265
G3 X-9.482 Y27.328 I-0.225 J0.556
G1 X-11.893 Y28.863
G3 X-12.745 Y28.075 I-0.322 J-0.506
G1 X-11.583 Y26.063
X-11.572 Y26.046
X-11.5 Y25.954
X-11.445 Y25.902
X-11.39 Y25.861
X-11.371 Y25.85
X-11.321 Y25.823
X-11.27 Y25.801
X-11.17 Y25.774
X-11.069 Y25.764
X-10.968 Y25.772
X-10.868 Y25.797
X-8.352 Y26.712
X-8.151 Y26.781
X-7.547 Y26.943
X-5.535 Y27.42
X-4.931 Y27.561
X-4.528 Y27.615
X-4.327 Y27.642
X-3.522 Y27.736
X-2.113 Y27.901
X-1.711 Y27.944
X-1.509 Y27.952
X-1.107 Y27.957
X-0.906 Y27.958
X0.906
X1.308 Y27.955
X1.509 Y27.952
X1.711 Y27.944
X2.113 Y27.901
X4.126 Y27.666
X4.327 Y27.642
X5.21 Y27.569
X6.092 Y27.487
X6.977 Y27.43
X7.862 Y27.39
X8.748 Y27.362
X9.634 Y27.343
X10.52 Y27.33
X11.406 Y27.334
X11.628 Y27.352
X11.894 Y27.399
X12.147 Y27.497
X12.375 Y27.641
X12.572 Y27.827
X12.729 Y28.047
G3 X12.608 Y28.768 I-0.53 J0.282
G1 X12.54 Y28.832 Z-9.993
X12.473 Y28.894 Z-9.971
X12.409 Y28.953 Z-9.935
X12.35 Y29.008 Z-9.885
X12.298 Y29.057 Z-9.824
X12.253 Y29.099 Z-9.753
X12.217 Y29.132 Z-9.672
X12.191 Y29.157 Z-9.585
X12.175 Y29.172 Z-9.494
X12.17 Y29.177 Z-9.4
G0 Z5.
X3.138 Y28.332
Z-8.8
G1 Z-9.4 F1440.
X3.144 Y28.327 Z-9.494
X3.161 Y28.313 Z-9.585
X3.189 Y28.291 Z-9.672
X3.228 Y28.261 Z-9.753
X3.276 Y28.223 Z-9.824
X3.332 Y28.178 Z-9.885
X3.395 Y28.129 Z-9.935
X3.463 Y28.075 Z-9.971
X3.535 Y28.018 Z-9.993
X3.609 Y27.96 Z-10.
G3 X4.327 Y27.642 I0.98 J1.242
G1 X4.73 Y27.588
X4.931 Y27.561
X5.535 Y27.42
X7.547 Y26.943
X8.151 Y26.781
X8.352 Y26.712
X10.136 Y26.063
X10.534 Y25.94
X10.787 Y25.911
X11.041 Y25.936
X11.284 Y26.014
X11.505 Y26.14
X11.695 Y26.31
X11.845 Y26.517
G3 X11.205 Y27.388 I-0.53 J0.282
G1 X10.25 Y27.209
G3 X10.136 Y26.063 I0.111 J-0.59
G1 X10.868 Y25.797
X10.968 Y25.772
X11.069 Y25.764
X11.17 Y25.774
X11.27 Y25.801
X11.321 Y25.823
X11.371 Y25.85
X11.39 Y25.861
X11.445 Y25.902
X11.5 Y25.954
X11.572 Y26.046
X11.583 Y26.063
X14.024 Y30.289
X14.085 Y30.394
X14.088 Y30.402
G2 X14.521 Y31.176 I2.41 J-0.839
G1 X14.565 Y31.224
X14.614 Y31.268
X14.668 Y31.306
X15.736 Y31.973
X15.794 Y32.004
X15.854 Y32.029
X15.917 Y32.048
G2 X16.802 Y32.097 I0.581 J-2.485
G1 X16.805 Y32.096
X17.006 Y32.089
X17.207 Y32.067
X17.409 Y32.032
X17.61 Y31.987
X17.811 Y31.916
X18.012 Y31.832
X18.214 Y31.738
X18.616 Y31.49
X18.817 Y31.365
X19.22 Y31.104
X19.56 Y30.907
X19.974 Y30.709
X20.519 Y30.5
X21.261 Y30.283
X22.129 Y30.103
X23.006 Y29.979
X23.888 Y29.894
X24.772 Y29.835
X25.658 Y29.793
X26.543 Y29.765
X26.959 Y29.613
X27.703 Y29.13
X28.264 Y28.444
X28.675 Y27.66
X28.973 Y26.825
X29.187 Y25.965
X29.338 Y25.092
X29.446 Y24.212
X29.521 Y23.329
X29.574 Y22.445
X29.597 Y21.897
X29.63 Y21.649
X29.706 Y21.411
X29.823 Y21.191
X30.893 Y19.545
X31.365 Y18.817
X31.614 Y18.415
X31.619 Y18.408
G2 X31.822 Y18.145 I-1.403 J-1.29
G1 X31.862 Y18.072
X31.891 Y17.993
X31.971 Y17.728
X32.016 Y17.575
X32.097 Y17.306
X32.115 Y17.224
X32.122 Y17.141
G2 X32.097 Y16.81 I-1.906 J-0.023
G1 X32.096 Y16.805
X32.088 Y16.604
X32.069 Y16.402
X32.037 Y16.201
X31.986 Y16.
X31.924 Y15.799
X31.899 Y15.734
X31.845 Y15.597
X31.748 Y15.396
X31.698 Y15.309
X31.628 Y15.195
X31.497 Y15.006
X31.324 Y14.792
X31.23 Y14.676
X31.053 Y14.412
X30.864 Y14.073
X30.664 Y13.633
X30.453 Y13.052
X30.234 Y12.252
X30.07 Y11.381
X29.956 Y10.502
X29.878 Y9.62
X29.823 Y8.735
X29.786 Y7.85
X29.759 Y6.964
X29.741 Y6.078
X29.728 Y5.192
X29.719 Y4.306
X29.713 Y3.42
X29.709 Y2.534
X29.703 Y0.762
X29.7 Y-1.897
X29.699 Y-8.099
Y-12.875
X29.729 Y-13.165
X29.819 Y-13.443
X29.964 Y-13.695
X30.159 Y-13.913
X30.394 Y-14.085
X30.572 Y-14.189
G3 X31.293 Y-14.071 I0.284 J0.529
G1 X31.358 Y-14.002 Z-9.993
X31.42 Y-13.935 Z-9.971
X31.48 Y-13.872 Z-9.935
X31.535 Y-13.813 Z-9.885
X31.584 Y-13.761 Z-9.824
X31.626 Y-13.717 Z-9.753
X31.659 Y-13.681 Z-9.672
X31.684 Y-13.655 Z-9.585
X31.699 Y-13.639 Z-9.494
X31.704 Y-13.633 Z-9.4
G0 Z5.
X32.595 Y15.317
Z-8.8
G1 Z-9.4 F1440.
X32.588 Y15.315 Z-9.494
X32.566 Y15.31 Z-9.585
X32.531 Y15.301 Z-9.672
X32.484 Y15.289 Z-9.753
X32.424 Y15.273 Z-9.824
X32.355 Y15.256 Z-9.885
X32.277 Y15.236 Z-9.935
X32.193 Y15.215 Z-9.971
X32.104 Y15.192 Z-9.993
X32.013 Y15.169 Z-10.
G3 X31.324 Y14.792 I0.39 J-1.534
G1 X31.094 Y14.562
X30.879 Y14.39
X30.692 Y14.259
X30.227 Y13.987
X30.088 Y13.907
X29.924 Y13.801
X29.744 Y13.663
X29.547 Y13.485
X29.348 Y13.275
X29.129 Y13.001
X28.906 Y12.673
X28.668 Y12.252
X28.428 Y11.736
X28.179 Y11.063
X27.94 Y10.21
X27.765 Y9.341
X27.638 Y8.464
X27.545 Y7.583
X27.478 Y6.699
X27.428 Y5.815
X27.425 Y5.735
X27.426 Y5.61
X27.438 Y5.485
X27.461 Y5.362
G3 X28.611 Y5.299 I0.584 J0.136
G1 X31.41 Y13.294
G3 X30.851 Y14.092 I-0.566 J0.198
X30.088 Y13.907 I-0.02 J-1.582
G1 X28.075 Y12.745
X27.818 Y12.579
X27.601 Y12.413
X27.39 Y12.222
X27.155 Y11.973
X26.913 Y11.671
X26.659 Y11.297
X26.399 Y10.837
X26.311 Y10.648
X26.221 Y10.389
X26.182 Y10.118
X26.197 Y9.844
X26.265 Y9.579
G3 X27.328 Y9.482 I0.556 J0.225
G1 X28.863 Y11.893
G3 X28.075 Y12.745 I-0.506 J0.322
G1 X26.063 Y11.583
X26.046 Y11.572
X25.954 Y11.5
X25.902 Y11.445
X25.861 Y11.39
X25.85 Y11.371
X25.823 Y11.321
X25.801 Y11.27
X25.774 Y11.17
X25.764 Y11.069
X25.772 Y10.968
X25.797 Y10.868
X26.712 Y8.352
X26.781 Y8.151
X26.943 Y7.547
X27.42 Y5.535
X27.561 Y4.931
X27.615 Y4.528
X27.642 Y4.327
X27.736 Y3.522
X27.901 Y2.113
X27.944 Y1.711
X27.952 Y1.509
X27.957 Y1.107
X27.958 Y0.906
Y-0.906
X27.955 Y-1.308
X27.952 Y-1.509
X27.944 Y-1.711
X27.901 Y-2.113
X27.666 Y-4.126
X27.642 Y-4.327
X27.569 Y-5.21
X27.487 Y-6.092
X27.43 Y-6.977
X27.39 Y-7.862
X27.362 Y-8.748
X27.343 Y-9.634
X27.33 Y-10.52
X27.334 Y-11.406
X27.352 Y-11.628
X27.399 Y-11.894
X27.497 Y-12.147
X27.641 Y-12.375
X27.827 Y-12.572
X28.047 Y-12.729
G3 X28.768 Y-12.608 I0.282 J0.53
G1 X28.832 Y-12.54 Z-9.993
X28.894 Y-12.473 Z-9.971
X28.953 Y-12.409 Z-9.935
X29.008 Y-12.35 Z-9.885
X29.057 Y-12.298 Z-9.824
X29.099 Y-12.253 Z-9.753
X29.132 Y-12.217 Z-9.672
X29.157 Y-12.191 Z-9.585
X29.172 Y-12.175 Z-9.494
X29.177 Y-12.17 Z-9.4
G0 Z5.
X28.332 Y-3.138
Z-8.8
G1 Z-9.4 F1440.
X28.327 Y-3.144 Z-9.494
X28.313 Y-3.161 Z-9.585
X28.291 Y-3.189 Z-9.672
X28.261 Y-3.228 Z-9.753
X28.223 Y-3.276 Z-9.824
X28.178 Y-3.332 Z-9.885
X28.129 Y-3.395 Z-9.935
X28.075 Y-3.463 Z-9.971
X28.018 Y-3.535 Z-9.993
X27.96 Y-3.609 Z-10.
G3 X27.642 Y-4.327 I1.242 J-0.98
G1 X27.588 Y-4.73
X27.561 Y-4.931
X27.42 Y-5.535
X26.943 Y-7.547
X26.781 Y-8.151
X26.712 Y-8.352
X26.063 Y-10.136
X25.94 Y-10.534
X25.911 Y-10.787
X25.936 Y-11.041
X26.014 Y-11.284
X26.14 Y-11.505
X26.31 Y-11.695
X26.517 Y-11.845
G3 X27.388 Y-11.205 I0.282 J0.53
G1 X27.209 Y-10.25
G3 X26.063 Y-10.136 I-0.59 J-0.111
G1 X25.797 Y-10.868
X25.772 Y-10.968
X25.764 Y-11.069
X25.774 Y-11.17
X25.801 Y-11.27
X25.823 Y-11.321
X25.85 Y-11.371
X25.861 Y-11.39
X25.902 Y-11.445
X25.954 Y-11.5
X26.046 Y-11.572
X26.063 Y-11.583
X30.289 Y-14.024
X30.394 Y-14.085
X30.402 Y-14.088
G2 X31.176 Y-14.521 I-0.839 J-2.41
G1 X31.224 Y-14.565
X31.268 Y-14.614
X31.306 Y-14.668
X31.973 Y-15.736
X32.004 Y-15.794
X32.029 Y-15.854
X32.048 Y-15.917
G2 X32.097 Y-16.802 I-2.485 J-0.581
G1 X32.096 Y-16.805
X32.089 Y-17.006
X32.067 Y-17.207
X32.032 Y-17.409
X31.987 Y-17.61
X31.916 Y-17.811
X31.832 Y-18.012
X31.738 Y-18.214
X31.49 Y-18.616
X31.365 Y-18.817
X31.104 Y-19.22
X30.907 Y-19.56
X30.709 Y-19.974
X30.5 Y-20.519
X30.283 Y-21.261
X30.103 Y-22.129
X29.979 Y-23.006
X29.894 Y-23.888
X29.835 Y-24.772
X29.793 Y-25.658
X29.765 Y-26.543
X29.613 Y-26.959
X29.13 Y-27.703
X28.444 Y-28.264
X27.66 Y-28.675
X26.825 Y-28.973
X25.965 Y-29.187
X25.092 Y-29.338
X24.212 Y-29.446
X23.329 Y-29.521
X22.445 Y-29.574
X21.897 Y-29.597
X21.649 Y-29.63
X21.411 Y-29.706
X21.191 Y-29.823
X19.545 Y-30.893
X18.817 Y-31.365
X18.415 Y-31.614
X18.408 Y-31.619
G2 X18.145 Y-31.822 I-1.29 J1.403
G1 X18.072 Y-31.862
X17.993 Y-31.891
X17.728 Y-31.971
X17.575 Y-32.016
X17.306 Y-32.097
X17.224 Y-32.115
X17.141 Y-32.122
G2 X16.81 Y-32.097 I-0.023 J1.906
G1 X16.805 Y-32.096
X16.604 Y-32.088
X16.402 Y-32.069
X16.201 Y-32.037
X16. Y-31.986
X15.799 Y-31.924
X15.734 Y-31.899
X15.597 Y-31.845
X15.396 Y-31.748
X15.309 Y-31.698
X15.195 Y-31.628
X15.006 Y-31.497
X14.792 Y-31.324
X14.676 Y-31.23
X14.412 Y-31.053
X14.073 Y-30.864
X13.633 Y-30.664
X13.052 Y-30.453
X12.252 Y-30.234
X11.381 Y-30.07
X10.502 Y-29.956
X9.62 Y-29.878
X8.735 Y-29.823
X7.85 Y-29.786
X6.964 Y-29.759
X6.078 Y-29.741
X5.192 Y-29.728
X4.306 Y-29.719
X3.42 Y-29.713
X2.534 Y-29.709
X0.762 Y-29.703
X-1.897 Y-29.7
X-8.099 Y-29.699
X-12.875
X-13.165 Y-29.729
X-13.443 Y-29.819
X-13.695 Y-29.964
X-13.913 Y-30.159
X-14.085 Y-30.394
X-14.189 Y-30.572
G3 X-14.071 Y-31.293 I0.529 J-0.284
G1 X-14.002 Y-31.358 Z-9.993
X-13.935 Y-31.42 Z-9.971
X-13.872 Y-31.48 Z-9.935
X-13.813 Y-31.535 Z-9.885
X-13.761 Y-31.584 Z-9.824
X-13.717 Y-31.626 Z-9.753
X-13.681 Y-31.659 Z-9.672
X-13.655 Y-31.684 Z-9.585
X-13.639 Y-31.699 Z-9.494
X-13.633 Y-31.704 Z-9.4
G0 Z5.
X15.317 Y-32.595
Z-8.8
G1 Z-9.4 F1440.
X15.315 Y-32.588 Z-9.494
X15.31 Y-32.566 Z-9.585
X15.301 Y-32.531 Z-9.672
X15.289 Y-32.484 Z-9.753
X15.273 Y-32.424 Z-9.824
X15.256 Y-32.355 Z-9.885
X15.236 Y-32.277 Z-9.935
X15.215 Y-32.193 Z-9.971
X15.192 Y-32.104 Z-9.993
X15.169 Y-32.013 Z-10.
G3 X14.792 Y-31.324 I-1.534 J-0.39
G1 X14.562 Y-31.094
X14.39 Y-30.879
X14.259 Y-30.692
X13.987 Y-30.227
X13.907 Y-30.088
X13.801 Y-29.924
X13.663 Y-29.744
X13.485 Y-29.547
X13.275 Y-29.348
X13.001 Y-29.129
X12.673 Y-28.906
X12.252 Y-28.668
X11.736 Y-28.428
X11.063 Y-28.179
X10.21 Y-27.94
X9.341 Y-27.765
X8.464 Y-27.638
X7.583 Y-27.545
X6.699 Y-27.478
X5.815 Y-27.428
X5.735 Y-27.425
X5.61 Y-27.426
X5.485 Y-27.438
X5.362 Y-27.461
G3 X5.299 Y-28.611 I0.136 J-0.584
G1 X13.294 Y-31.41
G3 X14.092 Y-30.851 I0.198 J0.566
X13.907 Y-30.088 I-1.582 J0.02
G1 X12.745 Y-28.075
X12.579 Y-27.818
X12.413 Y-27.601
X12.222 Y-27.39
X11.973 Y-27.155
X11.671 Y-26.913
X11.297 Y-26.659
X10.837 Y-26.399
X10.648 Y-26.311
X10.389 Y-26.221
X10.118 Y-26.182
X9.844 Y-26.197
X9.579 Y-26.265
G3 X9.482 Y-27.328 I0.225 J-0.556
G1 X11.893 Y-28.863
G3 X12.745 Y-28.075 I0.322 J0.506
G1 X11.583 Y-26.063
X11.572 Y-26.046
X11.5 Y-25.954
X11.445 Y-25.902
X11.39 Y-25.861
X11.371 Y-25.85
X11.321 Y-25.823
X11.27 Y-25.801
X11.17 Y-25.774
X11.069 Y-25.764
X10.968 Y-25.772
X10.868 Y-25.797
X8.352 Y-26.712
X8.151 Y-26.781
X7.547 Y-26.943
X5.535 Y-27.42
X4.931 Y-27.561
X4.528 Y-27.615
X4.327 Y-27.642
X3.522 Y-27.736
X2.113 Y-27.901
X1.711 Y-27.944
X1.509 Y-27.952
X1.107 Y-27.957
X0.906 Y-27.958
X-0.906
X-1.308 Y-27.955
X-1.509 Y-27.952
X-1.711 Y-27.944
X-2.113 Y-27.901
X-4.126 Y-27.666
X-4.327 Y-27.642
X-5.21 Y-27.569
X-6.092 Y-27.487
X-6.977 Y-27.43
X-7.862 Y-27.39
X-8.748 Y-27.362
X-9.634 Y-27.343
X-10.52 Y-27.33
X-11.406 Y-27.334
X-11.628 Y-27.352
X-11.894 Y-27.399
X-12.147 Y-27.497
X-12.375 Y-27.641
X-12.572 Y-27.827
X-12.729 Y-28.047
G3 X-12.608 Y-28.768 I0.53 J-0.282
G1 X-12.54 Y-28.832 Z-9.993
X-12.473 Y-28.894 Z-9.971
X-12.409 Y-28.953 Z-9.935
X-12.35 Y-29.008 Z-9.885
X-12.298 Y-29.057 Z-9.824
X-12.253 Y-29.099 Z-9.753
X-12.217 Y-29.132 Z-9.672
X-12.191 Y-29.157 Z-9.585
X-12.175 Y-29.172 Z-9.494
X-12.17 Y-29.177 Z-9.4
G0 Z5.
X-3.138 Y-28.332
Z-8.8
G1 Z-9.4 F1440.
X-3.144 Y-28.327 Z-9.494
X-3.161 Y-28.313 Z-9.585
X-3.189 Y-28.291 Z-9.672
X-3.228 Y-28.261 Z-9.753
X-3.276 Y-28.223 Z-9.824
X-3.332 Y-28.178 Z-9.885
X-3.395 Y-28.129 Z-9.935
X-3.463 Y-28.075 Z-9.971
X-3.535 Y-28.018 Z-9.993
X-3.609 Y-27.96 Z-10.
G3 X-4.327 Y-27.642 I-0.98 J-1.242
G1 X-4.73 Y-27.588
X-4.931 Y-27.561
X-5.535 Y-27.42
X-7.547 Y-26.943
X-8.151 Y-26.781
X-8.352 Y-26.712
X-10.136 Y-26.063
X-10.534 Y-25.94
X-10.787 Y-25.911
X-11.041 Y-25.936
X-11.284 Y-26.014
X-11.505 Y-26.14
X-11.695 Y-26.31
X-11.845 Y-26.517
G3 X-11.205 Y-27.388 I0.53 J-0.282
G1 X-10.25 Y-27.209
G3 X-10.136 Y-26.063 I-0.111 J0.59
G1 X-10.868 Y-25.797
X-10.968 Y-25.772
X-11.069 Y-25.764
X-11.17 Y-25.774
X-11.27 Y-25.801
X-11.321 Y-25.823
X-11.371 Y-25.85
X-11.39 Y-25.861
X-11.445 Y-25.902
X-11.5 Y-25.954
X-11.572 Y-26.046
X-11.583 Y-26.063
X-14.024 Y-30.289
X-14.085 Y-30.394
X-14.088 Y-30.402
G2 X-14.521 Y-31.176 I-2.41 J0.839
G1 X-14.565 Y-31.224
X-14.614 Y-31.268
X-14.668 Y-31.306
X-15.736 Y-31.973
X-15.794 Y-32.004
X-15.854 Y-32.029
X-15.917 Y-32.048
G2 X-16.802 Y-32.097 I-0.581 J2.485
G1 X-16.805 Y-32.096
X-17.006 Y-32.089
X-17.207 Y-32.067
X-17.409 Y-32.032
X-17.61 Y-31.987
X-17.811 Y-31.916
X-18.012 Y-31.832
X-18.214 Y-31.738
X-18.616 Y-31.49
X-18.817 Y-31.365
X-19.22 Y-31.104
X-19.56 Y-30.907
X-19.974 Y-30.709
X-20.519 Y-30.5
X-21.261 Y-30.283
X-22.129 Y-30.103
X-23.006 Y-29.979
X-23.888 Y-29.894
X-24.33 Y-29.864
X-24.551 Y-29.842
X-24.765 Y-29.785
X-25.17 Y-29.606
X-25.828 Y-29.012
X-26.296 Y-28.26
X-26.622 Y-27.436
X-26.846 Y-26.578
X-26.998 Y-25.705
X-27.079 Y-25.01
X-27.137 Y-24.738
X-27.244 Y-24.482
X-27.398 Y-24.251
X-29.353 Y-21.836
X-29.51 Y-21.635
X-29.665 Y-21.434
X-29.955 Y-20.989
G3 X-30.652 Y-20.77 I-0.491 J-0.345
G1 X-30.74 Y-20.803 Z-9.993
X-30.826 Y-20.834 Z-9.971
X-30.908 Y-20.864 Z-9.935
X-30.983 Y-20.891 Z-9.885
X-31.05 Y-20.916 Z-9.824
X-31.108 Y-20.937 Z-9.753
X-31.154 Y-20.954 Z-9.672
X-31.188 Y-20.966 Z-9.585
X-31.208 Y-20.974 Z-9.494
X-31.215 Y-20.976 Z-9.4
G0 Z5.
X-18.443 Y-32.238
Z-8.8
G1 Z-9.4 F1440.
X-18.446 Y-32.232 Z-9.494
X-18.456 Y-32.212 Z-9.585
X-18.472 Y-32.179 Z-9.672
X-18.494 Y-32.135 Z-9.753
X-18.521 Y-32.081 Z-9.824
X-18.552 Y-32.016 Z-9.885
X-18.588 Y-31.944 Z-9.935
X-18.626 Y-31.866 Z-9.971
X-18.667 Y-31.784 Z-9.993
X-18.709 Y-31.7 Z-10.
G3 X-19.22 Y-31.104 I-1.419 J-0.7
G1 X-21.094 Y-29.887
X-21.434 Y-29.665
X-21.668 Y-29.484
X-21.836 Y-29.353
X-24.251 Y-27.398
X-24.395 Y-27.27
X-24.654 Y-27.035
X-24.827 Y-26.868
X-26.868 Y-24.827
X-27.035 Y-24.654
X-27.27 Y-24.395
X-27.398 Y-24.251
G3 X-28.119 Y-24.137 I-0.435 J-0.413
G1 X-28.202 Y-24.182 Z-9.993
X-28.282 Y-24.226 Z-9.971
X-28.359 Y-24.267 Z-9.935
X-28.429 Y-24.306 Z-9.885
X-28.492 Y-24.34 Z-9.824
X-28.546 Y-24.369 Z-9.753
X-28.589 Y-24.393 Z-9.672
X-28.621 Y-24.41 Z-9.585
X-28.64 Y-24.42 Z-9.494
X-28.647 Y-24.424 Z-9.4
G0 Z5.
X-32.238 Y18.443
Z-8.8
G1 Z-9.4 F1440.
X-32.232 Y18.446 Z-9.494
X-32.212 Y18.456 Z-9.585
X-32.179 Y18.472 Z-9.672
X-32.135 Y18.494 Z-9.753
X-32.081 Y18.521 Z-9.824
X-32.016 Y18.552 Z-9.885
X-31.944 Y18.588 Z-9.935
X-31.866 Y18.626 Z-9.971
X-31.784 Y18.667 Z-9.993
X-31.7 Y18.709 Z-10.
G3 X-31.104 Y19.22 I-0.7 J1.419
G1 X-29.887 Y21.094
X-29.665 Y21.434
X-29.484 Y21.668
X-29.353 Y21.836
X-29.191 Y22.038
X-28.886 Y22.455
X-28.68 Y22.79
X-28.462 Y23.221
X-28.125 Y24.04
X-27.616 Y24.765
X-26.961 Y25.362
X-26.213 Y25.837
X-25.789 Y26.031
X-25.642 Y26.109
X-25.506 Y26.204
X-25.381 Y26.314
G3 X-25.416 Y27.167 I-0.439 J0.409
X-26.268 Y27.122 I-0.404 J-0.443
G1 X-30.091 Y22.83
G3 X-30.04 Y21.981 I0.448 J-0.399
X-29.191 Y22.038 I0.396 J0.45
G1 X-27.398 Y24.251
X-27.27 Y24.395
X-27.035 Y24.654
X-26.868 Y24.827
X-24.827 Y26.868
X-24.654 Y27.035
X-24.395 Y27.27
X-24.251 Y27.398
X-21.836 Y29.353
X-21.497 Y29.616
X-21.434 Y29.665
X-21.191 Y29.823
G3 X-20.972 Y30.521 I-0.345 J0.491
G1 X-21.005 Y30.609 Z-9.993
X-21.036 Y30.695 Z-9.971
X-21.066 Y30.776 Z-9.935
X-21.094 Y30.852 Z-9.885
X-21.118 Y30.919 Z-9.824
X-21.139 Y30.976 Z-9.753
X-21.156 Y31.023 Z-9.672
X-21.169 Y31.056 Z-9.585
X-21.176 Y31.077 Z-9.494
X-21.179 Y31.084 Z-9.4
G0 Z5.
X18.443 Y32.238
Z-8.8
G1 Z-9.4 F1440.
X18.446 Y32.232 Z-9.494
X18.456 Y32.212 Z-9.585
X18.472 Y32.179 Z-9.672
X18.494 Y32.135 Z-9.753
X18.521 Y32.081 Z-9.824
X18.552 Y32.016 Z-9.885
X18.588 Y31.944 Z-9.935
X18.626 Y31.866 Z-9.971
X18.667 Y31.784 Z-9.993
X18.709 Y31.7 Z-10.
G3 X19.22 Y31.104 I1.419 J0.7
G1 X21.094 Y29.887
X21.434 Y29.665
X21.668 Y29.484
X21.836 Y29.353
X22.038 Y29.191
X22.455 Y28.886
X22.79 Y28.68
X23.221 Y28.462
X24.04 Y28.125
X24.765 Y27.616
X25.362 Y26.961
X25.837 Y26.213
X26.031 Y25.789
X26.109 Y25.642
X26.204 Y25.506
X26.314 Y25.381
G3 X27.167 Y25.416 I0.409 J0.439
X27.122 Y26.268 I-0.443 J0.404
G1 X22.83 Y30.091
G3 X21.981 Y30.04 I-0.399 J-0.448
X22.038 Y29.191 I0.45 J-0.396
G1 X24.251 Y27.398
X24.395 Y27.27
X24.654 Y27.035
X24.827 Y26.868
X26.868 Y24.827
X27.035 Y24.654
X27.27 Y24.395
X27.398 Y24.251
X29.353 Y21.836
X29.616 Y21.497
X29.665 Y21.434
X29.823 Y21.191
G3 X30.521 Y20.972 I0.491 J0.345
G1 X30.609 Y21.005 Z-9.993
X30.695 Y21.036 Z-9.971
X30.776 Y21.066 Z-9.935
X30.852 Y21.094 Z-9.885
X30.919 Y21.118 Z-9.824
X30.976 Y21.139 Z-9.753
X31.023 Y21.156 Z-9.672
X31.056 Y21.169 Z-9.585
X31.077 Y21.176 Z-9.494
X31.084 Y21.179 Z-9.4
G0 Z5.
X32.238 Y-18.443
Z-8.8
G1 Z-9.4 F1440.
X32.232 Y-18.446 Z-9.494
X32.212 Y-18.456 Z-9.585
X32.179 Y-18.472 Z-9.672
X32.135 Y-18.494 Z-9.753
X32.081 Y-18.521 Z-9.824
X32.016 Y-18.552 Z-9.885
X31.944 Y-18.588 Z-9.935
X31.866 Y-18.626 Z-9.971
X31.784 Y-18.667 Z-9.993
X31.7 Y-18.709 Z-10.
G3 X31.104 Y-19.22 I0.7 J-1.419
G1 X29.887 Y-21.094
X29.665 Y-21.434
X29.484 Y-21.668
X29.353 Y-21.836
X29.191 Y-22.038
X28.886 Y-22.455
X28.68 Y-22.79
X28.462 Y-23.221
X28.125 Y-24.04
X27.616 Y-24.765
X26.961 Y-25.362
X26.213 Y-25.837
X25.789 Y-26.031
X25.642 Y-26.109
X25.506 Y-26.204
X25.381 Y-26.314
G3 X25.416 Y-27.167 I0.439 J-0.409
X26.268 Y-27.122 I0.404 J0.443
G1 X30.091 Y-22.83
G3 X30.04 Y-21.981 I-0.448 J0.399
X29.191 Y-22.038 I-0.396 J-0.45
G1 X27.398 Y-24.251
X27.27 Y-24.395
X27.035 Y-24.654
X26.868 Y-24.827
X24.827 Y-26.868
X24.654 Y-27.035
X24.395 Y-27.27
X24.251 Y-27.398
X21.836 Y-29.353
X21.497 Y-29.616
X21.434 Y-29.665
X21.191 Y-29.823
X21.119 Y-29.882
X21.058 Y-29.952
X21.025 Y-30.018 Z-9.995
X20.992 Y-30.082 Z-9.982
X20.96 Y-30.145 Z-9.959
X20.951 Y-30.205 Z-9.931
X20.943 Y-30.262 Z-9.897
X20.936 Y-30.314 Z-9.856
X20.946 Y-30.375 Z-9.796
X20.956 Y-30.426 Z-9.727
X20.963 Y-30.467 Z-9.651
X20.968 Y-30.496 Z-9.571
X20.971 Y-30.515 Z-9.487
X20.972 Y-30.521 Z-9.401
G0 Z5.
X0. Y0.
Z2.5
G1 Z-10. F330.
X-0.038 Y0.003 F1440.
X-0.033 Y-0.034
X-0.001 Y-0.054
X0.036 Y-0.046
X0.06 Y-0.018
X0.063 Y0.02
X0.049 Y0.054
X0.023 Y0.082
X-0.011 Y0.098
X-0.048 Y0.1
X-0.084 Y0.088
X-0.114 Y0.066
X-0.137 Y0.036
X-0.165 Y-0.033
X-0.157 Y-0.108
X-0.118 Y-0.172
X-0.058 Y-0.218
X0.013 Y-0.24
X0.088 Y-0.237
X0.159 Y-0.212
X0.28 Y-0.123
X0.34 Y0.014
X0.336 Y0.164
X0.273 Y0.3
X0.165 Y0.404
X0.028 Y0.465
X-0.122 Y0.478
X-0.269 Y0.448
X-0.401 Y0.377
X-0.51 Y0.273
X-0.588 Y0.146
X-0.632 Y0.002
X-0.641 Y-0.148
X-0.616 Y-0.295
X-0.558 Y-0.434
X-0.472 Y-0.557
X-0.362 Y-0.659
X-0.234 Y-0.737
X-0.094 Y-0.79
X0.054 Y-0.817
X0.204 Y-0.816
X0.351 Y-0.789
X0.492 Y-0.738
X0.622 Y-0.662
X0.739 Y-0.568
X0.838 Y-0.456
X0.919 Y-0.329
X0.98 Y-0.192
X1.019 Y-0.048
X1.038 Y0.101
X1.035 Y0.251
X1.01 Y0.399
X0.966 Y0.542
X0.902 Y0.678
X0.821 Y0.804
X0.724 Y0.919
X0.613 Y1.02
X0.491 Y1.107
X0.359 Y1.178
X0.219 Y1.232
X0.074 Y1.269
X-0.075 Y1.289
X-0.225 Y1.292
X-0.374 Y1.278
X-0.521 Y1.247
X-0.663 Y1.199
X-0.8 Y1.137
X-0.928 Y1.06
X-1.049 Y0.97
X-1.158 Y0.867
X-1.257 Y0.754
X-1.343 Y0.632
X-1.417 Y0.501
X-1.477 Y0.364
X-1.523 Y0.221
X-1.555 Y0.074
X-1.573 Y-0.075
X-1.576 Y-0.225
X-1.565 Y-0.374
X-1.54 Y-0.522
X-1.501 Y-0.667
X-1.449 Y-0.808
X-1.385 Y-0.943
X-1.309 Y-1.073
X-1.222 Y-1.195
X-1.124 Y-1.308
X-1.017 Y-1.413
X-0.901 Y-1.509
X-0.778 Y-1.594
X-0.648 Y-1.668
X-0.512 Y-1.732
X-0.371 Y-1.783
X-0.226 Y-1.824
X-0.076 Y-1.852
X0.073 Y-1.868
X0.228 Y-1.872
X0.378 Y-1.864
X0.534 Y-1.843
X0.683 Y-1.81
X0.837 Y-1.763
X0.981 Y-1.707
X1.126 Y-1.635
X1.261 Y-1.555
X1.397 Y-1.459
X1.52 Y-1.356
X1.639 Y-1.238
X1.746 Y-1.114
X1.846 Y-0.978
X1.935 Y-0.834
X2.011 Y-0.683
X2.077 Y-0.523
X2.129 Y-0.362
X2.17 Y-0.189
X2.196 Y-0.017
X2.208 Y0.16
X2.206 Y0.34
X2.19 Y0.517
X2.159 Y0.699
X2.114 Y0.875
X2.054 Y1.048
X1.978 Y1.221
X1.891 Y1.384
X1.789 Y1.543
X1.671 Y1.696
X1.544 Y1.837
X1.403 Y1.97
X1.25 Y2.093
X1.088 Y2.203
X0.917 Y2.3
X0.734 Y2.385
X0.546 Y2.455
X0.353 Y2.51
X0.151 Y2.549
X-0.055 Y2.573
X-0.26 Y2.58
X-0.468 Y2.57
X-0.678 Y2.543
X-0.886 Y2.5
X-1.09 Y2.439
X-1.289 Y2.363
X-1.485 Y2.268
X-1.674 Y2.158
X-1.854 Y2.032
X-2.023 Y1.893
X-2.182 Y1.739
X-2.331 Y1.569
X-2.467 Y1.388
X-2.587 Y1.195
X-2.692 Y0.993
X-2.782 Y0.782
X-2.854 Y0.562
X-2.91 Y0.335
X-2.947 Y0.101
X-2.965 Y-0.135
Y-0.373
X-2.945 Y-0.612
X-2.906 Y-0.85
X-2.848 Y-1.086
X-2.77 Y-1.317
X-2.673 Y-1.544
X-2.557 Y-1.764
X-2.423 Y-1.975
X-2.272 Y-2.176
X-2.104 Y-2.366
X-1.92 Y-2.543
X-1.721 Y-2.705
X-1.508 Y-2.852
X-1.283 Y-2.982
X-1.046 Y-3.095
X-0.8 Y-3.188
X-0.546 Y-3.262
X-0.284 Y-3.316
X-0.018 Y-3.349
X0.252 Y-3.36
X0.523 Y-3.35
X0.795 Y-3.317
X1.064 Y-3.263
X1.33 Y-3.187
X1.591 Y-3.089
X1.844 Y-2.969
X2.089 Y-2.829
X2.322 Y-2.669
X2.544 Y-2.49
X2.751 Y-2.292
X2.944 Y-2.077
X3.119 Y-1.845
X3.276 Y-1.599
X3.414 Y-1.339
X3.532 Y-1.068
X3.627 Y-0.786
X3.7 Y-0.496
X3.75 Y-0.199
X3.776 Y0.102
X3.778 Y0.407
X3.755 Y0.713
X3.708 Y1.017
X3.636 Y1.319
X3.539 Y1.615
X3.418 Y1.904
X3.274 Y2.184
X3.106 Y2.453
X2.917 Y2.71
X2.706 Y2.951
X2.476 Y3.176
X2.226 Y3.384
X1.959 Y3.571
X1.677 Y3.737
X1.381 Y3.881
X1.072 Y4.001
X0.753 Y4.097
X0.426 Y4.167
X0.092 Y4.211
X-0.246 Y4.228
X-0.587 Y4.218
X-0.927 Y4.18
X-1.264 Y4.115
X-1.597 Y4.022
X-1.924 Y3.903
X-2.241 Y3.756
X-2.548 Y3.584
X-2.841 Y3.387
X-3.118 Y3.166
X-3.379 Y2.922
X-3.62 Y2.656
X-3.84 Y2.37
X-4.038 Y2.066
X-4.212 Y1.746
X-4.36 Y1.41
X-4.481 Y1.063
X-4.574 Y0.705
X-4.639 Y0.339
X-4.674 Y-0.033
X-4.679 Y-0.409
X-4.655 Y-0.785
X-4.599 Y-1.161
X-4.513 Y-1.532
X-4.397 Y-1.898
X-4.252 Y-2.254
X-4.077 Y-2.6
X-3.875 Y-2.932
X-3.645 Y-3.248
X-3.389 Y-3.546
X-3.109 Y-3.824
X-2.806 Y-4.079
X-2.482 Y-4.311
X-2.139 Y-4.517
X-1.779 Y-4.696
X-1.404 Y-4.845
X-1.016 Y-4.965
X-0.618 Y-5.054
X-0.212 Y-5.111
X0.199 Y-5.135
X0.612 Y-5.126
X1.025 Y-5.083
X1.435 Y-5.007
X1.84 Y-4.899
X2.237 Y-4.757
X2.622 Y-4.583
X2.994 Y-4.378
X3.351 Y-4.142
X3.688 Y-3.878
X4.005 Y-3.585
X4.299 Y-3.267
X4.567 Y-2.925
X4.809 Y-2.561
X5.021 Y-2.176
X5.202 Y-1.775
X5.352 Y-1.358
X5.467 Y-0.928
X5.549 Y-0.489
X5.595 Y-0.042
X5.605 Y0.408
X5.579 Y0.86
X5.516 Y1.311
X5.417 Y1.757
X5.282 Y2.195
X5.111 Y2.623
X4.906 Y3.038
X4.667 Y3.436
X4.396 Y3.816
X4.094 Y4.174
X3.763 Y4.508
X3.404 Y4.816
X3.02 Y5.095
X2.614 Y5.344
X2.187 Y5.56
X1.742 Y5.742
X1.283 Y5.888
X0.811 Y5.997
X0.33 Y6.068
X-0.157 Y6.101
X-0.647 Y6.094
X-1.138 Y6.048
X-1.624 Y5.962
X-2.105 Y5.837
X-2.575 Y5.673
X-3.033 Y5.471
X-3.475 Y5.232
X-3.898 Y4.958
X-4.299 Y4.649
X-4.675 Y4.307
X-5.025 Y3.935
X-5.344 Y3.534
X-5.632 Y3.108
X-5.885 Y2.658
X-6.102 Y2.187
X-6.282 Y1.698
X-6.422 Y1.195
X-6.522 Y0.68
X-6.58 Y0.156
X-6.597 Y-0.373
X-6.57 Y-0.903
X-6.501 Y-1.431
X-6.389 Y-1.955
X-6.235 Y-2.469
X-6.04 Y-2.972
X-5.804 Y-3.459
X-5.528 Y-3.927
X-5.215 Y-4.374
X-4.865 Y-4.795
X-4.482 Y-5.188
X-4.066 Y-5.551
X-3.622 Y-5.88
X-3.15 Y-6.174
X-2.655 Y-6.43
X-2.138 Y-6.646
X-1.605 Y-6.82
X-1.057 Y-6.952
X-0.498 Y-7.039
X0.068 Y-7.082
X0.638 Y-7.079
X1.208 Y-7.03
X1.774 Y-6.935
X2.332 Y-6.794
X2.88 Y-6.609
X3.413 Y-6.379
X3.927 Y-6.106
X4.42 Y-5.792
X4.887 Y-5.438
X5.327 Y-5.046
X5.734 Y-4.619
X6.108 Y-4.158
X6.445 Y-3.668
X6.742 Y-3.15
X6.997 Y-2.608
X7.209 Y-2.045
X7.376 Y-1.465
X7.496 Y-0.871
X7.568 Y-0.268
X7.592 Y0.342
X7.567 Y0.953
X7.492 Y1.562
X7.368 Y2.166
X7.196 Y2.76
X6.976 Y3.339
X6.709 Y3.902
X6.397 Y4.442
X6.041 Y4.958
X5.644 Y5.445
X5.207 Y5.901
X4.734 Y6.321
X4.227 Y6.703
X3.689 Y7.044
X3.123 Y7.342
X2.534 Y7.594
X1.924 Y7.799
X1.298 Y7.955
X0.659 Y8.06
X0.012 Y8.114
X-0.64 Y8.116
X-1.292 Y8.065
X-1.94 Y7.962
X-2.579 Y7.807
X-3.206 Y7.6
X-3.816 Y7.343
X-4.406 Y7.037
X-4.971 Y6.683
X-5.507 Y6.284
X-6.011 Y5.841
X-6.48 Y5.358
X-6.909 Y4.837
X-7.297 Y4.282
X-7.64 Y3.695
X-7.936 Y3.081
X-8.182 Y2.443
X-8.377 Y1.785
X-8.519 Y1.112
X-8.607 Y0.427
X-8.64 Y-0.264
X-8.616 Y-0.959
X-8.537 Y-1.651
X-8.403 Y-2.337
X-8.213 Y-3.012
X-7.969 Y-3.671
X-7.671 Y-4.311
X-7.323 Y-4.927
X-6.925 Y-5.514
X-6.479 Y-6.07
X-5.989 Y-6.589
X-5.458 Y-7.069
X-4.888 Y-7.505
X-4.282 Y-7.896
X-3.646 Y-8.238
X-2.982 Y-8.529
X-2.295 Y-8.766
X-1.59 Y-8.948
X-0.869 Y-9.073
X-0.139 Y-9.139
X0.596 Y-9.148
X1.331 Y-9.097
X2.063 Y-8.986
X2.785 Y-8.817
X3.493 Y-8.59
X4.183 Y-8.306
X4.85 Y-7.966
X5.49 Y-7.573
X6.097 Y-7.129
X6.669 Y-6.635
X7.2 Y-6.096
X7.688 Y-5.514
X8.129 Y-4.894
X8.52 Y-4.237
X8.858 Y-3.55
X9.141 Y-2.836
X9.366 Y-2.099
X9.532 Y-1.344
X9.636 Y-0.576
X9.679 Y0.2
X9.66 Y0.979
X9.578 Y1.756
X9.433 Y2.526
X9.226 Y3.284
X8.959 Y4.025
X8.632 Y4.744
X8.247 Y5.437
X7.807 Y6.098
X7.313 Y6.724
X6.77 Y7.31
X6.18 Y7.851
X5.546 Y8.345
X4.873 Y8.788
X4.165 Y9.176
X3.426 Y9.507
X2.66 Y9.778
X1.873 Y9.988
X1.07 Y10.134
X0.255 Y10.215
X-0.565 Y10.231
X-1.387 Y10.181
X-2.204 Y10.064
X-3.011 Y9.882
X-3.803 Y9.635
X-4.575 Y9.325
X-5.321 Y8.953
X-6.037 Y8.521
X-6.718 Y8.031
X-7.359 Y7.487
X-7.955 Y6.892
X-8.504 Y6.249
X-9. Y5.562
X-9.441 Y4.836
X-9.823 Y4.074
X-10.144 Y3.283
X-10.401 Y2.466
X-10.592 Y1.629
X-10.715 Y0.777
X-10.77 Y-0.085
X-10.756 Y-0.95
X-10.671 Y-1.814
X-10.518 Y-2.67
X-10.296 Y-3.513
X-10.006 Y-4.338
X-9.649 Y-5.138
X-9.229 Y-5.91
X-8.747 Y-6.647
X-8.206 Y-7.345
X-7.609 Y-7.999
X-6.961 Y-8.603
X-6.266 Y-9.154
X-5.53 Y-9.647
X-4.757 Y-10.08
X-3.952 Y-10.45
X-3.12 Y-10.755
X-2.267 Y-10.994
X-1.397 Y-11.164
X-0.517 Y-11.265
X0.369 Y-11.296
X1.254 Y-11.259
X2.134 Y-11.152
X3.003 Y-10.977
X3.855 Y-10.734
X4.686 Y-10.427
X5.491 Y-10.056
X6.264 Y-9.624
X7.003 Y-9.134
X7.701 Y-8.589
X8.356 Y-7.991
X8.963 Y-7.346
X9.519 Y-6.656
X10.021 Y-5.926
X10.467 Y-5.16
X10.853 Y-4.363
X11.178 Y-3.538
X11.439 Y-2.691
X11.636 Y-1.827
X11.766 Y-0.951
X11.829 Y-0.067
X11.827 Y0.819
X11.758 Y1.703
X11.623 Y2.579
X11.425 Y3.442
X11.163 Y4.289
X10.839 Y5.114
X10.456 Y5.913
X10.016 Y6.681
X9.52 Y7.416
X8.971 Y8.112
X8.372 Y8.765
X7.726 Y9.372
X7.038 Y9.93
X6.311 Y10.436
X5.549 Y10.889
X4.757 Y11.286
X3.938 Y11.625
X3.097 Y11.904
X2.239 Y12.123
X1.366 Y12.279
X0.485 Y12.371
X-0.401 Y12.398
X-1.286 Y12.362
X-2.167 Y12.264
X-3.038 Y12.103
X-3.896 Y11.882
X-4.737 Y11.601
X-5.555 Y11.261
X-6.347 Y10.864
X-7.109 Y10.411
X-7.836 Y9.905
X-8.526 Y9.349
X-9.176 Y8.747
X-9.783 Y8.101
X-10.345 Y7.416
X-10.857 Y6.692
X-11.316 Y5.934
X-11.72 Y5.146
X-12.069 Y4.331
X-12.361 Y3.495
X-12.596 Y2.64
X-12.773 Y1.772
X-12.889 Y0.894
X-12.943 Y0.009
X-12.936 Y-0.877
X-12.868 Y-1.76
X-12.74 Y-2.637
X-12.554 Y-3.504
X-12.311 Y-4.356
X-12.01 Y-5.189
X-11.651 Y-5.999
X-11.238 Y-6.783
X-10.774 Y-7.538
X-10.26 Y-8.26
X-9.701 Y-8.947
X-9.095 Y-9.595
X-8.447 Y-10.199
X-7.759 Y-10.757
X-7.036 Y-11.269
X-6.281 Y-11.733
X-5.497 Y-12.146
X-4.687 Y-12.506
X-3.855 Y-12.81
X-3.004 Y-13.057
X-2.138 Y-13.248
X-1.263 Y-13.382
X-0.38 Y-13.46
X0.506 Y-13.479
X1.391 Y-13.438
X2.272 Y-13.338
X3.144 Y-13.182
X4.004 Y-12.969
X4.849 Y-12.702
X5.675 Y-12.382
X6.478 Y-12.006
X7.254 Y-11.579
X8.001 Y-11.102
X8.716 Y-10.578
X9.396 Y-10.01
X10.039 Y-9.401
X10.641 Y-8.751
X11.199 Y-8.062
X11.711 Y-7.339
X12.177 Y-6.585
X12.594 Y-5.803
X12.962 Y-4.997
X13.277 Y-4.169
X13.537 Y-3.322
X13.741 Y-2.459
X13.89 Y-1.586
X13.985 Y-0.705
X14.025 Y0.18
X14.009 Y1.066
X13.936 Y1.949
X13.806 Y2.826
X13.622 Y3.693
X13.385 Y4.547
X13.095 Y5.384
X12.756 Y6.203
X12.365 Y6.998
X11.924 Y7.767
X11.436 Y8.506
X10.903 Y9.214
X10.327 Y9.887
X9.711 Y10.524
X9.057 Y11.122
X8.366 Y11.678
X7.642 Y12.189
X6.888 Y12.654
X6.108 Y13.073
X5.303 Y13.444
X4.478 Y13.767
X3.634 Y14.038
X2.775 Y14.255
X1.904 Y14.419
X1.025 Y14.529
X0.14 Y14.585
X-0.746 Y14.589
X-1.63 Y14.54
X-2.51 Y14.437
X-3.383 Y14.28
X-4.243 Y14.07
X-5.09 Y13.809
X-5.92 Y13.498
X-6.73 Y13.139
X-7.517 Y12.731
X-8.277 Y12.276
X-9.008 Y11.775
X-9.708 Y11.231
X-10.374 Y10.647
X-11.006 Y10.025
X-11.6 Y9.368
X-12.154 Y8.676
X-12.664 Y7.952
X-12.938 Y7.507
X-12.963 Y7.464
X-13.585 Y6.325
X-13.667 Y6.138
X-13.746 Y5.937
X-14.272 Y4.528
X-14.338 Y4.327
X-14.445 Y3.924
X-14.494 Y3.723
X-14.757 Y2.516
X-14.789 Y2.314
X-14.844 Y1.912
X-14.87 Y1.711
X-14.956 Y0.503
X-14.967 Y0.302
Y-0.302
X-14.956 Y-0.503
X-14.87 Y-1.711
X-14.844 Y-1.912
X-14.789 Y-2.314
X-14.757 Y-2.516
X-14.494 Y-3.723
X-14.445 Y-3.924
X-14.338 Y-4.327
X-14.272 Y-4.528
X-13.746 Y-5.937
X-13.667 Y-6.138
X-13.585 Y-6.325
X-12.697 Y-7.95
X-12.579 Y-8.134
X-12.275 Y-8.553
X-12.176 Y-8.688
X-11.572 Y-9.495
X-11.523 Y-9.56
X-11.167 Y-9.962
X-10.985 Y-10.163
X-10.163 Y-10.985
X-9.959 Y-11.17
X-9.56 Y-11.523
X-9.495 Y-11.572
X-8.688 Y-12.176
X-8.553 Y-12.275
X-8.134 Y-12.579
X-7.95 Y-12.697
X-6.325 Y-13.585
X-6.138 Y-13.667
X-5.937 Y-13.746
X-4.528 Y-14.272
X-4.327 Y-14.338
X-3.924 Y-14.445
X-3.723 Y-14.494
X-2.516 Y-14.757
X-2.314 Y-14.789
X-1.912 Y-14.844
X-1.711 Y-14.87
X-0.503 Y-14.956
X-0.302 Y-14.967
X0.302
X0.503 Y-14.956
X1.711 Y-14.87
X1.912 Y-14.844
X2.314 Y-14.789
X2.516 Y-14.757
X3.723 Y-14.494
X3.924 Y-14.445
X4.327 Y-14.338
X4.528 Y-14.272
X5.937 Y-13.746
X6.138 Y-13.667
X6.325 Y-13.585
X7.95 Y-12.697
X8.134 Y-12.579
X8.553 Y-12.275
X8.688 Y-12.176
X9.495 Y-11.572
X9.56 Y-11.523
X9.962 Y-11.167
X10.163 Y-10.985
X10.985 Y-10.163
X11.17 Y-9.959
X11.523 Y-9.56
X11.572 Y-9.495
X12.176 Y-8.688
X12.275 Y-8.553
X12.579 Y-8.134
X12.697 Y-7.95
X13.585 Y-6.325
X13.667 Y-6.138
X13.746 Y-5.937
X14.272 Y-4.528
X14.338 Y-4.327
X14.445 Y-3.924
X14.494 Y-3.723
X14.757 Y-2.516
X14.789 Y-2.314
X14.844 Y-1.912
X14.87 Y-1.711
X14.956 Y-0.503
X14.967 Y-0.302
Y0.302
X14.956 Y0.503
X14.87 Y1.711
X14.844 Y1.912
X14.789 Y2.314
X14.757 Y2.516
X14.494 Y3.723
X14.445 Y3.924
X14.338 Y4.327
X14.272 Y4.528
X13.746 Y5.937
X13.667 Y6.138
X13.585 Y6.325
X12.697 Y7.95
X12.579 Y8.134
X12.275 Y8.553
X12.176 Y8.688
X11.572 Y9.495
X11.523 Y9.56
X11.167 Y9.962
X10.985 Y10.163
X10.163 Y10.985
X9.959 Y11.17
X9.56 Y11.523
X9.495 Y11.572
X8.688 Y12.176
X8.553 Y12.275
X8.134 Y12.579
X7.95 Y12.697
X6.325 Y13.585
X6.138 Y13.667
X5.937 Y13.746
X4.528 Y14.272
X4.327 Y14.338
X3.924 Y14.445
X3.723 Y14.494
X2.516 Y14.757
X2.314 Y14.789
X1.912 Y14.844
X1.711 Y14.87
X0.503 Y14.956
X0.302 Y14.967
X-0.302
X-0.503 Y14.956
X-1.711 Y14.87
X-1.912 Y14.844
X-2.314 Y14.789
X-2.516 Y14.757
X-3.723 Y14.494
X-3.924 Y14.445
X-4.327 Y14.338
X-4.528 Y14.272
X-5.937 Y13.746
X-6.138 Y13.667
X-6.325 Y13.585
X-7.95 Y12.697
X-8.134 Y12.579
X-8.553 Y12.275
X-8.688 Y12.176
X-9.495 Y11.572
X-9.56 Y11.523
X-9.962 Y11.167
X-10.163 Y10.985
X-10.985 Y10.163
X-11.17 Y9.959
X-11.523 Y9.56
X-11.572 Y9.495
X-12.176 Y8.688
X-12.275 Y8.553
X-12.579 Y8.134
X-12.697 Y7.95
X-12.963 Y7.464
X-12.998 Y7.378
X-13.019 Y7.288
X-13.026 Y7.195 Z-9.993
X-13.013 Y7.121 Z-9.975
X-13. Y7.049 Z-9.949
X-12.987 Y6.981 Z-9.913
X-12.953 Y6.926 Z-9.866
X-12.923 Y6.875 Z-9.812
X-12.896 Y6.832 Z-9.75
X-12.875 Y6.796 Z-9.681
X-12.847 Y6.769 Z-9.592
X-12.831 Y6.752 Z-9.497
X-12.825 Y6.746 Z-9.4
G0 Z5.
X-34.395 Y-33.548
Z-10.8
G1 Z-11.4 F1440.
X-34.388 Y-33.544 Z-11.494
X-34.369 Y-33.533 Z-11.585
X-34.338 Y-33.514 Z-11.672
X-34.296 Y-33.489 Z-11.753
X-34.243 Y-33.458 Z-11.824
X-34.182 Y-33.422 Z-11.885
X-34.113 Y-33.381 Z-11.935
X-34.038 Y-33.336 Z-11.971
X-33.959 Y-33.29 Z-11.993
X-33.878 Y-33.242 Z-12.
G3 X-31.237 Y-31.264 I-7.805 J13.18
G1 X-31.158 Y-31.185
X-30.976 Y-30.892
X-30.782 Y-30.515
X-30.577 Y-30.023
X-30.363 Y-29.364
X-30.158 Y-28.502
X-30.017 Y-27.627
X-29.92 Y-26.746
X-29.853 Y-25.862
X-29.806 Y-24.977
X-29.773 Y-24.092
X-29.751 Y-23.206
X-29.735 Y-22.32
X-29.728 Y-21.771
X-29.752 Y-21.497
X-29.828 Y-21.233
X-29.955 Y-20.989
X-31.365 Y-18.817
X-31.614 Y-18.415
X-31.619 Y-18.408
G2 X-31.822 Y-18.145 I1.403 J1.29
G1 X-31.862 Y-18.072
X-31.891 Y-17.993
X-31.971 Y-17.728
X-32.016 Y-17.575
X-32.097 Y-17.306
X-32.115 Y-17.224
X-32.122 Y-17.141
G2 X-32.097 Y-16.81 I1.906 J0.023
G1 X-32.096 Y-16.805
X-32.088 Y-16.604
X-32.069 Y-16.402
X-32.037 Y-16.201
X-31.986 Y-16.
X-31.924 Y-15.799
X-31.899 Y-15.734
X-31.845 Y-15.597
X-31.748 Y-15.396
X-31.698 Y-15.309
X-31.628 Y-15.195
X-31.497 Y-15.006
X-31.324 Y-14.792
X-31.23 Y-14.676
X-31.053 Y-14.412
X-30.864 Y-14.073
X-30.664 Y-13.633
X-30.453 Y-13.052
X-30.234 Y-12.252
X-30.07 Y-11.381
X-29.956 Y-10.502
X-29.878 Y-9.62
X-29.823 Y-8.735
X-29.786 Y-7.85
X-29.759 Y-6.964
X-29.741 Y-6.078
X-29.728 Y-5.192
X-29.719 Y-4.306
X-29.713 Y-3.42
X-29.709 Y-2.534
X-29.703 Y-0.762
X-29.7 Y1.897
X-29.699 Y8.099
Y12.875
X-29.729 Y13.165
X-29.819 Y13.443
X-29.964 Y13.695
X-30.159 Y13.913
X-30.394 Y14.085
X-30.572 Y14.189
G3 X-31.293 Y14.071 I-0.284 J-0.529
G1 X-31.358 Y14.002 Z-11.993
X-31.42 Y13.935 Z-11.971
X-31.48 Y13.872 Z-11.935
X-31.535 Y13.813 Z-11.885
X-31.584 Y13.761 Z-11.824
X-31.626 Y13.717 Z-11.753
X-31.659 Y13.681 Z-11.672
X-31.684 Y13.655 Z-11.585
X-31.699 Y13.639 Z-11.494
X-31.704 Y13.633 Z-11.4
G0 Z5.
X-32.595 Y-15.317
Z-10.8
G1 Z-11.4 F1440.
X-32.588 Y-15.315 Z-11.494
X-32.566 Y-15.31 Z-11.585
X-32.531 Y-15.301 Z-11.672
X-32.484 Y-15.289 Z-11.753
X-32.424 Y-15.273 Z-11.824
X-32.355 Y-15.256 Z-11.885
X-32.277 Y-15.236 Z-11.935
X-32.193 Y-15.215 Z-11.971
X-32.104 Y-15.192 Z-11.993
X-32.013 Y-15.169 Z-12.
G3 X-31.324 Y-14.792 I-0.39 J1.534
G1 X-31.094 Y-14.562
X-30.879 Y-14.39
X-30.692 Y-14.259
X-30.227 Y-13.987
X-30.088 Y-13.907
X-29.924 Y-13.801
X-29.744 Y-13.663
X-29.547 Y-13.485
X-29.348 Y-13.275
X-29.129 Y-13.001
X-28.906 Y-12.673
X-28.668 Y-12.252
X-28.428 Y-11.736
X-28.179 Y-11.063
X-27.94 Y-10.21
X-27.765 Y-9.341
X-27.638 Y-8.464
X-27.545 Y-7.583
X-27.478 Y-6.699
X-27.428 Y-5.815
X-27.425 Y-5.735
X-27.426 Y-5.61
X-27.438 Y-5.485
X-27.461 Y-5.362
G3 X-28.611 Y-5.299 I-0.584 J-0.136
G1 X-31.41 Y-13.294
G3 X-30.851 Y-14.092 I0.566 J-0.198
X-30.088 Y-13.907 I0.02 J1.582
G1 X-28.075 Y-12.745
X-27.818 Y-12.579
X-27.601 Y-12.413
X-27.39 Y-12.222
X-27.155 Y-11.973
X-26.913 Y-11.671
X-26.659 Y-11.297
X-26.399 Y-10.837
X-26.311 Y-10.648
X-26.221 Y-10.389
X-26.182 Y-10.118
X-26.197 Y-9.844
X-26.265 Y-9.579
G3 X-27.328 Y-9.482 I-0.556 J-0.225
G1 X-28.863 Y-11.893
G3 X-28.075 Y-12.745 I0.506 J-0.322
G1 X-26.063 Y-11.583
X-26.046 Y-11.572
X-25.954 Y-11.5
X-25.902 Y-11.445
X-25.861 Y-11.39
X-25.85 Y-11.371
X-25.823 Y-11.321
X-25.801 Y-11.27
X-25.774 Y-11.17
X-25.764 Y-11.069
X-25.772 Y-10.968
X-25.797 Y-10.868
X-26.712 Y-8.352
X-26.781 Y-8.151
X-26.943 Y-7.547
X-27.42 Y-5.535
X-27.561 Y-4.931
X-27.615 Y-4.528
X-27.642 Y-4.327
X-27.736 Y-3.522
X-27.901 Y-2.113
X-27.944 Y-1.711
X-27.952 Y-1.509
X-27.957 Y-1.107
X-27.958 Y-0.906
Y0.906
X-27.955 Y1.308
X-27.952 Y1.509
X-27.944 Y1.711
X-27.901 Y2.113
X-27.666 Y4.126
X-27.642 Y4.327
X-27.569 Y5.21
X-27.487 Y6.092
X-27.43 Y6.977
X-27.39 Y7.862
X-27.362 Y8.748
X-27.343 Y9.634
X-27.33 Y10.52
X-27.334 Y11.406
X-27.352 Y11.628
X-27.399 Y11.894
X-27.497 Y12.147
X-27.641 Y12.375
X-27.827 Y12.572
X-28.047 Y12.729
G3 X-28.768 Y12.608 I-0.282 J-0.53
G1 X-28.832 Y12.54 Z-11.993
X-28.894 Y12.473 Z-11.971
X-28.953 Y12.409 Z-11.935
X-29.008 Y12.35 Z-11.885
X-29.057 Y12.298 Z-11.824
X-29.099 Y12.253 Z-11.753
X-29.132 Y12.217 Z-11.672
X-29.157 Y12.191 Z-11.585
X-29.172 Y12.175 Z-11.494
X-29.177 Y12.17 Z-11.4
G0 Z5.
X-28.332 Y3.138
Z-10.8
G1 Z-11.4 F1440.
X-28.327 Y3.144 Z-11.494
X-28.313 Y3.161 Z-11.585
X-28.291 Y3.189 Z-11.672
X-28.261 Y3.228 Z-11.753
X-28.223 Y3.276 Z-11.824
X-28.178 Y3.332 Z-11.885
X-28.129 Y3.395 Z-11.935
X-28.075 Y3.463 Z-11.971
X-28.018 Y3.535 Z-11.993
X-27.96 Y3.609 Z-12.
G3 X-27.642 Y4.327 I-1.242 J0.98
G1 X-27.588 Y4.73
X-27.561 Y4.931
X-27.42 Y5.535
X-26.943 Y7.547
X-26.781 Y8.151
X-26.712 Y8.352
X-26.063 Y10.136
X-25.94 Y10.534
X-25.911 Y10.787
X-25.936 Y11.041
X-26.014 Y11.284
X-26.14 Y11.505
X-26.31 Y11.695
X-26.517 Y11.845
G3 X-27.388 Y11.205 I-0.282 J-0.53
G1 X-27.209 Y10.25
G3 X-26.063 Y10.136 I0.59 J0.111
G1 X-25.797 Y10.868
X-25.772 Y10.968
X-25.764 Y11.069
X-25.774 Y11.17
X-25.801 Y11.27
X-25.823 Y11.321
X-25.85 Y11.371
X-25.861 Y11.39
X-25.902 Y11.445
X-25.954 Y11.5
X-26.046 Y11.572
X-26.063 Y11.583
X-30.289 Y14.024
X-30.394 Y14.085
X-30.402 Y14.088
G2 X-31.176 Y14.521 I0.839 J2.41
G1 X-31.224 Y14.565
X-31.268 Y14.614
X-31.306 Y14.668
X-31.973 Y15.736
X-32.004 Y15.794
X-32.029 Y15.854
X-32.048 Y15.917
G2 X-32.097 Y16.802 I2.485 J0.581
G1 X-32.096 Y16.805
X-32.089 Y17.006
X-32.067 Y17.207
X-32.032 Y17.409
X-31.987 Y17.61
X-31.916 Y17.811
X-31.832 Y18.012
X-31.738 Y18.214
X-31.49 Y18.616
X-31.365 Y18.817
X-31.104 Y19.22
X-30.907 Y19.56
X-30.709 Y19.974
X-30.5 Y20.519
X-30.283 Y21.261
X-30.103 Y22.129
X-29.979 Y23.006
X-29.894 Y23.888
X-29.835 Y24.772
X-29.793 Y25.658
X-29.765 Y26.543
X-29.613 Y26.959
X-29.13 Y27.703
X-28.444 Y28.264
X-27.66 Y28.675
X-26.825 Y28.973
X-25.965 Y29.187
X-25.092 Y29.338
X-24.212 Y29.446
X-23.329 Y29.521
X-22.445 Y29.574
X-21.897 Y29.597
X-21.649 Y29.63
X-21.411 Y29.706
X-21.191 Y29.823
X-19.545 Y30.893
X-18.817 Y31.365
X-18.415 Y31.614
X-18.408 Y31.619
G2 X-18.145 Y31.822 I1.29 J-1.403
G1 X-18.072 Y31.862
X-17.993 Y31.891
X-17.728 Y31.971
X-17.575 Y32.016
X-17.306 Y32.097
X-17.224 Y32.115
X-17.141 Y32.122
G2 X-16.81 Y32.097 I0.023 J-1.906
G1 X-16.805 Y32.096
X-16.604 Y32.088
X-16.402 Y32.069
X-16.201 Y32.037
X-16. Y31.986
X-15.799 Y31.924
X-15.734 Y31.899
X-15.597 Y31.845
X-15.396 Y31.748
X-15.309 Y31.698
X-15.195 Y31.628
X-15.006 Y31.497
X-14.792 Y31.324
X-14.676 Y31.23
X-14.412 Y31.053
X-14.073 Y30.864
X-13.633 Y30.664
X-13.052 Y30.453
X-12.252 Y30.234
X-11.381 Y30.07
X-10.502 Y29.956
X-9.62 Y29.878
X-8.735 Y29.823
X-7.85 Y29.786
X-6.964 Y29.759
X-6.078 Y29.741
X-5.192 Y29.728
X-4.306 Y29.719
X-3.42 Y29.713
X-2.534 Y29.709
X-0.762 Y29.703
X1.897 Y29.7
X8.099 Y29.699
X12.875
X13.165 Y29.729
X13.443 Y29.819
X13.695 Y29.964
X13.913 Y30.159
X14.085 Y30.394
X14.189 Y30.572
G3 X14.071 Y31.293 I-0.529 J0.284
G1 X14.002 Y31.358 Z-11.993
X13.935 Y31.42 Z-11.971
X13.872 Y31.48 Z-11.935
X13.813 Y31.535 Z-11.885
X13.761 Y31.584 Z-11.824
X13.717 Y31.626 Z-11.753
X13.681 Y31.659 Z-11.672
X13.655 Y31.684 Z-11.585
X13.639 Y31.699 Z-11.494
X13.633 Y31.704 Z-11.4
G0 Z5.
X-15.317 Y32.595
Z-10.8
G1 Z-11.4 F1440.
X-15.315 Y32.588 Z-11.494
X-15.31 Y32.566 Z-11.585
X-15.301 Y32.531 Z-11.672
X-15.289 Y32.484 Z-11.753
X-15.273 Y32.424 Z-11.824
X-15.256 Y32.355 Z-11.885
X-15.236 Y32.277 Z-11.935
X-15.215 Y32.193 Z-11.971
X-15.192 Y32.104 Z-11.993
X-15.169 Y32.013 Z-12.
G3 X-14.792 Y31.324 I1.534 J0.39
G1 X-14.562 Y31.094
X-14.39 Y30.879
X-14.259 Y30.692
X-13.987 Y30.227
X-13.907 Y30.088
X-13.801 Y29.924
X-13.663 Y29.744
X-13.485 Y29.547
X-13.275 Y29.348
X-13.001 Y29.129
X-12.673 Y28.906
X-12.252 Y28.668
X-11.736 Y28.428
X-11.063 Y28.179
X-10.21 Y27.94
X-9.341 Y27.765
X-8.464 Y27.638
X-7.583 Y27.545
X-6.699 Y27.478
X-5.815 Y27.428
X-5.735 Y27.425
X-5.61 Y27.426
X-5.485 Y27.438
X-5.362 Y27.461
G3 X-5.299 Y28.611 I-0.136 J0.584
G1 X-13.294 Y31.41
G3 X-14.092 Y30.851 I-0.198 J-0.566
X-13.907 Y30.088 I1.582 J-0.02
G1 X-12.745 Y28.075
X-12.579 Y27.818
X-12.413 Y27.601
X-12.222 Y27.39
X-11.973 Y27.155
X-11.671 Y26.913
X-11.297 Y26.659
X-10.837 Y26.399
X-10.648 Y26.311
X-10.389 Y26.221
X-10.118 Y26.182
X-9.844 Y26.197
X-9.579 Y26.265
G3 X-9.482 Y27.328 I-0.225 J0.556
G1 X-11.893 Y28.863
G3 X-12.745 Y28.075 I-0.322 J-0.506
G1 X-11.583 Y26.063
X-11.572 Y26.046
X-11.5 Y25.954
X-11.445 Y25.902
X-11.39 Y25.861
X-11.371 Y25.85
X-11.321 Y25.823
X-11.27 Y25.801
X-11.17 Y25.774
X-11.069 Y25.764
X-10.968 Y25.772
X-10.868 Y25.797
X-8.352 Y26.712
X-8.151 Y26.781
X-7.547 Y26.943
X-5.535 Y27.42
X-4.931 Y27.561
X-4.528 Y27.615
X-4.327 Y27.642
X-3.522 Y27.736
X-2.113 Y27.901
X-1.711 Y27.944
X-1.509 Y27.952
X-1.107 Y27.957
X-0.906 Y27.958
X0.906
X1.308 Y27.955
X1.509 Y27.952
X1.711 Y27.944
X2.113 Y27.901
X4.126 Y27.666
X4.327 Y27.642
X5.21 Y27.569
X6.092 Y27.487
X6.977 Y27.43
X7.862 Y27.39
X8.748 Y27.362
X9.634 Y27.343
X10.52 Y27.33
X11.406 Y27.334
X11.628 Y27.352
X11.894 Y27.399
X12.147 Y27.497
X12.375 Y27.641
X12.572 Y27.827
X12.729 Y28.047
G3 X12.608 Y28.768 I-0.53 J0.282
G1 X12.54 Y28.832 Z-11.993
X12.473 Y28.894 Z-11.971
X12.409 Y28.953 Z-11.935
X12.35 Y29.008 Z-11.885
X12.298 Y29.057 Z-11.824
X12.253 Y29.099 Z-11.753
X12.217 Y29.132 Z-11.672
X12.191 Y29.157 Z-11.585
X12.175 Y29.172 Z-11.494
X12.17 Y29.177 Z-11.4
G0 Z5.
X3.138 Y28.332
Z-10.8
G1 Z-11.4 F1440.
X3.144 Y28.327 Z-11.494
X3.161 Y28.313 Z-11.585
X3.189 Y28.291 Z-11.672
X3.228 Y28.261 Z-11.753
X3.276 Y28.223 Z-11.824
X3.332 Y28.178 Z-11.885
X3.395 Y28.129 Z-11.935
X3.463 Y28.075 Z-11.971
X3.535 Y28.018 Z-11.993
X3.609 Y27.96 Z-12.
G3 X4.327 Y27.642 I0.98 J1.242
G1 X4.73 Y27.588
X4.931 Y27.561
X5.535 Y27.42
X7.547 Y26.943
X8.151 Y26.781
X8.352 Y26.712
X10.136 Y26.063
X10.534 Y25.94
X10.787 Y25.911
X11.041 Y25.936
X11.284 Y26.014
X11.505 Y26.14
X11.695 Y26.31
X11.845 Y26.517
G3 X11.205 Y27.388 I-0.53 J0.282
G1 X10.25 Y27.209
G3 X10.136 Y26.063 I0.111 J-0.59
G1 X10.868 Y25.797
X10.968 Y25.772
X11.069 Y25.764
X11.17 Y25.774
X11.27 Y25.801
X11.321 Y25.823
X11.371 Y25.85
X11.39 Y25.861
X11.445 Y25.902
X11.5 Y25.954
X11.572 Y26.046
X11.583 Y26.063
X14.024 Y30.289
X14.085 Y30.394
X14.088 Y30.402
G2 X14.521 Y31.176 I2.41 J-0.839
G1 X14.565 Y31.224
X14.614 Y31.268
X14.668 Y31.306
X15.736 Y31.973
X15.794 Y32.004
X15.854 Y32.029
X15.917 Y32.048
G2 X16.802 Y32.097 I0.581 J-2.485
G1 X16.805 Y32.096
X17.006 Y32.089
X17.207 Y32.067
X17.409 Y32.032
X17.61 Y31.987
X17.811 Y31.916
X18.012 Y31.832
X18.214 Y31.738
X18.616 Y31.49
X18.817 Y31.365
X19.22 Y31.104
X19.56 Y30.907
X19.974 Y30.709
X20.519 Y30.5
X21.261 Y30.283
X22.129 Y30.103
X23.006 Y29.979
X23.888 Y29.894
X24.772 Y29.835
X25.658 Y29.793
X26.543 Y29.765
X26.959 Y29.613
X27.703 Y29.13
X28.264 Y28.444
X28.675 Y27.66
X28.973 Y26.825
X29.187 Y25.965
X29.338 Y25.092
X29.446 Y24.212
X29.521 Y23.329
X29.574 Y22.445
X29.597 Y21.897
X29.63 Y21.649
X29.706 Y21.411
X29.823 Y21.191
X30.893 Y19.545
X31.365 Y18.817
X31.614 Y18.415
X31.619 Y18.408
G2 X31.822 Y18.145 I-1.403 J-1.29
G1 X31.862 Y18.072
X31.891 Y17.993
X31.971 Y17.728
X32.016 Y17.575
X32.097 Y17.306
X32.115 Y17.224
X32.122 Y17.141
G2 X32.097 Y16.81 I-1.906 J-0.023
G1 X32.096 Y16.805
X32.088 Y16.604
X32.069 Y16.402
X32.037 Y16.201
X31.986 Y16.
X31.924 Y15.799
X31.899 Y15.734
X31.845 Y15.597
X31.748 Y15.396
X31.698 Y15.309
X31.628 Y15.195
X31.497 Y15.006
X31.324 Y14.792
X31.23 Y14.676
X31.053 Y14.412
X30.864 Y14.073
X30.664 Y13.633
X30.453 Y13.052
X30.234 Y12.252
X30.07 Y11.381
X29.956 Y10.502
X29.878 Y9.62
X29.823 Y8.735
X29.786 Y7.85
X29.759 Y6.964
X29.741 Y6.078
X29.728 Y5.192
X29.719 Y4.306
X29.713 Y3.42
X29.709 Y2.534
X29.703 Y0.762
X29.7 Y-1.897
X29.699 Y-8.099
Y-12.875
X29.729 Y-13.165
X29.819 Y-13.443
X29.964 Y-13.695
X30.159 Y-13.913
X30.394 Y-14.085
X30.572 Y-14.189
G3 X31.293 Y-14.071 I0.284 J0.529
G1 X31.358 Y-14.002 Z-11.993
X31.42 Y-13.935 Z-11.971
X31.48 Y-13.872 Z-11.935
X31.535 Y-13.813 Z-11.885
X31.584 Y-13.761 Z-11.824
X31.626 Y-13.717 Z-11.753
X31.659 Y-13.681 Z-11.672
X31.684 Y-13.655 Z-11.585
X31.699 Y-13.639 Z-11.494
X31.704 Y-13.633 Z-11.4
G0 Z5.
X32.595 Y15.317
Z-10.8
G1 Z-11.4 F1440.
X32.588 Y15.315 Z-11.494
X32.566 Y15.31 Z-11.585
X32.531 Y15.301 Z-11.672
X32.484 Y15.289 Z-11.753
X32.424 Y15.273 Z-11.824
X32.355 Y15.256 Z-11.885
X32.277 Y15.236 Z-11.935
X32.193 Y15.215 Z-11.971
X32.104 Y15.192 Z-11.993
X32.013 Y15.169 Z-12.
G3 X31.324 Y14.792 I0.39 J-1.534
G1 X31.094 Y14.562
X30.879 Y14.39
X30.692 Y14.259
X30.227 Y13.987
X30.088 Y13.907
X29.924 Y13.801
X29.744 Y13.663
X29.547 Y13.485
X29.348 Y13.275
X29.129 Y13.001
X28.906 Y12.673
X28.668 Y12.252
X28.428 Y11.736
X28.179 Y11.063
X27.94 Y10.21
X27.765 Y9.341
X27.638 Y8.464
X27.545 Y7.583
X27.478 Y6.699
X27.428 Y5.815
X27.425 Y5.735
X27.426 Y5.61
X27.438 Y5.485
X27.461 Y5.362
G3 X28.611 Y5.299 I0.584 J0.136
G1 X31.41 Y13.294
G3 X30.851 Y14.092 I-0.566 J0.198
X30.088 Y13.907 I-0.02 J-1.582
G1 X28.075 Y12.745
X27.818 Y12.579
X27.601 Y12.413
X27.39 Y12.222
X27.155 Y11.973
X26.913 Y11.671
X26.659 Y11.297
X26.399 Y10.837
X26.311 Y10.648
X26.221 Y10.389
X26.182 Y10.118
X26.197 Y9.844
X26.265 Y9.579
G3 X27.328 Y9.482 I0.556 J0.225
G1 X28.863 Y11.893
G3 X28.075 Y12.745 I-0.506 J0.322
G1 X26.063 Y11.583
X26.046 Y11.572
X25.954 Y11.5
X25.902 Y11.445
X25.861 Y11.39
X25.85 Y11.371
X25.823 Y11.321
X25.801 Y11.27
X25.774 Y11.17
X25.764 Y11.069
X25.772 Y10.968
X25.797 Y10.868
X26.712 Y8.352
X26.781 Y8.151
X26.943 Y7.547
X27.42 Y5.535
X27.561 Y4.931
X27.615 Y4.528
X27.642 Y4.327
X27.736 Y3.522
X27.901 Y2.113
X27.944 Y1.711
X27.952 Y1.509
X27.957 Y1.107
X27.958 Y0.906
Y-0.906
X27.955 Y-1.308
X27.952 Y-1.509
X27.944 Y-1.711
X27.901 Y-2.113
X27.666 Y-4.126
X27.642 Y-4.327
X27.569 Y-5.21
X27.487 Y-6.092
X27.43 Y-6.977
X27.39 Y-7.862
X27.362 Y-8.748
X27.343 Y-9.634
X27.33 Y-10.52
X27.334 Y-11.406
X27.352 Y-11.628
X27.399 Y-11.894
X27.497 Y-12.147
X27.641 Y-12.375
X27.827 Y-12.572
X28.047 Y-12.729
G3 X28.768 Y-12.608 I0.282 J0.53
G1 X28.832 Y-12.54 Z-11.993
X28.894 Y-12.473 Z-11.971
X28.953 Y-12.409 Z-11.935
X29.008 Y-12.35 Z-11.885
X29.057 Y-12.298 Z-11.824
X29.099 Y-12.253 Z-11.753
X29.132 Y-12.217 Z-11.672
X29.157 Y-12.191 Z-11.585
X29.172 Y-12.175 Z-11.494
X29.177 Y-12.17 Z-11.4
G0 Z5.
X28.332 Y-3.138
Z-10.8
G1 Z-11.4 F1440.
X28.327 Y-3.144 Z-11.494
X28.313 Y-3.161 Z-11.585
X28.291 Y-3.189 Z-11.672
X28.261 Y-3.228 Z-11.753
X28.223 Y-3.276 Z-11.824
X28.178 Y-3.332 Z-11.885
X28.129 Y-3.395 Z-11.935
X28.075 Y-3.463 Z-11.971
X28.018 Y-3.535 Z-11.993
X27.96 Y-3.609 Z-12.
G3 X27.642 Y-4.327 I1.242 J-0.98
G1 X27.588 Y-4.73
X27.561 Y-4.931
X27.42 Y-5.535
X26.943 Y-7.547
X26.781 Y-8.151
X26.712 Y-8.352
X26.063 Y-10.136
X25.94 Y-10.534
X25.911 Y-10.787
X25.936 Y-11.041
X26.014 Y-11.284
X26.14 Y-11.505
X26.31 Y-11.695
X26.517 Y-11.845
G3 X27.388 Y-11.205 I0.282 J0.53
G1 X27.209 Y-10.25
G3 X26.063 Y-10.136 I-0.59 J-0.111
G1 X25.797 Y-10.868
X25.772 Y-10.968
X25.764 Y-11.069
X25.774 Y-11.17
X25.801 Y-11.27
X25.823 Y-11.321
X25.85 Y-11.371
X25.861 Y-11.39
X25.902 Y-11.445
X25.954 Y-11.5
X26.046 Y-11.572
X26.063 Y-11.583
X30.289 Y-14.024
X30.394 Y-14.085
X30.402 Y-14.088
G2 X31.176 Y-14.521 I-0.839 J-2.41
G1 X31.224 Y-14.565
X31.268 Y-14.614
X31.306 Y-14.668
X31.973 Y-15.736
X32.004 Y-15.794
X32.029 Y-15.854
X32.048 Y-15.917
G2 X32.097 Y-16.802 I-2.485 J-0.581
G1 X32.096 Y-16.805
X32.089 Y-17.006
X32.067 Y-17.207
X32.032 Y-17.409
X31.987 Y-17.61
X31.916 Y-17.811
X31.832 Y-18.012
X31.738 Y-18.214
X31.49 Y-18.616
X31.365 Y-18.817
X31.104 Y-19.22
X30.907 Y-19.56
X30.709 Y-19.974
X30.5 Y-20.519
X30.283 Y-21.261
X30.103 Y-22.129
X29.979 Y-23.006
X29.894 Y-23.888
X29.835 Y-24.772
X29.793 Y-25.658
X29.765 Y-26.543
X29.613 Y-26.959
X29.13 Y-27.703
X28.444 Y-28.264
X27.66 Y-28.675
X26.825 Y-28.973
X25.965 Y-29.187
X25.092 Y-29.338
X24.212 Y-29.446
X23.329 Y-29.521
X22.445 Y-29.574
X21.897 Y-29.597
X21.649 Y-29.63
X21.411 Y-29.706
X21.191 Y-29.823
X19.545 Y-30.893
X18.817 Y-31.365
X18.415 Y-31.614
X18.408 Y-31.619
G2 X18.145 Y-31.822 I-1.29 J1.403
G1 X18.072 Y-31.862
X17.993 Y-31.891
X17.728 Y-31.971
X17.575 Y-32.016
X17.306 Y-32.097
X17.224 Y-32.115
X17.141 Y-32.122
G2 X16.81 Y-32.097 I-0.023 J1.906
G1 X16.805 Y-32.096
X16.604 Y-32.088
X16.402 Y-32.069
X16.201 Y-32.037
X16. Y-31.986
X15.799 Y-31.924
X15.734 Y-31.899
X15.597 Y-31.845
X15.396 Y-31.748
X15.309 Y-31.698
X15.195 Y-31.628
X15.006 Y-31.497
X14.792 Y-31.324
X14.676 Y-31.23
X14.412 Y-31.053
X14.073 Y-30.864
X13.633 Y-30.664
X13.052 Y-30.453
X12.252 Y-30.234
X11.381 Y-30.07
X10.502 Y-29.956
X9.62 Y-29.878
X8.735 Y-29.823
X7.85 Y-29.786
X6.964 Y-29.759
X6.078 Y-29.741
X5.192 Y-29.728
X4.306 Y-29.719
X3.42 Y-29.713
X2.534 Y-29.709
X0.762 Y-29.703
X-1.897 Y-29.7
X-8.099 Y-29.699
X-12.875
X-13.165 Y-29.729
X-13.443 Y-29.819
X-13.695 Y-29.964
X-13.913 Y-30.159
X-14.085 Y-30.394
X-14.189 Y-30.572
G3 X-14.071 Y-31.293 I0.529 J-0.284
G1 X-14.002 Y-31.358 Z-11.993
X-13.935 Y-31.42 Z-11.971
X-13.872 Y-31.48 Z-11.935
X-13.813 Y-31.535 Z-11.885
X-13.761 Y-31.584 Z-11.824
X-13.717 Y-31.626 Z-11.753
X-13.681 Y-31.659 Z-11.672
X-13.655 Y-31.684 Z-11.585
X-13.639 Y-31.699 Z-11.494
X-13.633 Y-31.704 Z-11.4
G0 Z5.
X15.317 Y-32.595
Z-10.8
G1 Z-11.4 F1440.
X15.315 Y-32.588 Z-11.494
X15.31 Y-32.566 Z-11.585
X15.301 Y-32.531 Z-11.672
X15.289 Y-32.484 Z-11.753
X15.273 Y-32.424 Z-11.824
X15.256 Y-32.355 Z-11.885
X15.236 Y-32.277 Z-11.935
X15.215 Y-32.193 Z-11.971
X15.192 Y-32.104 Z-11.993
X15.169 Y-32.013 Z-12.
G3 X14.792 Y-31.324 I-1.534 J-0.39
G1 X14.562 Y-31.094
X14.39 Y-30.879
X14.259 Y-30.692
X13.987 Y-30.227
X13.907 Y-30.088
X13.801 Y-29.924
X13.663 Y-29.744
X13.485 Y-29.547
X13.275 Y-29.348
X13.001 Y-29.129
X12.673 Y-28.906
X12.252 Y-28.668
X11.736 Y-28.428
X11.063 Y-28.179
X10.21 Y-27.94
X9.341 Y-27.765
X8.464 Y-27.638
X7.583 Y-27.545
X6.699 Y-27.478
X5.815 Y-27.428
X5.735 Y-27.425
X5.61 Y-27.426
X5.485 Y-27.438
X5.362 Y-27.461
G3 X5.299 Y-28.611 I0.136 J-0.584
G1 X13.294 Y-31.41
G3 X14.092 Y-30.851 I0.198 J0.566
X13.907 Y-30.088 I-1.582 J0.02
G1 X12.745 Y-28.075
X12.579 Y-27.818
X12.413 Y-27.601
X12.222 Y-27.39
X11.973 Y-27.155
X11.671 Y-26.913
X11.297 Y-26.659
X10.837 Y-26.399
X10.648 Y-26.311
X10.389 Y-26.221
X10.118 Y-26.182
X9.844 Y-26.197
X9.579 Y-26.265
G3 X9.482 Y-27.328 I0.225 J-0.556
G1 X11.893 Y-28.863
G3 X12.745 Y-28.075 I0.322 J0.506
G1 X11.583 Y-26.063
X11.572 Y-26.046
X11.5 Y-25.954
X11.445 Y-25.902
X11.39 Y-25.861
X11.371 Y-25.85
X11.321 Y-25.823
X11.27 Y-25.801
X11.17 Y-25.774
X11.069 Y-25.764
X10.968 Y-25.772
X10.868 Y-25.797
X8.352 Y-26.712
X8.151 Y-26.781
X7.547 Y-26.943
X5.535 Y-27.42
X4.931 Y-27.561
X4.528 Y-27.615
X4.327 Y-27.642
X3.522 Y-27.736
X2.113 Y-27.901
X1.711 Y-27.944
X1.509 Y-27.952
X1.107 Y-27.957
X0.906 Y-27.958
X-0.906
X-1.308 Y-27.955
X-1.509 Y-27.952
X-1.711 Y-27.944
X-2.113 Y-27.901
X-4.126 Y-27.666
X-4.327 Y-27.642
X-5.21 Y-27.569
X-6.092 Y-27.487
X-6.977 Y-27.43
X-7.862 Y-27.39
X-8.748 Y-27.362
X-9.634 Y-27.343
X-10.52 Y-27.33
X-11.406 Y-27.334
X-11.628 Y-27.352
X-11.894 Y-27.399
X-12.147 Y-27.497
X-12.375 Y-27.641
X-12.572 Y-27.827
X-12.729 Y-28.047
G3 X-12.608 Y-28.768 I0.53 J-0.282
G1 X-12.54 Y-28.832 Z-11.993
X-12.473 Y-28.894 Z-11.971
X-12.409 Y-28.953 Z-11.935
X-12.35 Y-29.008 Z-11.885
X-12.298 Y-29.057 Z-11.824
X-12.253 Y-29.099 Z-11.753
X-12.217 Y-29.132 Z-11.672
X-12.191 Y-29.157 Z-11.585
X-12.175 Y-29.172 Z-11.494
X-12.17 Y-29.177 Z-11.4
G0 Z5.
X-3.138 Y-28.332
Z-10.8
G1 Z-11.4 F1440.
X-3.144 Y-28.327 Z-11.494
X-3.161 Y-28.313 Z-11.585
X-3.189 Y-28.291 Z-11.672
X-3.228 Y-28.261 Z-11.753
X-3.276 Y-28.223 Z-11.824
X-3.332 Y-28.178 Z-11.885
X-3.395 Y-28.129 Z-11.935
X-3.463 Y-28.075 Z-11.971
X-3.535 Y-28.018 Z-11.993
X-3.609 Y-27.96 Z-12.
G3 X-4.327 Y-27.642 I-0.98 J-1.242
G1 X-4.73 Y-27.588
X-4.931 Y-27.561
X-5.535 Y-27.42
X-7.547 Y-26.943
X-8.151 Y-26.781
X-8.352 Y-26.712
X-10.136 Y-26.063
X-10.534 Y-25.94
X-10.787 Y-25.911
X-11.041 Y-25.936
X-11.284 Y-26.014
X-11.505 Y-26.14
X-11.695 Y-26.31
X-11.845 Y-26.517
G3 X-11.205 Y-27.388 I0.53 J-0.282
G1 X-10.25 Y-27.209
G3 X-10.136 Y-26.063 I-0.111 J0.59
G1 X-10.868 Y-25.797
X-10.968 Y-25.772
X-11.069 Y-25.764
X-11.17 Y-25.774
X-11.27 Y-25.801
X-11.321 Y-25.823
X-11.371 Y-25.85
X-11.39 Y-25.861
X-11.445 Y-25.902
X-11.5 Y-25.954
X-11.572 Y-26.046
X-11.583 Y-26.063
X-14.024 Y-30.289
X-14.085 Y-30.394
X-14.088 Y-30.402
G2 X-14.521 Y-31.176 I-2.41 J0.839
G1 X-14.565 Y-31.224
X-14.614 Y-31.268
X-14.668 Y-31.306
X-15.736 Y-31.973
X-15.794 Y-32.004
X-15.854 Y-32.029
X-15.917 Y-32.048
G2 X-16.802 Y-32.097 I-0.581 J2.485
G1 X-16.805 Y-32.096
X-17.006 Y-32.089
X-17.207 Y-32.067
X-17.409 Y-32.032
X-17.61 Y-31.987
X-17.811 Y-31.916
X-18.012 Y-31.832
X-18.214 Y-31.738
X-18.616 Y-31.49
X-18.817 Y-31.365
X-19.22 Y-31.104
X-19.56 Y-30.907
X-19.974 Y-30.709
X-20.519 Y-30.5
X-21.261 Y-30.283
X-22.129 Y-30.103
X-23.006 Y-29.979
X-23.888 Y-29.894
X-24.33 Y-29.864
X-24.551 Y-29.842
X-24.765 Y-29.785
X-25.17 Y-29.606
X-25.828 Y-29.012
X-26.296 Y-28.26
X-26.622 Y-27.436
X-26.846 Y-26.578
X-26.998 Y-25.705
X-27.079 Y-25.01
X-27.137 Y-24.738
X-27.244 Y-24.482
X-27.398 Y-24.251
X-29.353 Y-21.836
X-29.51 Y-21.635
X-29.665 Y-21.434
X-29.955 Y-20.989
G3 X-30.652 Y-20.77 I-0.491 J-0.345
G1 X-30.74 Y-20.803 Z-11.993
X-30.826 Y-20.834 Z-11.971
X-30.908 Y-20.864 Z-11.935
X-30.983 Y-20.891 Z-11.885
X-31.05 Y-20.916 Z-11.824
X-31.108 Y-20.937 Z-11.753
X-31.154 Y-20.954 Z-11.672
X-31.188 Y-20.966 Z-11.585
X-31.208 Y-20.974 Z-11.494
X-31.215 Y-20.976 Z-11.4
G0 Z5.
X-18.443 Y-32.238
Z-10.8
G1 Z-11.4 F1440.
X-18.446 Y-32.232 Z-11.494
X-18.456 Y-32.212 Z-11.585
X-18.472 Y-32.179 Z-11.672
X-18.494 Y-32.135 Z-11.753
X-18.521 Y-32.081 Z-11.824
X-18.552 Y-32.016 Z-11.885
X-18.588 Y-31.944 Z-11.935
X-18.626 Y-31.866 Z-11.971
X-18.667 Y-31.784 Z-11.993
X-18.709 Y-31.7 Z-12.
G3 X-19.22 Y-31.104 I-1.419 J-0.7
G1 X-21.094 Y-29.887
X-21.434 Y-29.665
X-21.668 Y-29.484
X-21.836 Y-29.353
X-24.251 Y-27.398
X-24.395 Y-27.27
X-24.654 Y-27.035
X-24.827 Y-26.868
X-26.868 Y-24.827
X-27.035 Y-24.654
X-27.27 Y-24.395
X-27.398 Y-24.251
G3 X-28.119 Y-24.137 I-0.435 J-0.413
G1 X-28.202 Y-24.182 Z-11.993
X-28.282 Y-24.226 Z-11.971
X-28.359 Y-24.267 Z-11.935
X-28.429 Y-24.306 Z-11.885
X-28.492 Y-24.34 Z-11.824
X-28.546 Y-24.369 Z-11.753
X-28.589 Y-24.393 Z-11.672
X-28.621 Y-24.41 Z-11.585
X-28.64 Y-24.42 Z-11.494
X-28.647 Y-24.424 Z-11.4
G0 Z5.
X-32.238 Y18.443
Z-10.8
G1 Z-11.4 F1440.
X-32.232 Y18.446 Z-11.494
X-32.212 Y18.456 Z-11.585
X-32.179 Y18.472 Z-11.672
X-32.135 Y18.494 Z-11.753
X-32.081 Y18.521 Z-11.824
X-32.016 Y18.552 Z-11.885
X-31.944 Y18.588 Z-11.935
X-31.866 Y18.626 Z-11.971
X-31.784 Y18.667 Z-11.993
X-31.7 Y18.709 Z-12.
G3 X-31.104 Y19.22 I-0.7 J1.419
G1 X-29.887 Y21.094
X-29.665 Y21.434
X-29.484 Y21.668
X-29.353 Y21.836
X-29.191 Y22.038
X-28.886 Y22.455
X-28.68 Y22.79
X-28.462 Y23.221
X-28.125 Y24.04
X-27.616 Y24.765
X-26.961 Y25.362
X-26.213 Y25.837
X-25.789 Y26.031
X-25.642 Y26.109
X-25.506 Y26.204
X-25.381 Y26.314
G3 X-25.416 Y27.167 I-0.439 J0.409
X-26.268 Y27.122 I-0.404 J-0.443
G1 X-30.091 Y22.83
G3 X-30.04 Y21.981 I0.448 J-0.399
X-29.191 Y22.038 I0.396 J0.45
G1 X-27.398 Y24.251
X-27.27 Y24.395
X-27.035 Y24.654
X-26.868 Y24.827
X-24.827 Y26.868
X-24.654 Y27.035
X-24.395 Y27.27
X-24.251 Y27.398
X-21.836 Y29.353
X-21.497 Y29.616
X-21.434 Y29.665
X-21.191 Y29.823
G3 X-20.972 Y30.521 I-0.345 J0.491
G1 X-21.005 Y30.609 Z-11.993
X-21.036 Y30.695 Z-11.971
X-21.066 Y30.776 Z-11.935
X-21.094 Y30.852 Z-11.885
X-21.118 Y30.919 Z-11.824
X-21.139 Y30.976 Z-11.753
X-21.156 Y31.023 Z-11.672
X-21.169 Y31.056 Z-11.585
X-21.176 Y31.077 Z-11.494
X-21.179 Y31.084 Z-11.4
G0 Z5.
X18.443 Y32.238
Z-10.8
G1 Z-11.4 F1440.
X18.446 Y32.232 Z-11.494
X18.456 Y32.212 Z-11.585
X18.472 Y32.179 Z-11.672
X18.494 Y32.135 Z-11.753
X18.521 Y32.081 Z-11.824
X18.552 Y32.016 Z-11.885
X18.588 Y31.944 Z-11.935
X18.626 Y31.866 Z-11.971
X18.667 Y31.784 Z-11.993
X18.709 Y31.7 Z-12.
G3 X19.22 Y31.104 I1.419 J0.7
G1 X21.094 Y29.887
X21.434 Y29.665
X21.668 Y29.484
X21.836 Y29.353
X22.038 Y29.191
X22.455 Y28.886
X22.79 Y28.68
X23.221 Y28.462
X24.04 Y28.125
X24.765 Y27.616
X25.362 Y26.961
X25.837 Y26.213
X26.031 Y25.789
X26.109 Y25.642
X26.204 Y25.506
X26.314 Y25.381
G3 X27.167 Y25.416 I0.409 J0.439
X27.122 Y26.268 I-0.443 J0.404
G1 X22.83 Y30.091
G3 X21.981 Y30.04 I-0.399 J-0.448
X22.038 Y29.191 I0.45 J-0.396
G1 X24.251 Y27.398
X24.395 Y27.27
X24.654 Y27.035
X24.827 Y26.868
X26.868 Y24.827
X27.035 Y24.654
X27.27 Y24.395
X27.398 Y24.251
X29.353 Y21.836
X29.616 Y21.497
X29.665 Y21.434
X29.823 Y21.191
G3 X30.521 Y20.972 I0.491 J0.345
G1 X30.609 Y21.005 Z-11.993
X30.695 Y21.036 Z-11.971
X30.776 Y21.066 Z-11.935
X30.852 Y21.094 Z-11.885
X30.919 Y21.118 Z-11.824
X30.976 Y21.139 Z-11.753
X31.023 Y21.156 Z-11.672
X31.056 Y21.169 Z-11.585
X31.077 Y21.176 Z-11.494
X31.084 Y21.179 Z-11.4
G0 Z5.
X32.238 Y-18.443
Z-10.8
G1 Z-11.4 F1440.
X32.232 Y-18.446 Z-11.494
X32.212 Y-18.456 Z-11.585
X32.179 Y-18.472 Z-11.672
X32.135 Y-18.494 Z-11.753
X32.081 Y-18.521 Z-11.824
X32.016 Y-18.552 Z-11.885
X31.944 Y-18.588 Z-11.935
X31.866 Y-18.626 Z-11.971
X31.784 Y-18.667 Z-11.993
X31.7 Y-18.709 Z-12.
G3 X31.104 Y-19.22 I0.7 J-1.419
G1 X29.887 Y-21.094
X29.665 Y-21.434
X29.484 Y-21.668
X29.353 Y-21.836
X29.191 Y-22.038
X28.886 Y-22.455
X28.68 Y-22.79
X28.462 Y-23.221
X28.125 Y-24.04
X27.616 Y-24.765
X26.961 Y-25.362
X26.213 Y-25.837
X25.789 Y-26.031
X25.642 Y-26.109
X25.506 Y-26.204
X25.381 Y-26.314
G3 X25.416 Y-27.167 I0.439 J-0.409
X26.268 Y-27.122 I0.404 J0.443
G1 X30.091 Y-22.83
G3 X30.04 Y-21.981 I-0.448 J0.399
X29.191 Y-22.038 I-0.396 J-0.45
G1 X27.398 Y-24.251
X27.27 Y-24.395
X27.035 Y-24.654
X26.868 Y-24.827
X24.827 Y-26.868
X24.654 Y-27.035
X24.395 Y-27.27
X24.251 Y-27.398
X21.836 Y-29.353
X21.497 Y-29.616
X21.434 Y-29.665
X21.191 Y-29.823
X21.119 Y-29.882
X21.058 Y-29.952
X21.025 Y-30.018 Z-11.995
X20.992 Y-30.082 Z-11.982
X20.96 Y-30.145 Z-11.959
X20.951 Y-30.205 Z-11.931
X20.943 Y-30.262 Z-11.897
X20.936 Y-30.314 Z-11.856
X20.946 Y-30.375 Z-11.796
X20.956 Y-30.426 Z-11.727
X20.963 Y-30.467 Z-11.651
X20.968 Y-30.496 Z-11.571
X20.971 Y-30.515 Z-11.487
X20.972 Y-30.521 Z-11.401
G0 Z5.
X0. Y0.
Z-7.5
G1 Z-12. F330.
X-0.038 Y0.003 F1440.
X-0.033 Y-0.034
X-0.001 Y-0.054
X0.036 Y-0.046
X0.06 Y-0.018
X0.063 Y0.02
X0.049 Y0.054
X0.023 Y0.082
X-0.011 Y0.098
X-0.048 Y0.1
X-0.084 Y0.088
X-0.114 Y0.066
X-0.137 Y0.036
X-0.165 Y-0.033
X-0.157 Y-0.108
X-0.118 Y-0.172
X-0.058 Y-0.218
X0.013 Y-0.24
X0.088 Y-0.237
X0.159 Y-0.212
X0.28 Y-0.123
X0.34 Y0.014
X0.336 Y0.164
X0.273 Y0.3
X0.165 Y0.404
X0.028 Y0.465
X-0.122 Y0.478
X-0.269 Y0.448
X-0.401 Y0.377
X-0.51 Y0.273
X-0.588 Y0.146
X-0.632 Y0.002
X-0.641 Y-0.148
X-0.616 Y-0.295
X-0.558 Y-0.434
X-0.472 Y-0.557
X-0.362 Y-0.659
X-0.234 Y-0.737
X-0.094 Y-0.79
X0.054 Y-0.817
X0.204 Y-0.816
X0.351 Y-0.789
X0.492 Y-0.738
X0.622 Y-0.662
X0.739 Y-0.568
X0.838 Y-0.456
X0.919 Y-0.329
X0.98 Y-0.192
X1.019 Y-0.048
X1.038 Y0.101
X1.035 Y0.251
X1.01 Y0.399
X0.966 Y0.542
X0.902 Y0.678
X0.821 Y0.804
X0.724 Y0.919
X0.613 Y1.02
X0.491 Y1.107
X0.359 Y1.178
X0.219 Y1.232
X0.074 Y1.269
X-0.075 Y1.289
X-0.225 Y1.292
X-0.374 Y1.278
X-0.521 Y1.247
X-0.663 Y1.199
X-0.8 Y1.137
X-0.928 Y1.06
X-1.049 Y0.97
X-1.158 Y0.867
X-1.257 Y0.754
X-1.343 Y0.632
X-1.417 Y0.501
X-1.477 Y0.364
X-1.523 Y0.221
X-1.555 Y0.074
X-1.573 Y-0.075
X-1.576 Y-0.225
X-1.565 Y-0.374
X-1.54 Y-0.522
X-1.501 Y-0.667
X-1.449 Y-0.808
X-1.385 Y-0.943
X-1.309 Y-1.073
X-1.222 Y-1.195
X-1.124 Y-1.308
X-1.017 Y-1.413
X-0.901 Y-1.509
X-0.778 Y-1.594
X-0.648 Y-1.668
X-0.512 Y-1.732
X-0.371 Y-1.783
X-0.226 Y-1.824
X-0.076 Y-1.852
X0.073 Y-1.868
X0.228 Y-1.872
X0.378 Y-1.864
X0.534 Y-1.843
X0.683 Y-1.81
X0.837 Y-1.763
X0.981 Y-1.707
X1.126 Y-1.635
X1.261 Y-1.555
X1.397 Y-1.459
X1.52 Y-1.356
X1.639 Y-1.238
X1.746 Y-1.114
X1.846 Y-0.978
X1.935 Y-0.834
X2.011 Y-0.683
X2.077 Y-0.523
X2.129 Y-0.362
X2.17 Y-0.189
X2.196 Y-0.017
X2.208 Y0.16
X2.206 Y0.34
X2.19 Y0.517
X2.159 Y0.699
X2.114 Y0.875
X2.054 Y1.048
X1.978 Y1.221
X1.891 Y1.384
X1.789 Y1.543
X1.671 Y1.696
X1.544 Y1.837
X1.403 Y1.97
X1.25 Y2.093
X1.088 Y2.203
X0.917 Y2.3
X0.734 Y2.385
X0.546 Y2.455
X0.353 Y2.51
X0.151 Y2.549
X-0.055 Y2.573
X-0.26 Y2.58
X-0.468 Y2.57
X-0.678 Y2.543
X-0.886 Y2.5
X-1.09 Y2.439
X-1.289 Y2.363
X-1.485 Y2.268
X-1.674 Y2.158
X-1.854 Y2.032
X-2.023 Y1.893
X-2.182 Y1.739
X-2.331 Y1.569
X-2.467 Y1.388
X-2.587 Y1.195
X-2.692 Y0.993
X-2.782 Y0.782
X-2.854 Y0.562
X-2.91 Y0.335
X-2.947 Y0.101
X-2.965 Y-0.135
Y-0.373
X-2.945 Y-0.612
X-2.906 Y-0.85
X-2.848 Y-1.086
X-2.77 Y-1.317
X-2.673 Y-1.544
X-2.557 Y-1.764
X-2.423 Y-1.975
X-2.272 Y-2.176
X-2.104 Y-2.366
X-1.92 Y-2.543
X-1.721 Y-2.705
X-1.508 Y-2.852
X-1.283 Y-2.982
X-1.046 Y-3.095
X-0.8 Y-3.188
X-0.546 Y-3.262
X-0.284 Y-3.316
X-0.018 Y-3.349
X0.252 Y-3.36
X0.523 Y-3.35
X0.795 Y-3.317
X1.064 Y-3.263
X1.33 Y-3.187
X1.591 Y-3.089
X1.844 Y-2.969
X2.089 Y-2.829
X2.322 Y-2.669
X2.544 Y-2.49
X2.751 Y-2.292
X2.944 Y-2.077
X3.119 Y-1.845
X3.276 Y-1.599
X3.414 Y-1.339
X3.532 Y-1.068
X3.627 Y-0.786
X3.7 Y-0.496
X3.75 Y-0.199
X3.776 Y0.102
X3.778 Y0.407
X3.755 Y0.713
X3.708 Y1.017
X3.636 Y1.319
X3.539 Y1.615
X3.418 Y1.904
X3.274 Y2.184
X3.106 Y2.453
X2.917 Y2.71
X2.706 Y2.951
X2.476 Y3.176
X2.226 Y3.384
X1.959 Y3.571
X1.677 Y3.737
X1.381 Y3.881
X1.072 Y4.001
X0.753 Y4.097
X0.426 Y4.167
X0.092 Y4.211
X-0.246 Y4.228
X-0.587 Y4.218
X-0.927 Y4.18
X-1.264 Y4.115
X-1.597 Y4.022
X-1.924 Y3.903
X-2.241 Y3.756
X-2.548 Y3.584
X-2.841 Y3.387
X-3.118 Y3.166
X-3.379 Y2.922
X-3.62 Y2.656
X-3.84 Y2.37
X-4.038 Y2.066
X-4.212 Y1.746
X-4.36 Y1.41
X-4.481 Y1.063
X-4.574 Y0.705
X-4.639 Y0.339
X-4.674 Y-0.033
X-4.679 Y-0.409
X-4.655 Y-0.785
X-4.599 Y-1.161
X-4.513 Y-1.532
X-4.397 Y-1.898
X-4.252 Y-2.254
X-4.077 Y-2.6
X-3.875 Y-2.932
X-3.645 Y-3.248
X-3.389 Y-3.546
X-3.109 Y-3.824
X-2.806 Y-4.079
X-2.482 Y-4.311
X-2.139 Y-4.517
X-1.779 Y-4.696
X-1.404 Y-4.845
X-1.016 Y-4.965
X-0.618 Y-5.054
X-0.212 Y-5.111
X0.199 Y-5.135
X0.612 Y-5.126
X1.025 Y-5.083
X1.435 Y-5.007
X1.84 Y-4.899
X2.237 Y-4.757
X2.622 Y-4.583
X2.994 Y-4.378
X3.351 Y-4.142
X3.688 Y-3.878
X4.005 Y-3.585
X4.299 Y-3.267
X4.567 Y-2.925
X4.809 Y-2.561
X5.021 Y-2.176
X5.202 Y-1.775
X5.352 Y-1.358
X5.467 Y-0.928
X5.549 Y-0.489
X5.595 Y-0.042
X5.605 Y0.408
X5.579 Y0.86
X5.516 Y1.311
X5.417 Y1.757
X5.282 Y2.195
X5.111 Y2.623
X4.906 Y3.038
X4.667 Y3.436
X4.396 Y3.816
X4.094 Y4.174
X3.763 Y4.508
X3.404 Y4.816
X3.02 Y5.095
X2.614 Y5.344
X2.187 Y5.56
X1.742 Y5.742
X1.283 Y5.888
X0.811 Y5.997
X0.33 Y6.068
X-0.157 Y6.101
X-0.647 Y6.094
X-1.138 Y6.048
X-1.624 Y5.962
X-2.105 Y5.837
X-2.575 Y5.673
X-3.033 Y5.471
X-3.475 Y5.232
X-3.898 Y4.958
X-4.299 Y4.649
X-4.675 Y4.307
X-5.025 Y3.935
X-5.344 Y3.534
X-5.632 Y3.108
X-5.885 Y2.658
X-6.102 Y2.187
X-6.282 Y1.698
X-6.422 Y1.195
X-6.522 Y0.68
X-6.58 Y0.156
X-6.597 Y-0.373
X-6.57 Y-0.903
X-6.501 Y-1.431
X-6.389 Y-1.955
X-6.235 Y-2.469
X-6.04 Y-2.972
X-5.804 Y-3.459
X-5.528 Y-3.927
X-5.215 Y-4.374
X-4.865 Y-4.795
X-4.482 Y-5.188
X-4.066 Y-5.551
X-3.622 Y-5.88
X-3.15 Y-6.174
X-2.655 Y-6.43
X-2.138 Y-6.646
X-1.605 Y-6.82
X-1.057 Y-6.952
X-0.498 Y-7.039
X0.068 Y-7.082
X0.638 Y-7.079
X1.208 Y-7.03
X1.774 Y-6.935
X2.332 Y-6.794
X2.88 Y-6.609
X3.413 Y-6.379
X3.927 Y-6.106
X4.42 Y-5.792
X4.887 Y-5.438
X5.327 Y-5.046
X5.734 Y-4.619
X6.108 Y-4.158
X6.445 Y-3.668
X6.742 Y-3.15
X6.997 Y-2.608
X7.209 Y-2.045
X7.376 Y-1.465
X7.496 Y-0.871
X7.568 Y-0.268
X7.592 Y0.342
X7.567 Y0.953
X7.492 Y1.562
X7.368 Y2.166
X7.196 Y2.76
X6.976 Y3.339
X6.709 Y3.902
X6.397 Y4.442
X6.041 Y4.958
X5.644 Y5.445
X5.207 Y5.901
X4.734 Y6.321
X4.227 Y6.703
X3.689 Y7.044
X3.123 Y7.342
X2.534 Y7.594
X1.924 Y7.799
X1.298 Y7.955
X0.659 Y8.06
X0.012 Y8.114
X-0.64 Y8.116
X-1.292 Y8.065
X-1.94 Y7.962
X-2.579 Y7.807
X-3.206 Y7.6
X-3.816 Y7.343
X-4.406 Y7.037
X-4.971 Y6.683
X-5.507 Y6.284
X-6.011 Y5.841
X-6.48 Y5.358
X-6.909 Y4.837
X-7.297 Y4.282
X-7.64 Y3.695
X-7.936 Y3.081
X-8.182 Y2.443
X-8.377 Y1.785
X-8.519 Y1.112
X-8.607 Y0.427
X-8.64 Y-0.264
X-8.616 Y-0.959
X-8.537 Y-1.651
X-8.403 Y-2.337
X-8.213 Y-3.012
X-7.969 Y-3.671
X-7.671 Y-4.311
X-7.323 Y-4.927
X-6.925 Y-5.514
X-6.479 Y-6.07
X-5.989 Y-6.589
X-5.458 Y-7.069
X-4.888 Y-7.505
X-4.282 Y-7.896
X-3.646 Y-8.238
X-2.982 Y-8.529
X-2.295 Y-8.766
X-1.59 Y-8.948
X-0.869 Y-9.073
X-0.139 Y-9.139
X0.596 Y-9.148
X1.331 Y-9.097
X2.063 Y-8.986
X2.785 Y-8.817
X3.493 Y-8.59
X4.183 Y-8.306
X4.85 Y-7.966
X5.49 Y-7.573
X6.097 Y-7.129
X6.669 Y-6.635
X7.2 Y-6.096
X7.688 Y-5.514
X8.129 Y-4.894
X8.52 Y-4.237
X8.858 Y-3.55
X9.141 Y-2.836
X9.366 Y-2.099
X9.532 Y-1.344
X9.636 Y-0.576
X9.679 Y0.2
X9.66 Y0.979
X9.578 Y1.756
X9.433 Y2.526
X9.226 Y3.284
X8.959 Y4.025
X8.632 Y4.744
X8.247 Y5.437
X7.807 Y6.098
X7.313 Y6.724
X6.77 Y7.31
X6.18 Y7.851
X5.546 Y8.345
X4.873 Y8.788
X4.165 Y9.176
X3.426 Y9.507
X2.66 Y9.778
X1.873 Y9.988
X1.07 Y10.134
X0.255 Y10.215
X-0.565 Y10.231
X-1.387 Y10.181
X-2.204 Y10.064
X-3.011 Y9.882
X-3.803 Y9.635
X-4.575 Y9.325
X-5.321 Y8.953
X-6.037 Y8.521
X-6.718 Y8.031
X-7.359 Y7.487
X-7.955 Y6.892
X-8.504 Y6.249
X-9. Y5.562
X-9.441 Y4.836
X-9.823 Y4.074
X-10.144 Y3.283
X-10.401 Y2.466
X-10.592 Y1.629
X-10.715 Y0.777
X-10.77 Y-0.085
X-10.756 Y-0.95
X-10.671 Y-1.814
X-10.518 Y-2.67
X-10.296 Y-3.513
X-10.006 Y-4.338
X-9.649 Y-5.138
X-9.229 Y-5.91
X-8.747 Y-6.647
X-8.206 Y-7.345
X-7.609 Y-7.999
X-6.961 Y-8.603
X-6.266 Y-9.154
X-5.53 Y-9.647
X-4.757 Y-10.08
X-3.952 Y-10.45
X-3.12 Y-10.755
X-2.267 Y-10.994
X-1.397 Y-11.164
X-0.517 Y-11.265
X0.369 Y-11.296
X1.254 Y-11.259
X2.134 Y-11.152
X3.003 Y-10.977
X3.855 Y-10.734
X4.686 Y-10.427
X5.491 Y-10.056
X6.264 Y-9.624
X7.003 Y-9.134
X7.701 Y-8.589
X8.356 Y-7.991
X8.963 Y-7.346
X9.519 Y-6.656
X10.021 Y-5.926
X10.467 Y-5.16
X10.853 Y-4.363
X11.178 Y-3.538
X11.439 Y-2.691
X11.636 Y-1.827
X11.766 Y-0.951
X11.829 Y-0.067
X11.827 Y0.819
X11.758 Y1.703
X11.623 Y2.579
X11.425 Y3.442
X11.163 Y4.289
X10.839 Y5.114
X10.456 Y5.913
X10.016 Y6.681
X9.52 Y7.416
X8.971 Y8.112
X8.372 Y8.765
X7.726 Y9.372
X7.038 Y9.93
X6.311 Y10.436
X5.549 Y10.889
X4.757 Y11.286
X3.938 Y11.625
X3.097 Y11.904
X2.239 Y12.123
X1.366 Y12.279
X0.485 Y12.371
X-0.401 Y12.398
X-1.286 Y12.362
X-2.167 Y12.264
X-3.038 Y12.103
X-3.896 Y11.882
X-4.737 Y11.601
X-5.555 Y11.261
X-6.347 Y10.864
X-7.109 Y10.411
X-7.836 Y9.905
X-8.526 Y9.349
X-9.176 Y8.747
X-9.783 Y8.101
X-10.345 Y7.416
X-10.857 Y6.692
X-11.316 Y5.934
X-11.72 Y5.146
X-12.069 Y4.331
X-12.361 Y3.495
X-12.596 Y2.64
X-12.773 Y1.772
X-12.889 Y0.894
X-12.943 Y0.009
X-12.936 Y-0.877
X-12.868 Y-1.76
X-12.74 Y-2.637
X-12.554 Y-3.504
X-12.311 Y-4.356
X-12.01 Y-5.189
X-11.651 Y-5.999
X-11.238 Y-6.783
X-10.774 Y-7.538
X-10.26 Y-8.26
X-9.701 Y-8.947
X-9.095 Y-9.595
X-8.447 Y-10.199
X-7.759 Y-10.757
X-7.036 Y-11.269
X-6.281 Y-11.733
X-5.497 Y-12.146
X-4.687 Y-12.506
X-3.855 Y-12.81
X-3.004 Y-13.057
X-2.138 Y-13.248
X-1.263 Y-13.382
X-0.38 Y-13.46
X0.506 Y-13.479
X1.391 Y-13.438
X2.272 Y-13.338
X3.144 Y-13.182
X4.004 Y-12.969
X4.849 Y-12.702
X5.675 Y-12.382
X6.478 Y-12.006
X7.254 Y-11.579
X8.001 Y-11.102
X8.716 Y-10.578
X9.396 Y-10.01
X10.039 Y-9.401
X10.641 Y-8.751
X11.199 Y-8.062
X11.711 Y-7.339
X12.177 Y-6.585
X12.594 Y-5.803
X12.962 Y-4.997
X13.277 Y-4.169
X13.537 Y-3.322
X13.741 Y-2.459
X13.89 Y-1.586
X13.985 Y-0.705
X14.025 Y0.18
X14.009 Y1.066
X13.936 Y1.949
X13.806 Y2.826
X13.622 Y3.693
X13.385 Y4.547
X13.095 Y5.384
X12.756 Y6.203
X12.365 Y6.998
X11.924 Y7.767
X11.436 Y8.506
X10.903 Y9.214
X10.327 Y9.887
X9.711 Y10.524
X9.057 Y11.122
X8.366 Y11.678
X7.642 Y12.189
X6.888 Y12.654
X6.108 Y13.073
X5.303 Y13.444
X4.478 Y13.767
X3.634 Y14.038
X2.775 Y14.255
X1.904 Y14.419
X1.025 Y14.529
X0.14 Y14.585
X-0.746 Y14.589
X-1.63 Y14.54
X-2.51 Y14.437
X-3.383 Y14.28
X-4.243 Y14.07
X-5.09 Y13.809
X-5.92 Y13.498
X-6.73 Y13.139
X-7.517 Y12.731
X-8.277 Y12.276
X-9.008 Y11.775
X-9.708 Y11.231
X-10.374 Y10.647
X-11.006 Y10.025
X-11.6 Y9.368
X-12.154 Y8.676
X-12.664 Y7.952
X-12.938 Y7.507
X-12.963 Y7.464
X-13.585 Y6.325
X-13.667 Y6.138
X-13.746 Y5.937
X-14.272 Y4.528
X-14.338 Y4.327
X-14.445 Y3.924
X-14.494 Y3.723
X-14.757 Y2.516
X-14.789 Y2.314
X-14.844 Y1.912
X-14.87 Y1.711
X-14.956 Y0.503
X-14.967 Y0.302
Y-0.302
X-14.956 Y-0.503
X-14.87 Y-1.711
X-14.844 Y-1.912
X-14.789 Y-2.314
X-14.757 Y-2.516
X-14.494 Y-3.723
X-14.445 Y-3.924
X-14.338 Y-4.327
X-14.272 Y-4.528
X-13.746 Y-5.937
X-13.667 Y-6.138
X-13.585 Y-6.325
X-12.697 Y-7.95
X-12.579 Y-8.134
X-12.275 Y-8.553
X-12.176 Y-8.688
X-11.572 Y-9.495
X-11.523 Y-9.56
X-11.167 Y-9.962
X-10.985 Y-10.163
X-10.163 Y-10.985
X-9.959 Y-11.17
X-9.56 Y-11.523
X-9.495 Y-11.572
X-8.688 Y-12.176
X-8.553 Y-12.275
X-8.134 Y-12.579
X-7.95 Y-12.697
X-6.325 Y-13.585
X-6.138 Y-13.667
X-5.937 Y-13.746
X-4.528 Y-14.272
X-4.327 Y-14.338
X-3.924 Y-14.445
X-3.723 Y-14.494
X-2.516 Y-14.757
X-2.314 Y-14.789
X-1.912 Y-14.844
X-1.711 Y-14.87
X-0.503 Y-14.956
X-0.302 Y-14.967
X0.302
X0.503 Y-14.956
X1.711 Y-14.87
X1.912 Y-14.844
X2.314 Y-14.789
X2.516 Y-14.757
X3.723 Y-14.494
X3.924 Y-14.445
X4.327 Y-14.338
X4.528 Y-14.272
X5.937 Y-13.746
X6.138 Y-13.667
X6.325 Y-13.585
X7.95 Y-12.697
X8.134 Y-12.579
X8.553 Y-12.275
X8.688 Y-12.176
X9.495 Y-11.572
X9.56 Y-11.523
X9.962 Y-11.167
X10.163 Y-10.985
X10.985 Y-10.163
X11.17 Y-9.959
X11.523 Y-9.56
X11.572 Y-9.495
X12.176 Y-8.688
X12.275 Y-8.553
X12.579 Y-8.134
X12.697 Y-7.95
X13.585 Y-6.325
X13.667 Y-6.138
X13.746 Y-5.937
X14.272 Y-4.528
X14.338 Y-4.327
X14.445 Y-3.924
X14.494 Y-3.723
X14.757 Y-2.516
X14.789 Y-2.314
X14.844 Y-1.912
X14.87 Y-1.711
X14.956 Y-0.503
X14.967 Y-0.302
Y0.302
X14.956 Y0.503
X14.87 Y1.711
X14.844 Y1.912
X14.789 Y2.314
X14.757 Y2.516
X14.494 Y3.723
X14.445 Y3.924
X14.338 Y4.327
X14.272 Y4.528
X13.746 Y5.937
X13.667 Y6.138
X13.585 Y6.325
X12.697 Y7.95
X12.579 Y8.134
X12.275 Y8.553
X12.176 Y8.688
X11.572 Y9.495
X11.523 Y9.56
X11.167 Y9.962
X10.985 Y10.163
X10.163 Y10.985
X9.959 Y11.17
X9.56 Y11.523
X9.495 Y11.572
X8.688 Y12.176
X8.553 Y12.275
X8.134 Y12.579
X7.95 Y12.697
X6.325 Y13.585
X6.138 Y13.667
X5.937 Y13.746
X4.528 Y14.272
X4.327 Y14.338
X3.924 Y14.445
X3.723 Y14.494
X2.516 Y14.757
X2.314 Y14.789
X1.912 Y14.844
X1.711 Y14.87
X0.503 Y14.956
X0.302 Y14.967
X-0.302
X-0.503 Y14.956
X-1.711 Y14.87
X-1.912 Y14.844
X-2.314 Y14.789
X-2.516 Y14.757
X-3.723 Y14.494
X-3.924 Y14.445
X-4.327 Y14.338
X-4.528 Y14.272
X-5.937 Y13.746
X-6.138 Y13.667
X-6.325 Y13.585
X-7.95 Y12.697
X-8.134 Y12.579
X-8.553 Y12.275
X-8.688 Y12.176
X-9.495 Y11.572
X-9.56 Y11.523
X-9.962 Y11.167
X-10.163 Y10.985
X-10.985 Y10.163
X-11.17 Y9.959
X-11.523 Y9.56
X-11.572 Y9.495
X-12.176 Y8.688
X-12.275 Y8.553
X-12.579 Y8.134
X-12.697 Y7.95
X-12.963 Y7.464
G3 X-12.825 Y6.746 I0.536 J-0.269
G1 X-12.755 Y6.684 Z-11.993
X-12.686 Y6.623 Z-11.971
X-12.621 Y6.565 Z-11.935
X-12.561 Y6.512 Z-11.885
X-12.508 Y6.465 Z-11.824
X-12.462 Y6.424 Z-11.753
X-12.426 Y6.391 Z-11.672
X-12.399 Y6.367 Z-11.585
X-12.382 Y6.353 Z-11.494
X-12.377 Y6.348 Z-11.4
G0 Z15.

(2D CONTOUR2)
M5
M9
M1
T1 M6
S10000 M3
G54
M8
G0 X13.2 Y-0.6
G43 Z15. H1
Z5.
G1 Z1. F30.
Z-11.4
G18 G2 X13.8 Z-12. I0.6 K0.
G1 X14.4 F1440.
G17 G3 X15. Y0. I0. J0.6
X-15. I-15. J0.
X15. I15. J0.
X14.4 Y0.6 I-0.6 J0.
G1 X13.8
G18 G3 X13.2 Z-11.4 I0. K0.6
G0 Z5.
X33.929 Y16.534
G1 Z1. F30.
Z-11.4
X33.921 Y16.536 Z-11.494
X33.9 Y16.539 Z-11.585
X33.864 Y16.546 Z-11.672
X33.816 Y16.555 Z-11.753
X33.756 Y16.566 Z-11.824
X33.685 Y16.578 Z-11.885
X33.606 Y16.593 Z-11.935
X33.521 Y16.608 Z-11.971
X33.431 Y16.625 Z-11.993
X33.338 Y16.641 Z-12.
X32.748 Y16.748 F1440.
G17 G3 X32.05 Y16.265 I-0.107 J-0.59
G2 X30.598 Y14.202 I-2.952 J0.535
G1 X25.609 Y11.321
G2 Y-11.321 I-25.609 J-11.321
G1 X30.598 Y-14.202
G2 X31.697 Y-18.3 I-1.5 J-2.598
X18.3 Y-31.697 I-31.697 J18.3
X14.202 Y-30.598 I-1.5 J2.598
G1 X11.321 Y-25.609
G2 X-11.321 I-11.321 J25.609
G1 X-14.202 Y-30.598
G2 X-18.3 Y-31.697 I-2.598 J1.5
X-31.697 Y-18.3 I18.3 J31.697
X-30.598 Y-14.202 I2.598 J1.5
G1 X-25.609 Y-11.321
G2 Y11.321 I25.609 J11.321
G1 X-30.598 Y14.202
G2 X-31.697 Y18.3 I1.5 J2.598
X-18.3 Y31.697 I31.697 J-18.3
X-14.202 Y30.598 I1.5 J-2.598
G1 X-11.321 Y25.609
G2 X11.321 I11.321 J-25.609
G1 X14.202 Y30.598
G2 X18.3 Y31.697 I2.598 J-1.5
X31.697 Y18.3 I-18.3 J-31.697
X32.05 Y16.265 I-2.598 J-1.5
G3 X32.534 Y15.568 I0.59 J-0.107
G1 X33.124 Y15.46
X33.216 Y15.444 Z-11.993
X33.307 Y15.427 Z-11.971
X33.392 Y15.412 Z-11.935
X33.471 Y15.398 Z-11.885
X33.542 Y15.385 Z-11.824
X33.602 Y15.374 Z-11.753
X33.65 Y15.365 Z-11.672
X33.686 Y15.359 Z-11.585
X33.707 Y15.355 Z-11.494
X33.715 Y15.353 Z-11.4
G0 Z15.

M9
M30
