(1001)
(T1  D=10. CR=0. - ZMIN=-22. - FLAT END MILL)
G90 G94 G91.1 G40 G49 G17
G21

(POCKET-MAIN-MARKING)
M5
T1 M6
S9700 M3
G54
M8
G0 X72.054 Y-75.928
G43 Z11. H1
Z5.
G1 Z-3. F2328.
Y-75.92 Z-3.121
Y-75.898 Z-3.239
Y-75.863 Z-3.355
Y-75.813 Z-3.465
Y-75.75 Z-3.568
Y-75.676 Z-3.663
Y-75.591 Z-3.749
Y-75.496 Z-3.823
Y-75.392 Z-3.885
Y-75.282 Z-3.935
Y-75.167 Z-3.971
Y-75.048 Z-3.993
X72.053 Y-74.928 Z-4.
X72.049 Y-62.5
X72.073 Y-48.898
G3 X70.633 Y-48.124 I-0.927 J0.002
G2 X69.193 Y-47.351 I-0.512 J0.773
G1 Y-42.226
G3 X68.925 Y-42.078 I-0.175 J0.
G2 X67.132 Y-43.152 I-24.325 J38.578
G3 X66.987 Y-43.599 I0.172 J-0.303
G2 X68.988 Y-48.82 I-41.506 J-18.901
G1 X69.005 Y-48.852
X69.033 Y-48.877
X69.067 Y-48.891
X69.104 Y-48.892
X69.139 Y-48.88
X69.168 Y-48.857
X69.187 Y-48.825
X69.193 Y-48.788
Y-47.351
G2 X70.193 Y-47.336 I0.5 J0.
G1 X71.054 Y-74.904
G3 X72.053 Y-74.888 I0.5 J0.016
G1 X72.049 Y-62.5
X72.094 Y-36.521
G3 X71.832 Y-36.397 I-0.16 J0.
G2 X63.258 Y-41.914 I-27.232 J32.897
G3 X63.124 Y-42.329 I0.132 J-0.272
G2 X68.233 Y-62.5 I-37.98 J-20.351
G1 X68.228 Y-74.891
G3 X68.728 Y-75.391 I0.5 J0.
G1 X74.493 Y-75.397
G3 X74.994 Y-74.897 I0.001 J0.5
G1 Y-29.586
G3 X74.747 Y-29.494 I-0.141 J0.
G2 X59.073 Y-40.582 I-30.147 J25.994
G3 X58.952 Y-40.954 I0.092 J-0.235
G2 X65.333 Y-62.5 I-33.71 J-21.7
G1 X65.328 Y-74.891
G3 X65.828 Y-75.391 I0.5 J0.
G1 X77.394 Y-75.396
G3 X77.894 Y-74.896 I0. J0.5
G1 Y-19.925
X77.888 Y-19.887
X77.869 Y-19.853
X77.84 Y-19.827
X77.805 Y-19.812
X77.766 Y-19.81
X77.729 Y-19.82
X77.698 Y-19.842
X77.675 Y-19.873
G2 X54.946 Y-38.972 I-33.198 J16.434
G3 X54.666 Y-39.837 I0.154 J-0.528
G2 X62.432 Y-62.5 I-29.184 J-22.663
G1 X62.427 Y-74.891
G3 X62.927 Y-75.391 I0.5 J0.
G1 X80.266 Y-75.399
G3 X80.767 Y-74.899 I0. J0.5
G1 X80.75 Y-3.5
G2 X81.799 Y4.886 I34.05 J0.
G3 X81.315 Y5.509 I-0.485 J0.123
G1 X78.085 Y5.514
G3 X77.6 Y4.891 I-0.001 J-0.5
G2 X54.134 Y-36.188 I-33. J-8.391
G3 X52.375 Y-41.616 I0.966 J-3.312
G2 X59.532 Y-62.5 I-26.894 J-20.884
G1 X59.527 Y-74.891
G3 X60.027 Y-75.391 I0.5 J0.
G1 X83.166 Y-75.392
G3 X83.666 Y-74.892 I0. J0.5
G1 X83.65 Y-3.5
G2 X84.804 Y4.899 I31.15 J0.
G3 X84.322 Y5.534 I-0.481 J0.135
G1 X75.08 Y5.523
G3 X74.599 Y4.889 I0.001 J-0.5
G2 X53.322 Y-33.404 I-29.999 J-8.389
G3 X50.085 Y-43.395 I1.778 J-6.096
G2 X56.632 Y-62.5 I-24.603 J-19.105
G1 X56.628 Y-74.891
G3 X57.127 Y-75.391 I0.5 J0.
G1 X86.066 Y-75.4
G3 X86.566 Y-74.9 I0. J0.5
G1 X86.55 Y-3.5
G2 X87.825 Y4.891 I28.25 J0.
G3 X87.348 Y5.54 I-0.477 J0.149
G1 X72.051 Y5.544
G3 X71.574 Y4.896 I0. J-0.5
G2 X52.51 Y-30.62 I-26.974 J-8.396
G3 X47.794 Y-45.173 I2.59 J-8.88
G2 X53.732 Y-62.5 I-22.313 J-17.327
G1 X53.728 Y-74.891
G3 X54.228 Y-75.391 I0.5 J0.
G1 X88.966 Y-75.393
G3 X89.466 Y-74.893 I0. J0.5
G1 X89.45 Y-3.5
G2 X90.878 Y4.889 I25.35 J0.
G3 X90.407 Y5.555 I-0.472 J0.165
G1 X68.992 Y5.559
G3 X68.52 Y4.894 I0. J-0.5
G2 X51.698 Y-27.836 I-23.92 J-8.394
G3 X45.504 Y-46.952 I3.402 J-11.664
G2 X50.832 Y-62.5 I-20.022 J-15.548
G1 X50.828 Y-74.891
G3 X51.328 Y-75.391 I0.5 J0.
G1 X91.866 Y-75.386
G3 X92.366 Y-74.885 I0. J0.5
G1 X92.35 Y-3.5
G2 X93.976 Y4.889 I22.45 J0.
G3 X93.512 Y5.576 I-0.464 J0.187
G1 X65.886 Y5.58
G3 X65.422 Y4.893 I0. J-0.5
G2 X50.886 Y-25.052 I-20.822 J-8.393
G3 X43.213 Y-48.731 I4.214 J-14.448
G2 X47.932 Y-62.5 I-17.732 J-13.769
G1 X47.928 Y-74.891
G3 X48.428 Y-75.391 I0.5 J0.
G1 X94.765 Y-75.394
G3 X95.266 Y-74.894 I0. J0.5
G1 X95.25 Y-3.5
G2 X97.143 Y4.893 I19.55 J0.
G3 X96.692 Y5.608 I-0.452 J0.215
G1 X62.706 Y5.612
G3 X62.255 Y4.897 I0. J-0.5
G2 X50.074 Y-22.268 I-17.655 J-8.397
G3 X40.923 Y-50.509 I5.026 J-17.232
G2 X45.032 Y-62.5 I-15.441 J-11.991
G1 X45.028 Y-74.891
G3 X45.528 Y-75.391 I0.5 J0.
G1 X97.665 Y-75.387
G3 X98.165 Y-74.887 I0. J0.5
G1 X98.15 Y-3.5
G2 X100.422 Y4.895 I16.65 J0.
G3 X99.99 Y5.648 I-0.432 J0.252
G1 X59.408 Y5.651
G3 X58.976 Y4.899 I0. J-0.5
G2 X49.262 Y-19.484 I-14.376 J-8.399
G3 X38.632 Y-52.288 I5.838 J-20.016
G2 X42.132 Y-62.5 I-13.151 J-10.212
G1 X42.128 Y-74.891
G3 X42.628 Y-75.391 I0.5 J0.
G1 X100.565 Y-75.395
G3 X101.065 Y-74.895 I0. J0.5
G1 X101.05 Y-3.5
G2 X103.912 Y4.897 I13.75 J0.
G3 X103.516 Y5.702 I-0.396 J0.305
G1 X55.891 Y5.693
G3 X55.495 Y4.888 I0. J-0.5
G2 X48.45 Y-16.7 I-10.895 J-8.388
G3 X36.342 Y-54.067 I6.65 J-22.8
G2 X39.232 Y-62.5 I-10.86 J-8.433
G1 X39.228 Y-74.891
G3 X39.728 Y-75.391 I0.5 J0.
G1 X103.465 Y-75.388
G3 X103.965 Y-74.888 I0. J0.5
G1 X103.95 Y-3.5
G2 X107.921 Y4.891 I10.85 J0.
G3 X107.604 Y5.777 I-0.317 J0.387
G1 X51.793 Y5.78
G3 X51.476 Y4.893 I0. J-0.5
G2 X47.638 Y-13.916 I-6.876 J-8.393
G3 X34.051 Y-55.845 I7.462 J-25.584
G2 X36.37 Y-62.733 I-8.718 J-6.77
G3 X36.332 Y-70. I681.117 J-7.267
G1 X36.33 Y-74.897
G3 X36.83 Y-75.397 I0.5 J0.
G1 X106.365 Y-75.396
G3 X106.865 Y-74.896 I0. J0.5
G1 X106.85 Y-3.5
G2 X114.8 Y4.45 I7.95 J0.
G1 X141.991 Y4.443
G3 X142.491 Y4.943 I0. J0.5
X141.991 Y5.443 I-0.5 J0.
G1 X-2.004 Y5.439
G3 X-2.504 Y4.939 I0. J-0.5
X-2.004 Y4.439 I0.5 J0.
G1 X44.6 Y4.45
G2 X46.826 Y-11.132 I0. J-7.95
G3 X31.761 Y-57.624 I8.274 J-28.368
G2 X33.432 Y-62.5 I-6.279 J-4.876
G1 X33.428 Y-74.891
G3 X33.928 Y-75.391 I0.5 J0.
G1 X109.3 Y-75.387
G3 X109.8 Y-74.887 I0. J0.5
G1 Y-3.5
G2 X114.8 Y1.5 I5. J0.
G1 X140.
X144.586
G3 Y2.5 I0. J0.5
G1 X-4.591
G3 Y1.5 I0. J-0.5
G1 X44.6
G2 X46. Y-8.3 I0. J-5.
G3 X29.431 Y-59.433 I9.1 J-31.2
G2 X30.482 Y-62.5 I-3.949 J-3.067
G1 Y-70.
Y-74.897
G3 X30.96 Y-75.397 I0.5 J0.
G1 X71.532 Y-77.159
G3 X72.054 Y-76.66 I0.022 J0.5
G1 Y-76.543 Z-4.007
Y-76.429 Z-4.027
Y-76.318 Z-4.06
Y-76.211 Z-4.106
Y-76.11 Z-4.165
Y-76.017 Z-4.234
Y-75.932 Z-4.314
Y-75.857 Z-4.403
Y-75.794 Z-4.5
Y-75.73 Z-4.597
Y-75.655 Z-4.686
Y-75.57 Z-4.766
Y-75.477 Z-4.835
Y-75.376 Z-4.894
Y-75.27 Z-4.94
Y-75.158 Z-4.973
Y-75.044 Z-4.993
X72.053 Y-74.928 Z-5.
X72.049 Y-62.5
X72.073 Y-48.898
G3 X70.633 Y-48.124 I-0.927 J0.002
G2 X69.193 Y-47.351 I-0.512 J0.773
G1 Y-42.226
G3 X68.925 Y-42.078 I-0.175 J0.
G2 X67.132 Y-43.152 I-24.325 J38.578
G3 X66.987 Y-43.599 I0.172 J-0.303
G2 X68.988 Y-48.82 I-41.506 J-18.901
G1 X69.005 Y-48.852
X69.033 Y-48.877
X69.067 Y-48.891
X69.104 Y-48.892
X69.139 Y-48.88
X69.168 Y-48.857
X69.187 Y-48.825
X69.193 Y-48.788
Y-47.351
G2 X70.193 Y-47.336 I0.5 J0.
G1 X71.054 Y-74.904
G3 X72.053 Y-74.888 I0.5 J0.016
G1 X72.049 Y-62.5
X72.094 Y-36.521
G3 X71.832 Y-36.397 I-0.16 J0.
G2 X63.258 Y-41.914 I-27.232 J32.897
G3 X63.124 Y-42.329 I0.132 J-0.272
G2 X68.233 Y-62.5 I-37.98 J-20.351
G1 X68.228 Y-74.891
G3 X68.728 Y-75.391 I0.5 J0.
G1 X74.493 Y-75.397
G3 X74.994 Y-74.897 I0.001 J0.5
G1 Y-29.586
G3 X74.747 Y-29.494 I-0.141 J0.
G2 X59.073 Y-40.582 I-30.147 J25.994
G3 X58.952 Y-40.954 I0.092 J-0.235
G2 X65.333 Y-62.5 I-33.71 J-21.7
G1 X65.328 Y-74.891
G3 X65.828 Y-75.391 I0.5 J0.
G1 X77.394 Y-75.396
G3 X77.894 Y-74.896 I0. J0.5
G1 Y-19.925
X77.888 Y-19.887
X77.869 Y-19.853
X77.84 Y-19.827
X77.805 Y-19.812
X77.766 Y-19.81
X77.729 Y-19.82
X77.698 Y-19.842
X77.675 Y-19.873
G2 X54.946 Y-38.972 I-33.198 J16.434
G3 X54.666 Y-39.837 I0.154 J-0.528
G2 X62.432 Y-62.5 I-29.184 J-22.663
G1 X62.427 Y-74.891
G3 X62.927 Y-75.391 I0.5 J0.
G1 X80.266 Y-75.399
G3 X80.767 Y-74.899 I0. J0.5
G1 X80.75 Y-3.5
G2 X81.799 Y4.886 I34.05 J0.
G3 X81.315 Y5.509 I-0.485 J0.123
G1 X78.085 Y5.514
G3 X77.6 Y4.891 I-0.001 J-0.5
G2 X54.134 Y-36.188 I-33. J-8.391
G3 X52.375 Y-41.616 I0.966 J-3.312
G2 X59.532 Y-62.5 I-26.894 J-20.884
G1 X59.527 Y-74.891
G3 X60.027 Y-75.391 I0.5 J0.
G1 X83.166 Y-75.392
G3 X83.666 Y-74.892 I0. J0.5
G1 X83.65 Y-3.5
G2 X84.804 Y4.899 I31.15 J0.
G3 X84.322 Y5.534 I-0.481 J0.135
G1 X75.08 Y5.523
G3 X74.599 Y4.889 I0.001 J-0.5
G2 X53.322 Y-33.404 I-29.999 J-8.389
G3 X50.085 Y-43.395 I1.778 J-6.096
G2 X56.632 Y-62.5 I-24.603 J-19.105
G1 X56.628 Y-74.891
G3 X57.127 Y-75.391 I0.5 J0.
G1 X86.066 Y-75.4
G3 X86.566 Y-74.9 I0. J0.5
G1 X86.55 Y-3.5
G2 X87.825 Y4.891 I28.25 J0.
G3 X87.348 Y5.54 I-0.477 J0.149
G1 X72.051 Y5.544
G3 X71.574 Y4.896 I0. J-0.5
G2 X52.51 Y-30.62 I-26.974 J-8.396
G3 X47.794 Y-45.173 I2.59 J-8.88
G2 X53.732 Y-62.5 I-22.313 J-17.327
G1 X53.728 Y-74.891
G3 X54.228 Y-75.391 I0.5 J0.
G1 X88.966 Y-75.393
G3 X89.466 Y-74.893 I0. J0.5
G1 X89.45 Y-3.5
G2 X90.878 Y4.889 I25.35 J0.
G3 X90.407 Y5.555 I-0.472 J0.165
G1 X68.992 Y5.559
G3 X68.52 Y4.894 I0. J-0.5
G2 X51.698 Y-27.836 I-23.92 J-8.394
G3 X45.504 Y-46.952 I3.402 J-11.664
G2 X50.832 Y-62.5 I-20.022 J-15.548
G1 X50.828 Y-74.891
G3 X51.328 Y-75.391 I0.5 J0.
G1 X91.866 Y-75.386
G3 X92.366 Y-74.885 I0. J0.5
G1 X92.35 Y-3.5
G2 X93.976 Y4.889 I22.45 J0.
G3 X93.512 Y5.576 I-0.464 J0.187
G1 X65.886 Y5.58
G3 X65.422 Y4.893 I0. J-0.5
G2 X50.886 Y-25.052 I-20.822 J-8.393
G3 X43.213 Y-48.731 I4.214 J-14.448
G2 X47.932 Y-62.5 I-17.732 J-13.769
G1 X47.928 Y-74.891
G3 X48.428 Y-75.391 I0.5 J0.
G1 X94.765 Y-75.394
G3 X95.266 Y-74.894 I0. J0.5
G1 X95.25 Y-3.5
G2 X97.143 Y4.893 I19.55 J0.
G3 X96.692 Y5.608 I-0.452 J0.215
G1 X62.706 Y5.612
G3 X62.255 Y4.897 I0. J-0.5
G2 X50.074 Y-22.268 I-17.655 J-8.397
G3 X40.923 Y-50.509 I5.026 J-17.232
G2 X45.032 Y-62.5 I-15.441 J-11.991
G1 X45.028 Y-74.891
G3 X45.528 Y-75.391 I0.5 J0.
G1 X97.665 Y-75.387
G3 X98.165 Y-74.887 I0. J0.5
G1 X98.15 Y-3.5
G2 X100.422 Y4.895 I16.65 J0.
G3 X99.99 Y5.648 I-0.432 J0.252
G1 X59.408 Y5.651
G3 X58.976 Y4.899 I0. J-0.5
G2 X49.262 Y-19.484 I-14.376 J-8.399
G3 X38.632 Y-52.288 I5.838 J-20.016
G2 X42.132 Y-62.5 I-13.151 J-10.212
G1 X42.128 Y-74.891
G3 X42.628 Y-75.391 I0.5 J0.
G1 X100.565 Y-75.395
G3 X101.065 Y-74.895 I0. J0.5
G1 X101.05 Y-3.5
G2 X103.912 Y4.897 I13.75 J0.
G3 X103.516 Y5.702 I-0.396 J0.305
G1 X55.891 Y5.693
G3 X55.495 Y4.888 I0. J-0.5
G2 X48.45 Y-16.7 I-10.895 J-8.388
G3 X36.342 Y-54.067 I6.65 J-22.8
G2 X39.232 Y-62.5 I-10.86 J-8.433
G1 X39.228 Y-74.891
G3 X39.728 Y-75.391 I0.5 J0.
G1 X103.465 Y-75.388
G3 X103.965 Y-74.888 I0. J0.5
G1 X103.95 Y-3.5
G2 X107.921 Y4.891 I10.85 J0.
G3 X107.604 Y5.777 I-0.317 J0.387
G1 X51.793 Y5.78
G3 X51.476 Y4.893 I0. J-0.5
G2 X47.638 Y-13.916 I-6.876 J-8.393
G3 X34.051 Y-55.845 I7.462 J-25.584
G2 X36.37 Y-62.733 I-8.718 J-6.77
G3 X36.332 Y-70. I681.117 J-7.267
G1 X36.33 Y-74.897
G3 X36.83 Y-75.397 I0.5 J0.
G1 X106.365 Y-75.396
G3 X106.865 Y-74.896 I0. J0.5
G1 X106.85 Y-3.5
G2 X114.8 Y4.45 I7.95 J0.
G1 X141.991 Y4.443
G3 X142.491 Y4.943 I0. J0.5
X141.991 Y5.443 I-0.5 J0.
G1 X-2.004 Y5.439
G3 X-2.504 Y4.939 I0. J-0.5
X-2.004 Y4.439 I0.5 J0.
G1 X44.6 Y4.45
G2 X46.826 Y-11.132 I0. J-7.95
G3 X31.761 Y-57.624 I8.274 J-28.368
G2 X33.432 Y-62.5 I-6.279 J-4.876
G1 X33.428 Y-74.891
G3 X33.928 Y-75.391 I0.5 J0.
G1 X109.3 Y-75.387
G3 X109.8 Y-74.887 I0. J0.5
G1 Y-3.5
G2 X114.8 Y1.5 I5. J0.
G1 X140.
X144.586
G3 Y2.5 I0. J0.5
G1 X-4.591
G3 Y1.5 I0. J-0.5
G1 X44.6
G2 X46. Y-8.3 I0. J-5.
G3 X29.431 Y-59.433 I9.1 J-31.2
G2 X30.482 Y-62.5 I-3.949 J-3.067
G1 Y-70.
Y-74.897
X30.485 Y-74.976
X30.494 Y-75.054
X31.099 Y-78.873
X31.118 Y-78.992 Z-4.993
X31.136 Y-79.11 Z-4.971
X31.154 Y-79.223 Z-4.935
X31.172 Y-79.332 Z-4.885
X31.188 Y-79.434 Z-4.823
X31.203 Y-79.528 Z-4.749
X31.216 Y-79.613 Z-4.663
X31.228 Y-79.686 Z-4.568
X31.237 Y-79.748 Z-4.465
X31.245 Y-79.797 Z-4.355
X31.251 Y-79.832 Z-4.239
X31.254 Y-79.854 Z-4.121
X31.255 Y-79.861 Z-4.
G0 Z11.

(POCKET-30MM-ROUGHING 2)
G0 X55.1 Y-39.5
Z11.
Z9.
G1 Z-8. F600.
X55.107 Y-39.522
X55.126 Y-39.536
X55.149
X55.168 Y-39.522
X55.175 Y-39.5
X55.168 Y-39.467
X55.147 Y-39.441
X55.117 Y-39.427
X55.083
X55.053 Y-39.441
X55.032 Y-39.467
X55.025 Y-39.5
G3 X55.675 I0.325 J0.
X54.525 I-0.575 J0.
X56.175 I0.825 J0.
X54.025 I-1.075 J0.
X56.675 I1.325 J0.
X53.525 I-1.575 J0.
X57.175 I1.825 J0.
X53.025 I-2.075 J0.
X57.675 I2.325 J0.
X52.525 I-2.575 J0.
X58.175 I2.825 J0.
X52.025 I-3.075 J0.
X58.675 I3.325 J0.
X51.525 I-3.575 J0.
X59.175 I3.825 J0.
X51.025 I-4.075 J0.
X59.675 I4.325 J0.
X50.525 I-4.575 J0.
X60.175 I4.825 J0.
X50.025 I-5.075 J0.
X60.675 I5.325 J0.
X49.525 I-5.575 J0.
X61.175 I5.825 J0.
X49.025 I-6.075 J0.
X61.675 I6.325 J0.
X48.525 I-6.575 J0.
X62.175 I6.825 J0.
X48.025 I-7.075 J0.
X62.675 I7.325 J0.
X47.525 I-7.575 J0.
X63.175 I7.825 J0.
X47.025 I-8.075 J0.
X63.675 I8.325 J0.
X46.525 I-8.575 J0.
X64.175 I8.825 J0.
X46.025 I-9.075 J0.
X64.675 I9.325 J0.
X45.525 I-9.575 J0.
X65.175 I9.825 J0.
X45.025 I-10.075 J0.
X65.175 I10.075 J0.
X64.629 Y-39.01 I-0.493 J0.
G1 X60.191 Y-39.497
X60.137 Y-39.5
X60.084 Y-39.497
X55.646 Y-39.01
G3 X55.1 Y-39.5 I-0.054 J-0.49
G1 Z-16.
X55.175
X55.168 Y-39.467
X55.147 Y-39.441
X55.117 Y-39.427
X55.083
X55.053 Y-39.441
X55.032 Y-39.467
X55.025 Y-39.5
G3 X55.675 I0.325 J0.
X54.525 I-0.575 J0.
X56.175 I0.825 J0.
X54.025 I-1.075 J0.
X56.675 I1.325 J0.
X53.525 I-1.575 J0.
X57.175 I1.825 J0.
X53.025 I-2.075 J0.
X57.675 I2.325 J0.
X52.525 I-2.575 J0.
X58.175 I2.825 J0.
X52.025 I-3.075 J0.
X58.675 I3.325 J0.
X51.525 I-3.575 J0.
X59.175 I3.825 J0.
X51.025 I-4.075 J0.
X59.675 I4.325 J0.
X50.525 I-4.575 J0.
X60.175 I4.825 J0.
X50.025 I-5.075 J0.
X60.675 I5.325 J0.
X49.525 I-5.575 J0.
X61.175 I5.825 J0.
X49.025 I-6.075 J0.
X61.675 I6.325 J0.
X48.525 I-6.575 J0.
X62.175 I6.825 J0.
X48.025 I-7.075 J0.
X62.675 I7.325 J0.
X47.525 I-7.575 J0.
X63.175 I7.825 J0.
X47.025 I-8.075 J0.
X63.675 I8.325 J0.
X46.525 I-8.575 J0.
X64.175 I8.825 J0.
X46.025 I-9.075 J0.
X64.675 I9.325 J0.
X45.525 I-9.575 J0.
X65.175 I9.825 J0.
X45.025 I-10.075 J0.
X65.175 I10.075 J0.
X64.629 Y-39.01 I-0.493 J0.
G1 X60.191 Y-39.497
X60.137 Y-39.5
X60.084 Y-39.497
X55.646 Y-39.01
G3 X55.1 Y-39.5 I-0.054 J-0.49
G1 Z-18.
X55.175
X55.168 Y-39.467
X55.147 Y-39.441
X55.117 Y-39.427
X55.083
X55.053 Y-39.441
X55.032 Y-39.467
X55.025 Y-39.5
G3 X55.675 I0.325 J0.
X54.525 I-0.575 J0.
X56.175 I0.825 J0.
X54.025 I-1.075 J0.
X56.675 I1.325 J0.
X53.525 I-1.575 J0.
X57.175 I1.825 J0.
X53.025 I-2.075 J0.
X57.675 I2.325 J0.
X52.525 I-2.575 J0.
X58.175 I2.825 J0.
X52.025 I-3.075 J0.
X58.675 I3.325 J0.
X51.525 I-3.575 J0.
X59.175 I3.825 J0.
X51.025 I-4.075 J0.
X59.675 I4.325 J0.
X50.525 I-4.575 J0.
X60.175 I4.825 J0.
X50.025 I-5.075 J0.
X60.675 I5.325 J0.
X49.525 I-5.575 J0.
X61.175 I5.825 J0.
X49.025 I-6.075 J0.
X61.675 I6.325 J0.
X48.525 I-6.575 J0.
X62.175 I6.825 J0.
X48.025 I-7.075 J0.
X62.675 I7.325 J0.
X47.525 I-7.575 J0.
X63.175 I7.825 J0.
X47.025 I-8.075 J0.
X63.675 I8.325 J0.
X46.525 I-8.575 J0.
X64.175 I8.825 J0.
X46.025 I-9.075 J0.
X64.675 I9.325 J0.
X45.525 I-9.575 J0.
X65.175 I9.825 J0.
X45.025 I-10.075 J0.
X65.175 I10.075 J0.
X65.142 Y-39.248 Z-17.966 I-0.985 J0. F2328.
G1 X65.105 Y-39.135 Z-17.917
X65.054 Y-39.028 Z-17.868
X65.001 Y-38.941 Z-17.79
X64.939 Y-38.86 Z-17.712
X64.886 Y-38.803 Z-17.609
X64.828 Y-38.75 Z-17.507
X64.75 Y-38.69 Z-17.27
X64.722 Y-38.671 Z-17.015
G0 Z11.

(POCKET-26 3)
G0 X55.6 Y-40.5
Z11.
Z5.
G1 Z2.5 F2328.
Z-21. F330.
G19 G3 Y-39.5 Z-22. J1. K0.
G17 G3 X54.6 I-0.5 J0. F2328.
X57.1 I1.25 J0.
X53.1 I-2. J0.
X58.6 I2.75 J0.
X51.6 I-3.5 J0.
X60.1 I4.25 J0.
X50.1 I-5. J0.
X61.6 I5.75 J0.
X48.6 I-6.5 J0.
X63.1 I7.25 J0.
X47.1 I-8. J0.
X63.1 I8. J0.
X63.067 Y-39.244 Z-21.966 I-1. J0.
G1 X63.029 Y-39.13 Z-21.916
X62.978 Y-39.021 Z-21.866
X62.923 Y-38.932 Z-21.787
X62.86 Y-38.85 Z-21.707
X62.806 Y-38.792 Z-21.604
X62.748 Y-38.738 Z-21.5
X62.669 Y-38.677 Z-21.259
X62.64 Y-38.659 Z-21.
G0 Z11.

M9
M30
