(1001)
(T1  D=9.85 CR=0. - ZMIN=-22. - FLAT END MILL)
G90 G94 G91.1 G40 G49 G17
G21

(POCKET-30MM-ROUGHING 2)
M5
T1 M6
S9700 M3
G54
M8
G0 X55.1 Y-39.5
G43 Z11. H1
G1 Z-10. F2328.
X55.107 Y-39.522
X55.126 Y-39.536
X55.149
X55.168 Y-39.522
X55.175 Y-39.5
X55.168 Y-39.467
X55.147 Y-39.441
X55.117 Y-39.427
X55.083
X55.053 Y-39.441
X55.032 Y-39.467
X55.025 Y-39.5
G3 X55.675 I0.325 J0.
X54.525 I-0.575 J0.
X56.175 I0.825 J0.
X54.025 I-1.075 J0.
X56.675 I1.325 J0.
X53.525 I-1.575 J0.
X57.175 I1.825 J0.
X53.025 I-2.075 J0.
X57.675 I2.325 J0.
X52.525 I-2.575 J0.
X58.175 I2.825 J0.
X52.025 I-3.075 J0.
X58.675 I3.325 J0.
X51.525 I-3.575 J0.
X59.175 I3.825 J0.
X51.025 I-4.075 J0.
X59.675 I4.325 J0.
X50.525 I-4.575 J0.
X60.175 I4.825 J0.
X50.025 I-5.075 J0.
X60.675 I5.325 J0.
X49.525 I-5.575 J0.
X61.175 I5.825 J0.
X49.025 I-6.075 J0.
X61.675 I6.325 J0.
X48.525 I-6.575 J0.
X62.175 I6.825 J0.
X48.025 I-7.075 J0.
X62.675 I7.325 J0.
X47.525 I-7.575 J0.
X63.175 I7.825 J0.
X47.025 I-8.075 J0.
X63.675 I8.325 J0.
X46.525 I-8.575 J0.
X64.175 I8.825 J0.
X46.025 I-9.075 J0.
X64.675 I9.325 J0.
X45.525 I-9.575 J0.
X65.175 I9.825 J0.
X45.025 I-10.075 J0.
X65.175 I10.075 J0.
X64.629 Y-39.01 I-0.493 J0.
G1 X60.191 Y-39.497
X60.137 Y-39.5
X60.084 Y-39.497
X55.646 Y-39.01
G3 X55.1 Y-39.5 I-0.054 J-0.49
G1 Z-18.
X55.175
X55.168 Y-39.467
X55.147 Y-39.441
X55.117 Y-39.427
X55.083
X55.053 Y-39.441
X55.032 Y-39.467
X55.025 Y-39.5
G3 X55.675 I0.325 J0.
X54.525 I-0.575 J0.
X56.175 I0.825 J0.
X54.025 I-1.075 J0.
X56.675 I1.325 J0.
X53.525 I-1.575 J0.
X57.175 I1.825 J0.
X53.025 I-2.075 J0.
X57.675 I2.325 J0.
X52.525 I-2.575 J0.
X58.175 I2.825 J0.
X52.025 I-3.075 J0.
X58.675 I3.325 J0.
X51.525 I-3.575 J0.
X59.175 I3.825 J0.
X51.025 I-4.075 J0.
X59.675 I4.325 J0.
X50.525 I-4.575 J0.
X60.175 I4.825 J0.
X50.025 I-5.075 J0.
X60.675 I5.325 J0.
X49.525 I-5.575 J0.
X61.175 I5.825 J0.
X49.025 I-6.075 J0.
X61.675 I6.325 J0.
X48.525 I-6.575 J0.
X62.175 I6.825 J0.
X48.025 I-7.075 J0.
X62.675 I7.325 J0.
X47.525 I-7.575 J0.
X63.175 I7.825 J0.
X47.025 I-8.075 J0.
X63.675 I8.325 J0.
X46.525 I-8.575 J0.
X64.175 I8.825 J0.
X46.025 I-9.075 J0.
X64.675 I9.325 J0.
X45.525 I-9.575 J0.
X65.175 I9.825 J0.
X45.025 I-10.075 J0.
X65.175 I10.075 J0.
X65.142 Y-39.248 Z-17.966 I-0.985 J0.
G1 X65.105 Y-39.135 Z-17.917
X65.054 Y-39.028 Z-17.868
X65.001 Y-38.941 Z-17.79
X64.939 Y-38.86 Z-17.712
X64.886 Y-38.803 Z-17.609
X64.828 Y-38.75 Z-17.507
X64.75 Y-38.69 Z-17.27
X64.722 Y-38.671 Z-17.015
G0 Z11.

(POCKET-26 3)
G0 X55.6 Y-40.5
Z11.
Z5.
G1 Z2.5 F2328.
Z-21. F330.
G19 G3 Y-39.5 Z-22. J1. K0.
G17 G3 X54.6 I-0.5 J0. F2328.
X57.1 I1.25 J0.
X53.1 I-2. J0.
X58.6 I2.75 J0.
X51.6 I-3.5 J0.
X60.1 I4.25 J0.
X50.1 I-5. J0.
X61.6 I5.75 J0.
X48.6 I-6.5 J0.
X63.1 I7.25 J0.
X47.1 I-8. J0.
X63.1 I8. J0.
X63.067 Y-39.244 Z-21.966 I-1. J0.
G1 X63.029 Y-39.13 Z-21.916
X62.978 Y-39.021 Z-21.866
X62.923 Y-38.932 Z-21.787
X62.86 Y-38.85 Z-21.707
X62.806 Y-38.792 Z-21.604
X62.748 Y-38.738 Z-21.5
X62.669 Y-38.677 Z-21.259
X62.64 Y-38.659 Z-21.
G0 Z11.

M9
M30
