(1001)
(T1  D=11. CR=0. - ZMIN=-0.6 - FLAT END MILL)
G90 G94 G91.1 G40 G49 G17
G21

(POCKET-MAIN-MARKING)
M5
T1 M6
S9700 M3
G54
M8
G0 X71.554 Y-76.537
G43 Z10. H1
Z5.
G1 Z3. F2328.
Z0.5
Y-76.53 Z0.377
Y-76.51 Z0.255
Y-76.475 Z0.137
Y-76.428 Z0.023
Y-76.369 Z-0.085
Y-76.297 Z-0.186
Y-76.215 Z-0.278
Y-76.123 Z-0.36
Y-76.022 Z-0.431
Y-75.914 Z-0.491
Y-75.8 Z-0.538
Y-75.682 Z-0.572
Y-75.56 Z-0.593
Y-75.437 Z-0.6
Y-75.394
X71.549 Y-62.5
X71.594 Y-37.574
G3 X71.33 Y-37.445 I-0.163 J0.
G2 X63.945 Y-42.133 I-26.73 J33.945
G3 X63.809 Y-42.555 I0.139 J-0.278
G2 X65.816 Y-47.004 I-38.684 J-20.13
G3 X67.75 Y-47.501 I1.191 J0.62
X68.693 Y-45.741 I-1.172 J1.761
G1 Y-43.128
G3 X68.423 Y-42.975 I-0.178 J0.
G2 X67.778 Y-43.358 I-23.823 J39.475
G3 X67.631 Y-43.811 I0.18 J-0.309
G2 X68.482 Y-45.863 I-42.149 J-18.689
G1 X68.502 Y-45.895
X68.531 Y-45.919
X68.566 Y-45.932
X68.604 Y-45.931
X68.639 Y-45.918
X68.668 Y-45.894
X68.687 Y-45.861
X68.693 Y-45.824
Y-45.741
G2 X69.793 Y-45.728 I0.55 J0.
G1 X70.454 Y-75.407
G3 X71.554 Y-75.394 I0.55 J0.012
G1 X71.549 Y-62.5
X71.594 Y-37.574
G3 X71.33 Y-37.445 I-0.163 J0.
G2 X63.945 Y-42.133 I-26.73 J33.945
G3 X63.809 Y-42.555 I0.139 J-0.278
G2 X68.733 Y-62.5 I-38.684 J-20.13
G1 X68.728 Y-75.387
G3 X69.278 Y-75.937 I0.55 J0.
G1 X73.944 Y-75.94
G3 X74.494 Y-75.39 I0. J0.55
G1 Y-30.907
G3 X74.244 Y-30.81 I-0.144 J0.
G2 X59.823 Y-40.821 I-29.644 J27.31
G3 X59.7 Y-41.2 I0.099 J-0.242
G2 X65.833 Y-62.5 I-34.473 J-21.458
G1 X65.828 Y-75.387
G3 X66.378 Y-75.937 I0.55 J0.
G1 X76.844 Y-75.943
G3 X77.394 Y-75.393 I0. J0.55
G1 Y-21.955
X77.388 Y-21.916
X77.369 Y-21.881
X77.34 Y-21.855
X77.305 Y-21.839
X77.266 Y-21.835
X77.228 Y-21.844
X77.195 Y-21.865
X77.17 Y-21.896
G2 X55.247 Y-39.359 I-32.57 J18.396
G3 X55.136 Y-39.7 I0.062 J-0.209
G2 X62.932 Y-62.5 I-29.824 J-22.93
G1 X62.927 Y-75.387
G3 X63.477 Y-75.937 I0.55 J0.
G1 X79.717 Y-75.934
G3 X80.267 Y-75.384 I0. J0.55
G1 X80.25 Y-3.5
G2 X81.413 Y5.387 I34.55 J0.
G3 X80.881 Y6.079 I-0.531 J0.141
G1 X78.519 Y6.077
G3 X77.988 Y5.385 I0.001 J-0.55
G2 X54.274 Y-36.668 I-33.388 J-8.885
G3 X52.77 Y-41.309 I0.826 J-2.832
G2 X60.032 Y-62.5 I-27.288 J-21.191
G1 X60.027 Y-75.387
G3 X60.577 Y-75.937 I0.55 J0.
G1 X82.616 Y-75.947
G3 X83.167 Y-75.397 I0. J0.55
G1 X83.15 Y-3.5
G2 X84.427 Y5.399 I31.65 J0.
G3 X83.899 Y6.104 I-0.528 J0.155
G1 X75.502 Y6.098
G3 X74.975 Y5.393 I0. J-0.55
G2 X53.462 Y-33.884 I-30.375 J-8.893
G3 X50.48 Y-43.088 I1.638 J-5.616
G2 X57.132 Y-62.5 I-24.998 J-19.412
G1 X57.127 Y-75.387
G3 X57.677 Y-75.937 I0.55 J0.
G1 X85.516 Y-75.943
G3 X86.066 Y-75.393 I0. J0.55
G1 X86.05 Y-3.5
G2 X87.459 Y5.389 I28.75 J0.
G3 X86.936 Y6.109 I-0.523 J0.17
G1 X72.463 Y6.115
G3 X71.939 Y5.395 I0. J-0.55
G2 X52.65 Y-31.1 I-27.339 J-8.895
G3 X48.189 Y-44.867 I2.45 J-8.4
G2 X54.232 Y-62.5 I-22.707 J-17.633
G1 X54.227 Y-75.387
G3 X54.777 Y-75.937 I0.55 J0.
G1 X88.416 Y-75.939
G3 X88.966 Y-75.389 I0. J0.55
G1 X88.95 Y-3.5
G2 X90.525 Y5.385 I25.85 J0.
G3 X90.009 Y6.124 I-0.516 J0.189
G1 X69.391 Y6.126
G3 X68.874 Y5.387 I0. J-0.55
G2 X51.838 Y-28.316 I-24.274 J-8.887
G3 X45.899 Y-46.645 I3.262 J-11.184
G2 X51.332 Y-62.5 I-20.417 J-15.855
G1 X51.328 Y-75.387
G3 X51.878 Y-75.937 I0.55 J0.
G1 X91.316 Y-75.936
G3 X91.866 Y-75.386 I0. J0.55
G1 X91.85 Y-3.5
G2 X93.644 Y5.396 I22.95 J0.
G3 X93.137 Y6.159 I-0.507 J0.213
G1 X66.263 Y6.157
G3 X65.756 Y5.394 I0. J-0.55
G2 X51.026 Y-25.532 I-21.156 J-8.894
G3 X43.608 Y-48.424 I4.074 J-13.968
G2 X48.432 Y-62.5 I-18.126 J-14.076
G1 X48.428 Y-75.387
G3 X48.977 Y-75.937 I0.55 J0.
G1 X94.216 Y-75.948
G3 X94.766 Y-75.398 I0. J0.55
G1 X94.75 Y-3.5
G2 X96.831 Y5.396 I20.05 J0.
G3 X96.338 Y6.19 I-0.493 J0.244
G1 X63.064 Y6.184
G3 X62.571 Y5.39 I0. J-0.55
G2 X50.214 Y-22.748 I-17.971 J-8.89
G3 X41.318 Y-50.203 I4.886 J-16.752
G2 X45.532 Y-62.5 I-15.836 J-12.297
G1 X45.528 Y-75.387
G3 X46.078 Y-75.937 I0.55 J0.
G1 X97.115 Y-75.945
G3 X97.665 Y-75.394 I0. J0.55
G1 X97.65 Y-3.5
G2 X100.135 Y5.391 I17.15 J0.
G3 X99.665 Y6.227 I-0.47 J0.285
G1 X59.732 Y6.232
G3 X59.262 Y5.397 I0. J-0.55
G2 X49.402 Y-19.964 I-14.662 J-8.897
G3 X39.027 Y-51.981 I5.698 J-19.536
G2 X42.632 Y-62.5 I-13.545 J-10.519
G1 X42.628 Y-75.387
G3 X43.178 Y-75.937 I0.55 J0.
G1 X100.015 Y-75.941
G3 X100.565 Y-75.391 I0. J0.55
G1 X100.55 Y-3.5
G2 X103.668 Y5.397 I14.25 J0.
G3 X103.239 Y6.29 I-0.43 J0.343
G1 X56.16 Y6.292
G3 X55.73 Y5.399 I0. J-0.55
G2 X48.59 Y-17.18 I-11.13 J-8.899
G3 X36.737 Y-53.76 I6.51 J-22.32
G2 X39.732 Y-62.5 I-11.255 J-8.74
G1 X39.728 Y-75.387
G3 X40.278 Y-75.937 I0.55 J0.
G1 X102.915
G3 X103.465 Y-75.387 I0. J0.55
G1 X103.45 Y-3.5
G2 X107.755 Y5.399 I11.35 J0.
G3 X107.414 Y6.38 I-0.341 J0.431
G1 X51.988 Y6.379
G3 X51.646 Y5.398 I0. J-0.55
G2 X47.778 Y-14.396 I-7.046 J-8.898
G3 X34.446 Y-55.539 I7.322 J-25.104
G2 X36.832 Y-62.5 I-8.965 J-6.961
G1 Y-70.
X36.83 Y-75.4
G3 X37.38 Y-75.95 I0.55 J0.
G1 X105.815
G3 X106.365 Y-75.4 I0. J0.55
G1 X106.35 Y-3.5
G2 X114.8 Y4.95 I8.45 J0.
G1 X142.043 Y4.943
G3 X142.593 Y5.493 I0. J0.55
X142.043 Y6.043 I-0.55 J0.
G1 X-2.039 Y6.039
G3 X-2.589 Y5.489 I0. J-0.55
X-2.039 Y4.939 I0.55 J0.
G1 X44.6 Y4.95
G2 X46.966 Y-11.612 I0. J-8.45
G3 X32.156 Y-57.317 I8.134 J-27.888
G2 X33.932 Y-62.5 I-6.674 J-5.183
G1 X33.928 Y-75.387
G3 X34.478 Y-75.937 I0.55 J0.
G1 X108.75 Y-75.944
G3 X109.3 Y-75.394 I0. J0.55
G1 Y-3.5
G2 X114.8 Y2. I5.5 J0.
G1 X140.
X144.959
G3 Y3.1 I0. J0.55
G1 X-4.954
G3 Y2. I0. J-0.55
G1 X44.6
G2 X46.14 Y-8.78 I0. J-5.5
G3 X29.826 Y-59.127 I8.96 J-30.72
G2 X30.982 Y-62.5 I-4.344 J-3.373
G1 Y-70.
Y-75.4
X30.985 Y-75.486
X30.995 Y-75.572
X31.271 Y-77.312
X31.29 Y-77.433 Z-0.593
X31.309 Y-77.553 Z-0.572
X31.328 Y-77.671 Z-0.538
X31.345 Y-77.783 Z-0.491
X31.362 Y-77.89 Z-0.431
X31.378 Y-77.989 Z-0.36
X31.392 Y-78.08 Z-0.278
X31.405 Y-78.161 Z-0.186
X31.416 Y-78.232 Z-0.085
X31.426 Y-78.291 Z0.023
X31.433 Y-78.337 Z0.137
X31.438 Y-78.371 Z0.255
X31.442 Y-78.391 Z0.377
X31.443 Y-78.398 Z0.5
G0 Z10.

M9
M30
