(1001)
(T1  D=11. CR=0. - ZMIN=-0.6 - FLAT END MILL)
G90 G94 G91.1 G40 G49 G17
G21

(UP-MAIN-MARKING)
M5
T1 M6
S9700 M3
G54
M8
G0 X68.728 Y6.537
G43 Z10. H1
Z5.
G1 Z3. F2328.
Z0.5
Y6.53 Z0.377
Y6.51 Z0.255
Y6.475 Z0.137
Y6.428 Z0.023
Y6.369 Z-0.085
Y6.297 Z-0.186
Y6.215 Z-0.278
Y6.123 Z-0.36
Y6.022 Z-0.431
Y5.914 Z-0.491
Y5.8 Z-0.538
Y5.682 Z-0.572
Y5.56 Z-0.593
Y5.437 Z-0.6
Y5.394
X68.733 Y-7.5
G2 X65.832 Y-22.999 I-42.856 J0.
G3 X67.011 Y-24.129 I1.13 J0.
G2 X67.943 Y-25.47 I0.042 J-0.965
X67.631 Y-26.189 I-42.461 J17.97
G3 X67.778 Y-26.642 I0.327 J-0.145
G2 X68.423 Y-27.025 I-23.178 J-39.858
G3 X68.693 Y-26.872 I0.092 J0.152
G1 Y-24.176
X68.687 Y-24.139
X68.668 Y-24.106
X68.639 Y-24.082
X68.604 Y-24.069
X68.566 Y-24.068
X68.531 Y-24.081
X68.502 Y-24.105
X68.482 Y-24.137
G2 X67.943 Y-25.47 I-43.001 J16.637
G3 X68.956 Y-25.899 I0.507 J-0.214
X68.999 Y-25.699 I-0.507 J0.214
G1 X69.828 Y5.38
G3 X69.285 Y5.944 I-0.55 J0.015
X68.728 Y5.394 I-0.007 J-0.55
G1 X68.733 Y-7.5
G2 X63.809 Y-27.445 I-42.856 J0.
G3 X63.945 Y-27.867 I0.276 J-0.144
G2 X71.33 Y-32.555 I-19.345 J-38.633
G3 X71.594 Y-32.426 I0.101 J0.128
G1 Y5.387
G3 X71.044 Y5.937 I-0.55 J0.
G1 X66.378 Y5.941
G3 X65.828 Y5.39 I0. J-0.55
G1 X65.833 Y-7.5
G2 X59.7 Y-28.8 I-40.055 J0.
G3 X59.823 Y-29.179 I0.222 J-0.138
G2 X74.244 Y-39.19 I-15.223 J-37.321
G3 X74.494 Y-39.093 I0.106 J0.098
G1 Y5.393
G3 X73.944 Y5.943 I-0.55 J0.
G1 X63.477
G3 X62.927 Y5.393 I0. J-0.55
G1 X62.932 Y-7.5
G2 X55.136 Y-30.3 I-37.238 J0.
G3 X55.247 Y-30.641 I0.173 J-0.133
G2 X77.17 Y-48.104 I-10.647 J-35.859
G1 X77.195 Y-48.135
X77.228 Y-48.156
X77.266 Y-48.165
X77.305 Y-48.161
X77.34 Y-48.145
X77.369 Y-48.119
X77.388 Y-48.084
X77.394 Y-48.045
Y5.396
G3 X76.844 Y5.946 I-0.55 J0.
G1 X60.577 Y5.934
G3 X60.027 Y5.384 I0. J-0.55
G1 X60.032 Y-7.5
G2 X52.77 Y-28.691 I-34.55 J0.
G3 X54.274 Y-33.332 I2.33 J-1.809
G2 X77.987 Y-75.391 I-9.674 J-33.168
G3 X78.519 Y-76.082 I0.531 J-0.142
G1 X80.882 Y-76.077
G3 X81.412 Y-75.385 I-0.001 J0.55
G2 X80.25 Y-66.5 I33.388 J8.885
G1 X80.267 Y5.391
G3 X79.717 Y5.941 I-0.55 J0.
G1 X57.677 Y5.947
G3 X57.127 Y5.397 I0. J-0.55
G1 X57.132 Y-7.5
G2 X50.48 Y-26.912 I-31.65 J0.
G3 X53.462 Y-36.116 I4.62 J-3.588
G2 X74.973 Y-75.399 I-8.862 J-30.384
G3 X75.501 Y-76.104 I0.528 J-0.155
G1 X83.898 Y-76.098
G3 X84.425 Y-75.393 I0. J0.55
G2 X83.15 Y-66.5 I30.375 J8.893
G1 X83.167 Y5.391
G3 X82.617 Y5.941 I-0.55 J0.
G1 X54.777 Y5.943
G3 X54.227 Y5.393 I0. J-0.55
G1 X54.232 Y-7.5
G2 X48.189 Y-25.133 I-28.75 J0.
G3 X52.65 Y-38.9 I6.911 J-5.367
G2 X71.942 Y-75.386 I-8.05 J-27.6
G3 X72.465 Y-76.106 I0.523 J-0.17
G1 X86.937 Y-76.115
G3 X87.461 Y-75.395 I0. J0.55
G2 X86.05 Y-66.5 I27.339 J8.895
G1 X86.066 Y5.391
G3 X85.516 Y5.941 I-0.55 J0.
G1 X51.877 Y5.939
G3 X51.328 Y5.389 I0. J-0.55
G1 X51.332 Y-7.5
G2 X45.899 Y-23.355 I-25.85 J0.
G3 X51.838 Y-41.684 I9.201 J-7.145
G2 X68.872 Y-75.394 I-7.238 J-24.816
G3 X69.388 Y-76.133 I0.516 J-0.189
G1 X90.009 Y-76.126
G3 X90.526 Y-75.387 I0. J0.55
G2 X88.95 Y-66.5 I24.274 J8.887
G1 X88.966 Y5.391
G3 X88.416 Y5.941 I-0.55 J0.
G1 X48.978 Y5.936
G3 X48.428 Y5.386 I0. J-0.55
G1 X48.432 Y-7.5
G2 X43.608 Y-21.576 I-22.95 J0.
G3 X51.026 Y-44.468 I11.492 J-8.924
G2 X65.76 Y-75.387 I-6.426 J-22.032
G3 X66.267 Y-76.149 I0.507 J-0.213
G1 X93.136 Y-76.157
G3 X93.644 Y-75.394 I0. J0.55
G2 X91.85 Y-66.5 I21.156 J8.894
G1 X91.866 Y5.391
G3 X91.316 Y5.941 I-0.55 J0.
G1 X46.078 Y5.948
G3 X45.528 Y5.398 I0. J-0.55
G1 X45.532 Y-7.5
G2 X41.318 Y-19.797 I-20.05 J0.
G3 X50.214 Y-47.252 I13.782 J-10.703
G2 X62.567 Y-75.398 I-5.614 J-19.248
G3 X63.06 Y-76.192 I0.493 J-0.244
G1 X96.336 Y-76.184
G3 X96.829 Y-75.39 I0. J0.55
G2 X94.75 Y-66.5 I17.971 J8.89
G1 X94.766 Y5.391
G3 X94.216 Y5.941 I-0.55 J0.
G1 X43.178 Y5.945
G3 X42.628 Y5.394 I0. J-0.55
G1 X42.632 Y-7.5
G2 X39.027 Y-18.019 I-17.15 J0.
G3 X49.402 Y-50.036 I16.073 J-12.481
G2 X59.265 Y-75.391 I-4.802 J-16.464
G3 X59.736 Y-76.226 I0.47 J-0.285
G1 X99.668 Y-76.232
G3 X100.138 Y-75.397 I0. J0.55
G2 X97.65 Y-66.5 I14.662 J8.897
G1 X97.665 Y5.391
G3 X97.115 Y5.941 I-0.55 J0.
G1 X40.278
G3 X39.728 Y5.391 I0. J-0.55
G1 X39.732 Y-7.5
G2 X36.737 Y-16.24 I-14.25 J0.
G3 X48.59 Y-52.82 I18.363 J-14.26
G2 X55.734 Y-75.394 I-3.99 J-13.68
G3 X56.164 Y-76.287 I0.43 J-0.343
G1 X103.24 Y-76.292
G3 X103.67 Y-75.399 I0. J0.55
G2 X100.55 Y-66.5 I11.13 J8.899
G1 X100.565 Y5.391
G3 X100.015 Y5.941 I-0.55 J0.
G1 X37.378 Y5.937
G3 X36.828 Y5.387 I0. J-0.55
G1 X36.832 Y-7.5
G2 X34.446 Y-14.461 I-11.35 J0.
G3 X47.778 Y-55.604 I20.654 J-16.039
G2 X51.651 Y-75.394 I-3.178 J-10.896
G3 X51.992 Y-76.375 I0.342 J-0.431
G1 X107.412 Y-76.379
G3 X107.754 Y-75.398 I0. J0.55
G2 X103.45 Y-66.5 I7.046 J8.898
G1 X103.465 Y5.391
G3 X102.915 Y5.941 I-0.55 J0.
G1 X34.478 Y5.95
G3 X33.928 Y5.4 I0. J-0.55
G1 X33.932 Y-7.5
G2 X32.156 Y-12.683 I-8.45 J0.
G3 X46.966 Y-58.388 I22.944 J-17.817
G2 X44.6 Y-74.95 I-2.366 J-8.112
G1 X-2.039 Y-74.939
G3 X-2.589 Y-75.489 I0. J-0.55
X-2.039 Y-76.039 I0.55 J0.
G1 X142.039 Y-76.043
G3 X142.589 Y-75.493 I0. J0.55
X142.039 Y-74.943 I-0.55 J0.
G1 X114.8 Y-74.95
G2 X106.35 Y-66.5 I0. J8.45
G1 X106.365 Y5.391
G3 X105.815 Y5.941 I-0.55 J0.
G1 X31.532 Y5.944
G3 X30.982 Y5.394 I0. J-0.55
G1 Y-7.5
G2 X29.826 Y-10.873 I-5.5 J0.
G3 X46.14 Y-61.22 I25.274 J-19.627
G2 X44.6 Y-72. I-1.54 J-5.28
G1 X0.
X-4.959
G3 Y-73.1 I0. J-0.55
G1 X144.954
G3 Y-72. I0. J0.55
G1 X114.8
G2 X109.3 Y-66.5 I0. J5.5
G1 Y0.
Y5.4
X109.297 Y5.486
X109.286 Y5.572
X109.011 Y7.312
X108.992 Y7.433 Z-0.593
X108.973 Y7.553 Z-0.572
X108.954 Y7.671 Z-0.538
X108.936 Y7.783 Z-0.491
X108.919 Y7.89 Z-0.431
X108.904 Y7.989 Z-0.36
X108.889 Y8.08 Z-0.278
X108.876 Y8.161 Z-0.186
X108.865 Y8.232 Z-0.085
X108.856 Y8.291 Z0.023
X108.848 Y8.337 Z0.137
X108.843 Y8.371 Z0.255
X108.84 Y8.391 Z0.377
X108.839 Y8.398 Z0.5
G0 Z10.

M9
M30
