(1001)
(T1  D=10. CR=0. - ZMIN=-22. - FLAT END MILL)
G90 G94 G91.1 G40 G49 G17
G21

(POCKET - MAIN ROUGHING 2)
M5
T1 M6
S9700 M3
G54
M8
G0 X68.228 Y5.928
G43 Z10. H1
Z5.
G1 Z3. F2328.
Z-1.
Y5.92 Z-1.121
Y5.898 Z-1.239
Y5.863 Z-1.355
Y5.813 Z-1.465
Y5.75 Z-1.568
Y5.676 Z-1.663
Y5.591 Z-1.749
Y5.496 Z-1.823
Y5.392 Z-1.885
Y5.282 Z-1.935
Y5.167 Z-1.971
Y5.048 Z-1.993
Y4.928 Z-2.
X68.233 Y-7.5
G2 X66.277 Y-20.223 I-42.375 J0.
G3 X67.505 Y-21.287 I1.075 J0.
G2 X68.537 Y-22.541 I0.135 J-0.941
X66.987 Y-26.401 I-43.055 J15.041
G3 X67.132 Y-26.848 I0.317 J-0.144
G2 X68.925 Y-27.922 I-22.532 J-39.652
G3 X69.193 Y-27.774 I0.093 J0.148
G1 Y-21.212
X69.187 Y-21.175
X69.168 Y-21.143
X69.139 Y-21.12
X69.104 Y-21.108
X69.067 Y-21.109
X69.033 Y-21.123
X69.005 Y-21.148
X68.988 Y-21.18
G2 X68.537 Y-22.541 I-43.507 J13.68
G3 X69.481 Y-22.871 I0.472 J-0.165
X69.509 Y-22.701 I-0.472 J0.165
G1 X69.228 Y4.894
G3 X68.228 Y4.888 I-0.5 J-0.005
G1 X68.233 Y-7.5
G2 X63.124 Y-27.671 I-42.375 J0.
G3 X63.258 Y-28.086 I0.267 J-0.143
G2 X71.832 Y-33.603 I-18.658 J-38.414
G3 X72.094 Y-33.479 I0.102 J0.123
G1 Y4.89
G3 X71.595 Y5.39 I-0.5 J0.
G1 X65.829 Y5.397
G3 X65.328 Y4.897 I-0.001 J-0.5
G1 X65.333 Y-7.5
G2 X58.952 Y-29.046 I-39.57 J0.
G3 X59.073 Y-29.418 I0.212 J-0.137
G2 X74.747 Y-40.506 I-14.473 J-37.082
G3 X74.994 Y-40.414 I0.106 J0.092
G1 Y4.889
G3 X74.494 Y5.389 I-0.5 J0.
G1 X62.928 Y5.396
G3 X62.427 Y4.896 I0. J-0.5
G1 X62.432 Y-7.5
G2 X54.666 Y-30.163 I-36.95 J0.
G3 X54.946 Y-31.028 I0.434 J-0.337
G2 X77.675 Y-50.127 I-10.308 J-35.341
G1 X77.698 Y-50.158
X77.729 Y-50.18
X77.766 Y-50.19
X77.805 Y-50.188
X77.84 Y-50.173
X77.869 Y-50.147
X77.888 Y-50.113
X77.894 Y-50.075
Y4.898
G3 X77.394 Y5.398 I-0.5 J0.
G1 X60.027 Y5.399
G3 X59.527 Y4.899 I0. J-0.5
G1 X59.532 Y-7.5
G2 X52.375 Y-28.384 I-34.05 J0.
G3 X54.134 Y-33.812 I2.725 J-2.116
G2 X77.6 Y-74.889 I-9.534 J-32.688
G3 X78.085 Y-75.513 I0.485 J-0.123
G1 X81.315 Y-75.514
G3 X81.8 Y-74.891 I0. J0.5
G2 X80.75 Y-66.5 I33. J8.391
G1 X80.767 Y4.89
G3 X80.267 Y5.39 I-0.5 J0.
G1 X57.128 Y5.392
G3 X56.628 Y4.892 I0. J-0.5
G1 X56.632 Y-7.5
G2 X50.085 Y-26.605 I-31.15 J0.
G3 X53.322 Y-36.596 I5.015 J-3.895
G2 X74.599 Y-74.888 I-8.722 J-29.904
G3 X75.081 Y-75.523 I0.482 J-0.135
G1 X84.319
G3 X84.801 Y-74.889 I0. J0.5
G2 X83.65 Y-66.5 I29.999 J8.389
G1 X83.666 Y4.89
G3 X83.167 Y5.39 I-0.5 J0.
G1 X54.228 Y5.4
G3 X53.728 Y4.9 I0. J-0.5
G1 X53.732 Y-7.5
G2 X47.794 Y-24.827 I-28.25 J0.
G3 X52.51 Y-39.38 I7.306 J-5.673
G2 X71.573 Y-74.897 I-7.91 J-27.12
G3 X72.051 Y-75.545 I0.477 J-0.149
G1 X87.349 Y-75.544
G3 X87.826 Y-74.896 I0. J0.5
G2 X86.55 Y-66.5 I26.974 J8.396
G1 X86.566 Y4.89
G3 X86.066 Y5.39 I-0.5 J0.
G1 X51.328 Y5.393
G3 X50.828 Y4.893 I0. J-0.5
G1 X50.832 Y-7.5
G2 X45.504 Y-23.048 I-25.35 J0.
G3 X51.698 Y-42.164 I9.596 J-7.452
G2 X68.519 Y-74.896 I-7.098 J-24.336
G3 X68.991 Y-75.562 I0.472 J-0.166
G1 X90.408 Y-75.559
G3 X90.88 Y-74.894 I0. J0.5
G2 X89.45 Y-66.5 I23.92 J8.394
G1 X89.466 Y4.89
G3 X88.966 Y5.39 I-0.5 J0.
G1 X48.428 Y5.386
G3 X47.928 Y4.885 I0. J-0.5
G1 X47.932 Y-7.5
G2 X43.213 Y-21.269 I-22.45 J0.
G3 X50.886 Y-44.948 I11.887 J-9.231
G2 X65.421 Y-74.896 I-6.286 J-21.552
G3 X65.885 Y-75.583 I0.464 J-0.187
G1 X93.514 Y-75.58
G3 X93.978 Y-74.893 I0. J0.5
G2 X92.35 Y-66.5 I20.822 J8.393
G1 X92.366 Y4.89
G3 X91.866 Y5.39 I-0.5 J0.
G1 X45.528 Y5.394
G3 X45.028 Y4.894 I0. J-0.5
G1 X45.032 Y-7.5
G2 X40.923 Y-19.491 I-19.55 J0.
G3 X50.074 Y-47.732 I14.177 J-11.009
G2 X62.259 Y-74.887 I-5.474 J-18.768
G3 X62.711 Y-75.602 I0.452 J-0.215
G1 X96.694 Y-75.612
G3 X97.145 Y-74.897 I0. J0.5
G2 X95.25 Y-66.5 I17.655 J8.397
G1 X95.266 Y4.89
G3 X94.765 Y5.39 I-0.5 J0.
G1 X42.628 Y5.387
G3 X42.128 Y4.887 I0. J-0.5
G1 X42.132 Y-7.5
G2 X38.632 Y-17.712 I-16.65 J0.
G3 X49.262 Y-50.516 I16.468 J-12.788
G2 X58.981 Y-74.891 I-4.662 J-15.984
G3 X59.413 Y-75.643 I0.432 J-0.252
G1 X99.992 Y-75.651
G3 X100.424 Y-74.899 I0. J0.5
G2 X98.15 Y-66.5 I14.376 J8.399
G1 X98.165 Y4.89
G3 X97.665 Y5.39 I-0.5 J0.
G1 X39.728 Y5.395
G3 X39.228 Y4.895 I0. J-0.5
G1 X39.232 Y-7.5
G2 X36.342 Y-15.933 I-13.75 J0.
G3 X48.45 Y-53.3 I18.758 J-14.567
G2 X55.491 Y-74.894 I-3.85 J-13.2
G3 X55.887 Y-75.699 I0.396 J-0.305
G1 X103.509 Y-75.693
G3 X103.905 Y-74.888 I0. J0.5
G2 X101.05 Y-66.5 I10.895 J8.388
G1 X101.065 Y4.89
G3 X100.565 Y5.39 I-0.5 J0.
G1 X36.828 Y5.388
G3 X36.328 Y4.888 I0. J-0.5
G1 X36.332 Y-7.5
G2 X34.051 Y-14.155 I-10.85 J0.
G3 X47.638 Y-56.084 I21.049 J-16.345
G2 X51.469 Y-74.899 I-3.038 J-10.416
G3 X51.786 Y-75.786 I0.317 J-0.387
G1 X107.607 Y-75.78
G3 X107.924 Y-74.893 I0. J0.5
G2 X103.95 Y-66.5 I6.876 J8.393
G1 X103.965 Y4.89
G3 X103.465 Y5.39 I-0.5 J0.
G1 X33.928 Y5.396
G3 X33.428 Y4.896 I0. J-0.5
G1 X33.432 Y-7.5
G2 X31.761 Y-12.376 I-7.95 J0.
G3 X46.826 Y-58.868 I23.339 J-18.124
G2 X44.6 Y-74.45 I-2.226 J-7.632
G1 X-1.993 Y-74.439
G3 X-2.494 Y-74.939 I0. J-0.5
X-1.994 Y-75.439 I0.5 J0.
G1 X141.989 Y-75.443
G3 X142.489 Y-74.943 I0. J0.5
X141.989 Y-74.443 I-0.5 J0.
G1 X114.8 Y-74.45
G2 X106.85 Y-66.5 I0. J7.95
G1 X106.865 Y4.89
G3 X106.365 Y5.39 I-0.5 J0.
G1 X30.982 Y5.387
G3 X30.482 Y4.887 I0. J-0.5
G1 Y-7.5
G2 X29.431 Y-10.567 I-5. J0.
G3 X46. Y-61.7 I25.669 J-19.933
G2 X44.6 Y-71.5 I-1.4 J-4.8
G1 X0.
X-4.586
G3 Y-72.5 I0. J-0.5
G1 X144.591
G3 Y-71.5 I0. J0.5
G1 X114.8
G2 X109.8 Y-66.5 I0. J5.
G1 Y0.
Y4.897
G3 X109.325 Y5.397 I-0.5 J0.
G1 X68.752 Y7.427
G3 X68.227 Y6.928 I-0.025 J-0.499
G1 Y6.807 Z-2.007
Y6.688 Z-2.029
X68.228 Y6.573 Z-2.065
Y6.463 Z-2.115
Y6.359 Z-2.177
Y6.264 Z-2.251
Y6.179 Z-2.337
Y6.105 Z-2.432
Y6.042 Z-2.535
Y5.992 Z-2.645
Y5.957 Z-2.761
Y5.935 Z-2.879
Y5.928 Z-3.
Y5.92 Z-3.121
Y5.898 Z-3.239
Y5.863 Z-3.355
Y5.813 Z-3.465
Y5.75 Z-3.568
Y5.676 Z-3.663
Y5.591 Z-3.749
Y5.496 Z-3.823
Y5.392 Z-3.885
Y5.282 Z-3.935
Y5.167 Z-3.971
Y5.048 Z-3.993
Y4.928 Z-4.
X68.233 Y-7.5
G2 X66.277 Y-20.223 I-42.375 J0.
G3 X67.505 Y-21.287 I1.075 J0.
G2 X68.537 Y-22.541 I0.135 J-0.941
X66.987 Y-26.401 I-43.055 J15.041
G3 X67.132 Y-26.848 I0.317 J-0.144
G2 X68.925 Y-27.922 I-22.532 J-39.652
G3 X69.193 Y-27.774 I0.093 J0.148
G1 Y-21.212
X69.187 Y-21.175
X69.168 Y-21.143
X69.139 Y-21.12
X69.104 Y-21.108
X69.067 Y-21.109
X69.033 Y-21.123
X69.005 Y-21.148
X68.988 Y-21.18
G2 X68.537 Y-22.541 I-43.507 J13.68
G3 X69.481 Y-22.871 I0.472 J-0.165
X69.509 Y-22.701 I-0.472 J0.165
G1 X69.228 Y4.894
G3 X68.228 Y4.888 I-0.5 J-0.005
G1 X68.233 Y-7.5
G2 X63.124 Y-27.671 I-42.375 J0.
G3 X63.258 Y-28.086 I0.267 J-0.143
G2 X71.832 Y-33.603 I-18.658 J-38.414
G3 X72.094 Y-33.479 I0.102 J0.123
G1 Y4.89
G3 X71.595 Y5.39 I-0.5 J0.
G1 X65.829 Y5.397
G3 X65.328 Y4.897 I-0.001 J-0.5
G1 X65.333 Y-7.5
G2 X58.952 Y-29.046 I-39.57 J0.
G3 X59.073 Y-29.418 I0.212 J-0.137
G2 X74.747 Y-40.506 I-14.473 J-37.082
G3 X74.994 Y-40.414 I0.106 J0.092
G1 Y4.889
G3 X74.494 Y5.389 I-0.5 J0.
G1 X62.928 Y5.396
G3 X62.427 Y4.896 I0. J-0.5
G1 X62.432 Y-7.5
G2 X54.666 Y-30.163 I-36.95 J0.
G3 X54.946 Y-31.028 I0.434 J-0.337
G2 X77.675 Y-50.127 I-10.308 J-35.341
G1 X77.698 Y-50.158
X77.729 Y-50.18
X77.766 Y-50.19
X77.805 Y-50.188
X77.84 Y-50.173
X77.869 Y-50.147
X77.888 Y-50.113
X77.894 Y-50.075
Y4.898
G3 X77.394 Y5.398 I-0.5 J0.
G1 X60.027 Y5.399
G3 X59.527 Y4.899 I0. J-0.5
G1 X59.532 Y-7.5
G2 X52.375 Y-28.384 I-34.05 J0.
G3 X54.134 Y-33.812 I2.725 J-2.116
G2 X77.6 Y-74.889 I-9.534 J-32.688
G3 X78.085 Y-75.513 I0.485 J-0.123
G1 X81.315 Y-75.514
G3 X81.8 Y-74.891 I0. J0.5
G2 X80.75 Y-66.5 I33. J8.391
G1 X80.767 Y4.89
G3 X80.267 Y5.39 I-0.5 J0.
G1 X57.128 Y5.392
G3 X56.628 Y4.892 I0. J-0.5
G1 X56.632 Y-7.5
G2 X50.085 Y-26.605 I-31.15 J0.
G3 X53.322 Y-36.596 I5.015 J-3.895
G2 X74.599 Y-74.888 I-8.722 J-29.904
G3 X75.081 Y-75.523 I0.482 J-0.135
G1 X84.319
G3 X84.801 Y-74.889 I0. J0.5
G2 X83.65 Y-66.5 I29.999 J8.389
G1 X83.666 Y4.89
G3 X83.167 Y5.39 I-0.5 J0.
G1 X54.228 Y5.4
G3 X53.728 Y4.9 I0. J-0.5
G1 X53.732 Y-7.5
G2 X47.794 Y-24.827 I-28.25 J0.
G3 X52.51 Y-39.38 I7.306 J-5.673
G2 X71.573 Y-74.897 I-7.91 J-27.12
G3 X72.051 Y-75.545 I0.477 J-0.149
G1 X87.349 Y-75.544
G3 X87.826 Y-74.896 I0. J0.5
G2 X86.55 Y-66.5 I26.974 J8.396
G1 X86.566 Y4.89
G3 X86.066 Y5.39 I-0.5 J0.
G1 X51.328 Y5.393
G3 X50.828 Y4.893 I0. J-0.5
G1 X50.832 Y-7.5
G2 X45.504 Y-23.048 I-25.35 J0.
G3 X51.698 Y-42.164 I9.596 J-7.452
G2 X68.519 Y-74.896 I-7.098 J-24.336
G3 X68.991 Y-75.562 I0.472 J-0.166
G1 X90.408 Y-75.559
G3 X90.88 Y-74.894 I0. J0.5
G2 X89.45 Y-66.5 I23.92 J8.394
G1 X89.466 Y4.89
G3 X88.966 Y5.39 I-0.5 J0.
G1 X48.428 Y5.386
G3 X47.928 Y4.885 I0. J-0.5
G1 X47.932 Y-7.5
G2 X43.213 Y-21.269 I-22.45 J0.
G3 X50.886 Y-44.948 I11.887 J-9.231
G2 X65.421 Y-74.896 I-6.286 J-21.552
G3 X65.885 Y-75.583 I0.464 J-0.187
G1 X93.514 Y-75.58
G3 X93.978 Y-74.893 I0. J0.5
G2 X92.35 Y-66.5 I20.822 J8.393
G1 X92.366 Y4.89
G3 X91.866 Y5.39 I-0.5 J0.
G1 X45.528 Y5.394
G3 X45.028 Y4.894 I0. J-0.5
G1 X45.032 Y-7.5
G2 X40.923 Y-19.491 I-19.55 J0.
G3 X50.074 Y-47.732 I14.177 J-11.009
G2 X62.259 Y-74.887 I-5.474 J-18.768
G3 X62.711 Y-75.602 I0.452 J-0.215
G1 X96.694 Y-75.612
G3 X97.145 Y-74.897 I0. J0.5
G2 X95.25 Y-66.5 I17.655 J8.397
G1 X95.266 Y4.89
G3 X94.765 Y5.39 I-0.5 J0.
G1 X42.628 Y5.387
G3 X42.128 Y4.887 I0. J-0.5
G1 X42.132 Y-7.5
G2 X38.632 Y-17.712 I-16.65 J0.
G3 X49.262 Y-50.516 I16.468 J-12.788
G2 X58.981 Y-74.891 I-4.662 J-15.984
G3 X59.413 Y-75.643 I0.432 J-0.252
G1 X99.992 Y-75.651
G3 X100.424 Y-74.899 I0. J0.5
G2 X98.15 Y-66.5 I14.376 J8.399
G1 X98.165 Y4.89
G3 X97.665 Y5.39 I-0.5 J0.
G1 X39.728 Y5.395
G3 X39.228 Y4.895 I0. J-0.5
G1 X39.232 Y-7.5
G2 X36.342 Y-15.933 I-13.75 J0.
G3 X48.45 Y-53.3 I18.758 J-14.567
G2 X55.491 Y-74.894 I-3.85 J-13.2
G3 X55.887 Y-75.699 I0.396 J-0.305
G1 X103.509 Y-75.693
G3 X103.905 Y-74.888 I0. J0.5
G2 X101.05 Y-66.5 I10.895 J8.388
G1 X101.065 Y4.89
G3 X100.565 Y5.39 I-0.5 J0.
G1 X36.828 Y5.388
G3 X36.328 Y4.888 I0. J-0.5
G1 X36.332 Y-7.5
G2 X34.051 Y-14.155 I-10.85 J0.
G3 X47.638 Y-56.084 I21.049 J-16.345
G2 X51.469 Y-74.899 I-3.038 J-10.416
G3 X51.786 Y-75.786 I0.317 J-0.387
G1 X107.607 Y-75.78
G3 X107.924 Y-74.893 I0. J0.5
G2 X103.95 Y-66.5 I6.876 J8.393
G1 X103.965 Y4.89
G3 X103.465 Y5.39 I-0.5 J0.
G1 X33.928 Y5.396
G3 X33.428 Y4.896 I0. J-0.5
G1 X33.432 Y-7.5
G2 X31.761 Y-12.376 I-7.95 J0.
G3 X46.826 Y-58.868 I23.339 J-18.124
G2 X44.6 Y-74.45 I-2.226 J-7.632
G1 X-1.993 Y-74.439
G3 X-2.494 Y-74.939 I0. J-0.5
X-1.994 Y-75.439 I0.5 J0.
G1 X141.989 Y-75.443
G3 X142.489 Y-74.943 I0. J0.5
X141.989 Y-74.443 I-0.5 J0.
G1 X114.8 Y-74.45
G2 X106.85 Y-66.5 I0. J7.95
G1 X106.865 Y4.89
G3 X106.365 Y5.39 I-0.5 J0.
G1 X30.982 Y5.387
G3 X30.482 Y4.887 I0. J-0.5
G1 Y-7.5
G2 X29.431 Y-10.567 I-5. J0.
G3 X46. Y-61.7 I25.669 J-19.933
G2 X44.6 Y-71.5 I-1.4 J-4.8
G1 X0.
X-4.586
G3 Y-72.5 I0. J-0.5
G1 X144.591
G3 Y-71.5 I0. J0.5
G1 X114.8
G2 X109.8 Y-66.5 I0. J5.
G1 Y0.
Y4.897
G3 X109.322 Y5.397 I-0.5 J0.
G1 X68.749 Y7.159
G3 X68.227 Y6.66 I-0.022 J-0.5
G1 X68.228 Y6.543 Z-4.007
Y6.429 Z-4.027
Y6.318 Z-4.06
Y6.211 Z-4.106
Y6.11 Z-4.165
Y6.017 Z-4.234
Y5.932 Z-4.314
Y5.857 Z-4.403
Y5.794 Z-4.5
Y5.73 Z-4.597
Y5.655 Z-4.686
Y5.57 Z-4.766
Y5.477 Z-4.835
Y5.376 Z-4.894
Y5.27 Z-4.94
Y5.158 Z-4.973
Y5.044 Z-4.993
Y4.928 Z-5.
X68.233 Y-7.5
G2 X66.277 Y-20.223 I-42.375 J0.
G3 X67.505 Y-21.287 I1.075 J0.
G2 X68.537 Y-22.541 I0.135 J-0.941
X66.987 Y-26.401 I-43.055 J15.041
G3 X67.132 Y-26.848 I0.317 J-0.144
G2 X68.925 Y-27.922 I-22.532 J-39.652
G3 X69.193 Y-27.774 I0.093 J0.148
G1 Y-21.212
X69.187 Y-21.175
X69.168 Y-21.143
X69.139 Y-21.12
X69.104 Y-21.108
X69.067 Y-21.109
X69.033 Y-21.123
X69.005 Y-21.148
X68.988 Y-21.18
G2 X68.537 Y-22.541 I-43.507 J13.68
G3 X69.481 Y-22.871 I0.472 J-0.165
X69.509 Y-22.701 I-0.472 J0.165
G1 X69.228 Y4.894
G3 X68.228 Y4.888 I-0.5 J-0.005
G1 X68.233 Y-7.5
G2 X63.124 Y-27.671 I-42.375 J0.
G3 X63.258 Y-28.086 I0.267 J-0.143
G2 X71.832 Y-33.603 I-18.658 J-38.414
G3 X72.094 Y-33.479 I0.102 J0.123
G1 Y4.89
G3 X71.595 Y5.39 I-0.5 J0.
G1 X65.829 Y5.397
G3 X65.328 Y4.897 I-0.001 J-0.5
G1 X65.333 Y-7.5
G2 X58.952 Y-29.046 I-39.57 J0.
G3 X59.073 Y-29.418 I0.212 J-0.137
G2 X74.747 Y-40.506 I-14.473 J-37.082
G3 X74.994 Y-40.414 I0.106 J0.092
G1 Y4.889
G3 X74.494 Y5.389 I-0.5 J0.
G1 X62.928 Y5.396
G3 X62.427 Y4.896 I0. J-0.5
G1 X62.432 Y-7.5
G2 X54.666 Y-30.163 I-36.95 J0.
G3 X54.946 Y-31.028 I0.434 J-0.337
G2 X77.675 Y-50.127 I-10.308 J-35.341
G1 X77.698 Y-50.158
X77.729 Y-50.18
X77.766 Y-50.19
X77.805 Y-50.188
X77.84 Y-50.173
X77.869 Y-50.147
X77.888 Y-50.113
X77.894 Y-50.075
Y4.898
G3 X77.394 Y5.398 I-0.5 J0.
G1 X60.027 Y5.399
G3 X59.527 Y4.899 I0. J-0.5
G1 X59.532 Y-7.5
G2 X52.375 Y-28.384 I-34.05 J0.
G3 X54.134 Y-33.812 I2.725 J-2.116
G2 X77.6 Y-74.889 I-9.534 J-32.688
G3 X78.085 Y-75.513 I0.485 J-0.123
G1 X81.315 Y-75.514
G3 X81.8 Y-74.891 I0. J0.5
G2 X80.75 Y-66.5 I33. J8.391
G1 X80.767 Y4.89
G3 X80.267 Y5.39 I-0.5 J0.
G1 X57.128 Y5.392
G3 X56.628 Y4.892 I0. J-0.5
G1 X56.632 Y-7.5
G2 X50.085 Y-26.605 I-31.15 J0.
G3 X53.322 Y-36.596 I5.015 J-3.895
G2 X74.599 Y-74.888 I-8.722 J-29.904
G3 X75.081 Y-75.523 I0.482 J-0.135
G1 X84.319
G3 X84.801 Y-74.889 I0. J0.5
G2 X83.65 Y-66.5 I29.999 J8.389
G1 X83.666 Y4.89
G3 X83.167 Y5.39 I-0.5 J0.
G1 X54.228 Y5.4
G3 X53.728 Y4.9 I0. J-0.5
G1 X53.732 Y-7.5
G2 X47.794 Y-24.827 I-28.25 J0.
G3 X52.51 Y-39.38 I7.306 J-5.673
G2 X71.573 Y-74.897 I-7.91 J-27.12
G3 X72.051 Y-75.545 I0.477 J-0.149
G1 X87.349 Y-75.544
G3 X87.826 Y-74.896 I0. J0.5
G2 X86.55 Y-66.5 I26.974 J8.396
G1 X86.566 Y4.89
G3 X86.066 Y5.39 I-0.5 J0.
G1 X51.328 Y5.393
G3 X50.828 Y4.893 I0. J-0.5
G1 X50.832 Y-7.5
G2 X45.504 Y-23.048 I-25.35 J0.
G3 X51.698 Y-42.164 I9.596 J-7.452
G2 X68.519 Y-74.896 I-7.098 J-24.336
G3 X68.991 Y-75.562 I0.472 J-0.166
G1 X90.408 Y-75.559
G3 X90.88 Y-74.894 I0. J0.5
G2 X89.45 Y-66.5 I23.92 J8.394
G1 X89.466 Y4.89
G3 X88.966 Y5.39 I-0.5 J0.
G1 X48.428 Y5.386
G3 X47.928 Y4.885 I0. J-0.5
G1 X47.932 Y-7.5
G2 X43.213 Y-21.269 I-22.45 J0.
G3 X50.886 Y-44.948 I11.887 J-9.231
G2 X65.421 Y-74.896 I-6.286 J-21.552
G3 X65.885 Y-75.583 I0.464 J-0.187
G1 X93.514 Y-75.58
G3 X93.978 Y-74.893 I0. J0.5
G2 X92.35 Y-66.5 I20.822 J8.393
G1 X92.366 Y4.89
G3 X91.866 Y5.39 I-0.5 J0.
G1 X45.528 Y5.394
G3 X45.028 Y4.894 I0. J-0.5
G1 X45.032 Y-7.5
G2 X40.923 Y-19.491 I-19.55 J0.
G3 X50.074 Y-47.732 I14.177 J-11.009
G2 X62.259 Y-74.887 I-5.474 J-18.768
G3 X62.711 Y-75.602 I0.452 J-0.215
G1 X96.694 Y-75.612
G3 X97.145 Y-74.897 I0. J0.5
G2 X95.25 Y-66.5 I17.655 J8.397
G1 X95.266 Y4.89
G3 X94.765 Y5.39 I-0.5 J0.
G1 X42.628 Y5.387
G3 X42.128 Y4.887 I0. J-0.5
G1 X42.132 Y-7.5
G2 X38.632 Y-17.712 I-16.65 J0.
G3 X49.262 Y-50.516 I16.468 J-12.788
G2 X58.981 Y-74.891 I-4.662 J-15.984
G3 X59.413 Y-75.643 I0.432 J-0.252
G1 X99.992 Y-75.651
G3 X100.424 Y-74.899 I0. J0.5
G2 X98.15 Y-66.5 I14.376 J8.399
G1 X98.165 Y4.89
G3 X97.665 Y5.39 I-0.5 J0.
G1 X39.728 Y5.395
G3 X39.228 Y4.895 I0. J-0.5
G1 X39.232 Y-7.5
G2 X36.342 Y-15.933 I-13.75 J0.
G3 X48.45 Y-53.3 I18.758 J-14.567
G2 X55.491 Y-74.894 I-3.85 J-13.2
G3 X55.887 Y-75.699 I0.396 J-0.305
G1 X103.509 Y-75.693
G3 X103.905 Y-74.888 I0. J0.5
G2 X101.05 Y-66.5 I10.895 J8.388
G1 X101.065 Y4.89
G3 X100.565 Y5.39 I-0.5 J0.
G1 X36.828 Y5.388
G3 X36.328 Y4.888 I0. J-0.5
G1 X36.332 Y-7.5
G2 X34.051 Y-14.155 I-10.85 J0.
G3 X47.638 Y-56.084 I21.049 J-16.345
G2 X51.469 Y-74.899 I-3.038 J-10.416
G3 X51.786 Y-75.786 I0.317 J-0.387
G1 X107.607 Y-75.78
G3 X107.924 Y-74.893 I0. J0.5
G2 X103.95 Y-66.5 I6.876 J8.393
G1 X103.965 Y4.89
G3 X103.465 Y5.39 I-0.5 J0.
G1 X33.928 Y5.396
G3 X33.428 Y4.896 I0. J-0.5
G1 X33.432 Y-7.5
G2 X31.761 Y-12.376 I-7.95 J0.
G3 X46.826 Y-58.868 I23.339 J-18.124
G2 X44.6 Y-74.45 I-2.226 J-7.632
G1 X-1.993 Y-74.439
G3 X-2.494 Y-74.939 I0. J-0.5
X-1.994 Y-75.439 I0.5 J0.
G1 X141.989 Y-75.443
G3 X142.489 Y-74.943 I0. J0.5
X141.989 Y-74.443 I-0.5 J0.
G1 X114.8 Y-74.45
G2 X106.85 Y-66.5 I0. J7.95
G1 X106.865 Y4.89
G3 X106.365 Y5.39 I-0.5 J0.
G1 X30.982 Y5.387
G3 X30.482 Y4.887 I0. J-0.5
G1 Y-7.5
G2 X29.431 Y-10.567 I-5. J0.
G3 X46. Y-61.7 I25.669 J-19.933
G2 X44.6 Y-71.5 I-1.4 J-4.8
G1 X0.
X-4.586
G3 Y-72.5 I0. J-0.5
G1 X144.591
G3 Y-71.5 I0. J0.5
G1 X114.8
G2 X109.8 Y-66.5 I0. J5.
G1 Y0.
Y4.897
X109.797 Y4.976
X109.788 Y5.054
X109.494 Y6.906
X109.476 Y7.025 Z-4.993
X109.457 Y7.142 Z-4.971
X109.439 Y7.256 Z-4.935
X109.422 Y7.365 Z-4.885
X109.406 Y7.467 Z-4.823
X109.391 Y7.561 Z-4.749
X109.377 Y7.645 Z-4.663
X109.366 Y7.718 Z-4.568
X109.356 Y7.78 Z-4.465
X109.348 Y7.829 Z-4.355
X109.342 Y7.865 Z-4.239
X109.339 Y7.886 Z-4.121
X109.338 Y7.893 Z-4.
G0 Z10.

(POCKET-MAIN-CLEANUP 2)
G0 X67.528 Y5.928
Z10.
Z5.
G1 Z1. F2328.
Z-4.
Y5.921 Z-4.121
Y5.899 Z-4.239
Y5.863 Z-4.355
Y5.813 Z-4.465
Y5.751 Z-4.568
Y5.676 Z-4.663
Y5.591 Z-4.749
Y5.496 Z-4.823
Y5.393 Z-4.885
Y5.283 Z-4.935
Y5.167 Z-4.971
Y5.048 Z-4.993
Y4.928 Z-5.
Y4.889
X67.533 Y-7.5
G2 X65.974 Y-18.793 I-41.7 J0.
G3 X67.442 Y-19.995 I1.226 J0.
G2 X68.706 Y-21.409 I0.217 J-1.078
X66.728 Y-26.487 I-43.224 J13.909
G3 X66.872 Y-26.931 I0.313 J-0.144
G2 X69.126 Y-28.286 I-22.272 J-39.569
G3 X69.393 Y-28.14 I0.094 J0.146
G1 Y-19.827
X69.387 Y-19.79
X69.368 Y-19.759
X69.339 Y-19.736
X69.304 Y-19.725
X69.268 Y-19.726
X69.234 Y-19.74
X69.207 Y-19.766
X69.191 Y-19.799
G2 X68.706 Y-21.409 I-43.71 J12.299
X67.73 Y-21.241 I-0.476 J0.153
G1 X68.528 Y4.874
G3 X68.036 Y5.389 I-0.5 J0.015
X67.528 Y4.889 I-0.008 J-0.5
G1 X67.533 Y-7.5
G2 X62.15 Y-27.992 I-41.7 J0.
G3 X62.281 Y-28.397 I0.253 J-0.142
G2 X72.535 Y-35.129 I-17.681 J-38.103
G3 X72.794 Y-35.013 I0.103 J0.116
G1 Y4.896
G2 X73.296 Y5.396 I0.5 J0.
G1 X75.696 Y5.385
G2 X76.194 Y4.885 I-0.002 J-0.5
G1 Y-43.9
G2 X75.955 Y-43.977 I-0.132 J0.
G3 X57.21 Y-30.011 I-31.355 J-22.523
G2 X57.095 Y-29.658 I0.076 J0.22
G3 X64.133 Y-7.5 I-31.367 J22.158
G1 X64.128 Y4.9
G3 X63.625 Y5.399 I-0.5 J0.
G1 X61.225 Y5.386
G3 X60.727 Y4.886 I0.003 J-0.5
G1 X60.732 Y-7.5
G2 X53.323 Y-29.12 I-35.25 J0.
G3 X54.47 Y-32.66 I1.777 J-1.38
G2 X79.404 Y-61.194 I-9.849 J-33.767
G1 X79.416 Y-61.227
X79.439 Y-61.254
X79.47 Y-61.271
X79.506 Y-61.275
X79.54 Y-61.266
X79.569 Y-61.244
X79.587 Y-61.214
X79.594 Y-61.179
Y4.894
Y4.933
G19 G3 Y5.933 Z-4. J0. K1.
G0 Z5.
X80.864 Y-75.965
G1 Z-4. F2328.
X80.862 Y-75.958 Z-4.121
X80.857 Y-75.937 Z-4.239
X80.849 Y-75.902 Z-4.355
X80.837 Y-75.854 Z-4.465
X80.822 Y-75.793 Z-4.568
X80.804 Y-75.721 Z-4.663
X80.784 Y-75.638 Z-4.749
X80.762 Y-75.546 Z-4.823
X80.737 Y-75.445 Z-4.885
X80.711 Y-75.338 Z-4.935
X80.684 Y-75.226 Z-4.971
X80.656 Y-75.111 Z-4.993
X80.627 Y-74.994 Z-5.
X80.602 Y-74.889
G17 G2 X79.799 Y-70.29 I34.198 J8.34
G1 X79.788 Y-70.255
X79.766 Y-70.227
X79.735 Y-70.208
X79.7 Y-70.201
X79.664 Y-70.208
X79.634 Y-70.227
X79.612 Y-70.255
X79.601 Y-70.29
G2 X78.791 Y-74.895 I-35.05 J3.795
X78.355 Y-75.274 I-0.486 J0.119
G1 X75.856 Y-75.523
G2 X75.324 Y-74.894 I-0.05 J0.498
G3 X53.518 Y-35.924 I-30.724 J8.394
G2 X50.637 Y-27.035 I1.582 J5.424
G3 X57.332 Y-7.5 I-25.156 J19.535
G1 X57.327 Y4.891
G3 X56.827 Y5.391 I-0.5 J0.
G1 X54.427 Y5.387
G3 X53.928 Y4.887 I0.001 J-0.5
G1 X53.932 Y-7.5
G2 X47.952 Y-24.949 I-28.45 J0.
G3 X52.566 Y-39.188 I7.148 J-5.551
G2 X71.785 Y-74.89 I-7.966 J-27.312
X71.366 Y-75.239 I-0.478 J0.147
G1 X68.734 Y-75.554
G2 X68.203 Y-74.89 I-0.059 J0.496
G3 X51.614 Y-42.452 I-23.603 J8.39
G2 X45.267 Y-22.864 I3.486 J11.952
G3 X50.532 Y-7.5 I-19.785 J15.364
G1 X50.528 Y4.897
G3 X50.027 Y5.397 I-0.5 J0.
G1 X47.627 Y5.393
G3 X47.128 Y4.893 I0.001 J-0.5
G1 X47.132 Y-7.5
G2 X42.581 Y-20.779 I-21.65 J0.
G3 X50.662 Y-45.716 I12.519 J-9.721
G2 X64.555 Y-74.898 I-6.062 J-20.784
X64.167 Y-75.199 I-0.461 J0.194
G1 X61.321 Y-75.621
G2 X60.804 Y-74.896 I-0.073 J0.495
G3 X49.71 Y-48.98 I-16.204 J8.396
G2 X39.896 Y-18.693 I5.39 J18.48
G3 X43.732 Y-7.5 I-14.414 J11.193
G1 X43.728 Y4.888
G3 X43.23 Y5.388 I-0.5 J0.
G1 X40.83 Y5.399
G3 X40.328 Y4.899 I-0.002 J-0.5
G1 X40.332 Y-7.5
G2 X37.21 Y-16.608 I-14.85 J0.
G3 X48.758 Y-52.244 I17.89 J-13.892
G2 X56.851 Y-74.892 I-4.158 J-14.256
X56.525 Y-75.102 I-0.413 J0.283
G1 X52.813 Y-75.754
G2 X52.386 Y-74.895 I-0.086 J0.492
G3 X47.806 Y-55.508 I-7.786 J8.395
G2 X34.525 Y-14.523 I7.294 J25.008
G3 X36.932 Y-7.5 I-9.043 J7.023
G1 X36.928 Y4.894
G3 X36.427 Y5.394 I-0.5 J0.
G1 X33.98 Y5.387
G3 X33.482 Y4.887 I0.001 J-0.5
G1 Y-7.5
G2 X31.8 Y-12.407 I-8. J0.
G3 X46.84 Y-58.82 I23.3 J-18.093
G2 X44.6 Y-74.5 I-2.24 J-7.68
G1 X0.
X-1.912
G2 X-2.212 Y-74.4 I0. J0.5
G1 X-4.886 Y-72.4
G2 X-4.586 Y-71.5 I0.299 J0.4
G1 X44.6
G3 X46. Y-61.7 I0. J5.
G2 X29.431 Y-10.567 I9.1 J31.2
G3 X30.482 Y-7.5 I-3.949 J3.067
G1 Y0.
Y4.887
X30.485 Y4.965
X30.494 Y5.043
X30.5 Y5.082
X30.519 Y5.201 Z-4.993
X30.537 Y5.318 Z-4.971
X30.555 Y5.432 Z-4.935
X30.573 Y5.541 Z-4.885
X30.589 Y5.643 Z-4.823
X30.604 Y5.737 Z-4.749
X30.617 Y5.821 Z-4.663
X30.629 Y5.894 Z-4.568
X30.639 Y5.956 Z-4.465
X30.646 Y6.005 Z-4.355
X30.652 Y6.041 Z-4.239
X30.655 Y6.062 Z-4.121
X30.656 Y6.069 Z-4.
Z5.
X55.1 Y-30.5
Z-5.
G2 X55.202 Y-30.198 I0.5 J0.
G1 X82.068 Y5.193
G2 X82.967 Y4.89 I0.398 J-0.302
G1 X82.95 Y-66.5
G3 X84.075 Y-74.889 I31.85 J0.
X84.504 Y-75.254 I0.482 J0.132
G1 X87.083 Y-75.53
G3 X87.614 Y-74.886 I0.053 J0.497
G2 X86.35 Y-66.5 I27.186 J8.386
G1 X86.366 Y4.89
G2 X86.866 Y5.39 I0.5 J0.
G1 X89.266
G2 X89.766 Y4.89 I0. J-0.5
G1 X89.75 Y-66.5
G3 X91.195 Y-74.885 I25.05 J0.
X91.599 Y-75.213 I0.471 J0.167
G1 X94.315 Y-75.583
G3 X94.843 Y-74.894 I0.067 J0.495
G2 X93.15 Y-66.5 I19.957 J8.394
G1 X93.166 Y4.89
G2 X93.666 Y5.39 I0.5 J0.
G1 X96.065
G2 X96.565 Y4.89 I0. J-0.5
G1 X96.55 Y-66.5
G3 X98.594 Y-74.893 I18.25 J0.
X98.957 Y-75.156 I0.444 J0.23
G1 X102.053 Y-75.665
G3 X102.546 Y-74.889 I0.081 J0.493
G2 X99.95 Y-66.5 I12.254 J8.389
G1 X99.965 Y4.89
G2 X100.465 Y5.39 I0.5 J0.
G1 X102.865
G2 X103.365 Y4.89 I0. J-0.5
G1 X103.35 Y-66.5
G3 X107.011 Y-74.892 I11.45 J0.
X107.344 Y-75.026 I0.34 J0.366
G1 X141.895 Y-75.5
G3 X142.402 Y-75.003 I0.007 J0.5
X141.902 Y-74.5 I-0.5 J0.003
G1 X114.8
G2 X106.8 Y-66.5 I0. J8.
G1 Y0.
Y4.897
G2 X107.3 Y5.397 I0.5 J0.
G1 X109.3
G2 X109.8 Y4.897 I0. J-0.5
G1 Y-66.5
G3 X114.8 Y-71.5 I5. J0.
G1 X140.
X144.591
X144.67 Y-71.503
X144.748 Y-71.512
X144.786 Y-71.518
X144.905 Y-71.537 Z-4.993
X145.023 Y-71.556 Z-4.971
X145.136 Y-71.574 Z-4.935
X145.245 Y-71.591 Z-4.885
X145.347 Y-71.607 Z-4.823
X145.441 Y-71.622 Z-4.749
X145.526 Y-71.636 Z-4.663
X145.599 Y-71.647 Z-4.568
X145.661 Y-71.657 Z-4.465
X145.71 Y-71.665 Z-4.355
X145.745 Y-71.67 Z-4.239
X145.767 Y-71.674 Z-4.121
X145.774 Y-71.675 Z-4.
G0 Z10.

(POCKET - 30 MM - ROUGHING 2)
G0 Z11.
X55.1 Y-30.5
G1 Z-10. F600.
X55.107 Y-30.522
X55.126 Y-30.536
X55.149
X55.168 Y-30.522
X55.175 Y-30.5
X55.168 Y-30.467
X55.147 Y-30.441
X55.117 Y-30.427
X55.083
X55.053 Y-30.441
X55.032 Y-30.467
X55.025 Y-30.5
G3 X55.675 I0.325 J0.
X54.525 I-0.575 J0.
X56.175 I0.825 J0.
X54.025 I-1.075 J0.
X56.675 I1.325 J0.
X53.525 I-1.575 J0.
X57.175 I1.825 J0.
X53.025 I-2.075 J0.
X57.675 I2.325 J0.
X52.525 I-2.575 J0.
X58.175 I2.825 J0.
X52.025 I-3.075 J0.
X58.675 I3.325 J0.
X51.525 I-3.575 J0.
X59.175 I3.825 J0.
X51.025 I-4.075 J0.
X59.675 I4.325 J0.
X50.525 I-4.575 J0.
X60.175 I4.825 J0.
X50.025 I-5.075 J0.
X60.675 I5.325 J0.
X49.525 I-5.575 J0.
X61.175 I5.825 J0.
X49.025 I-6.075 J0.
X61.675 I6.325 J0.
X48.525 I-6.575 J0.
X62.175 I6.825 J0.
X48.025 I-7.075 J0.
X62.675 I7.325 J0.
X47.525 I-7.575 J0.
X63.175 I7.825 J0.
X47.025 I-8.075 J0.
X63.675 I8.325 J0.
X46.525 I-8.575 J0.
X64.175 I8.825 J0.
X46.025 I-9.075 J0.
X64.675 I9.325 J0.
X45.525 I-9.575 J0.
X65.175 I9.825 J0.
X45.025 I-10.075 J0.
X65.175 I10.075 J0.
X64.629 Y-30.01 I-0.493 J0.
G1 X60.191 Y-30.497
X60.137 Y-30.5
X60.084 Y-30.497
X55.646 Y-30.01
G3 X55.1 Y-30.5 I-0.054 J-0.49
G1 Z-18.
X55.175
X55.168 Y-30.467
X55.147 Y-30.441
X55.117 Y-30.427
X55.083
X55.053 Y-30.441
X55.032 Y-30.467
X55.025 Y-30.5
G3 X55.675 I0.325 J0.
X54.525 I-0.575 J0.
X56.175 I0.825 J0.
X54.025 I-1.075 J0.
X56.675 I1.325 J0.
X53.525 I-1.575 J0.
X57.175 I1.825 J0.
X53.025 I-2.075 J0.
X57.675 I2.325 J0.
X52.525 I-2.575 J0.
X58.175 I2.825 J0.
X52.025 I-3.075 J0.
X58.675 I3.325 J0.
X51.525 I-3.575 J0.
X59.175 I3.825 J0.
X51.025 I-4.075 J0.
X59.675 I4.325 J0.
X50.525 I-4.575 J0.
X60.175 I4.825 J0.
X50.025 I-5.075 J0.
X60.675 I5.325 J0.
X49.525 I-5.575 J0.
X61.175 I5.825 J0.
X49.025 I-6.075 J0.
X61.675 I6.325 J0.
X48.525 I-6.575 J0.
X62.175 I6.825 J0.
X48.025 I-7.075 J0.
X62.675 I7.325 J0.
X47.525 I-7.575 J0.
X63.175 I7.825 J0.
X47.025 I-8.075 J0.
X63.675 I8.325 J0.
X46.525 I-8.575 J0.
X64.175 I8.825 J0.
X46.025 I-9.075 J0.
X64.675 I9.325 J0.
X45.525 I-9.575 J0.
X65.175 I9.825 J0.
X45.025 I-10.075 J0.
X65.175 I10.075 J0.
X65.142 Y-30.248 Z-17.966 I-0.985 J0. F2328.
G1 X65.105 Y-30.135 Z-17.917
X65.054 Y-30.028 Z-17.868
X65.001 Y-29.941 Z-17.79
X64.939 Y-29.86 Z-17.712
X64.886 Y-29.803 Z-17.609
X64.828 Y-29.75 Z-17.507
X64.75 Y-29.69 Z-17.27
X64.722 Y-29.671 Z-17.015
G0 Z11.

(POCKET-26 2)
G0 X55.6 Y-31.5
Z11.
Z5.
G1 Z2.5 F2328.
Z-21. F330.
G19 G3 Y-30.5 Z-22. J1. K0.
G17 G3 X54.6 I-0.5 J0. F2328.
X57.1 I1.25 J0.
X53.1 I-2. J0.
X58.6 I2.75 J0.
X51.6 I-3.5 J0.
X60.1 I4.25 J0.
X50.1 I-5. J0.
X61.6 I5.75 J0.
X48.6 I-6.5 J0.
X63.1 I7.25 J0.
X47.1 I-8. J0.
X63.1 I8. J0.
X63.067 Y-30.244 Z-21.966 I-1. J0.
G1 X63.029 Y-30.13 Z-21.916
X62.978 Y-30.021 Z-21.866
X62.923 Y-29.932 Z-21.787
X62.86 Y-29.85 Z-21.707
X62.806 Y-29.792 Z-21.604
X62.748 Y-29.738 Z-21.5
X62.669 Y-29.677 Z-21.259
X62.64 Y-29.659 Z-21.
G0 Z11.

M9
M30
