(1001)
(T3  D=10. CR=0. TAPER=90DEG - ZMIN=-2. - SPOT DRILL)
G90 G94 G91.1 G40 G49 G17
G21

(DRILL-SPOT)
M5
T3 M6
S9700 M3
G54
M8
G0 X127.4 Y-57.998
G43 Z15. H3
Z5.
G98 G81 X127.4 Y-57.998 Z-2. R5. F330.
Y-34.665
Y-11.331
X8.936 Y-11.338
Y-34.671
X8.919 Y-58.004
G80
Z15.

M9
M30
