;FLAVOR:Marlin
;TIME:6540
;Filament used: 14.4095m
;Layer height: 0.4
;Generated with Cura_SteamEngine 3.2.1
M190 S60
M104 S200
M109 S200
M82 ;absolute extrusion mode
G21 ;metric values
G90 ;absolute positioning
M82 ;set extruder to absolute mode
M107 ;start with the fan off
G28 X0 Y0 ;move X/Y to min endstops
G28 Z0 ;move Z to min endstops
G1 Z15.0 F100 ;move the platform down 15mm
G92 E0 ;zero the extruded length
G1 F200 E3 ;extrude 3mm of feed stock
G92 E0 ;zero the extruded length again
G1 F100
M117 Printing...
G5
;LAYER_COUNT:16
;LAYER:0
M106 S255
M204 S3500
M205 X13 Y13
G0 F3000 X42.083 Y26.614 Z0.4
M204 S2000
;TYPE:SKIRT
G1 F2400 X42.496 Y26.03 E0.06661
G1 X42.971 Y25.496 E0.13317
G1 X43.503 Y25.017 E0.19984
G1 X44.085 Y24.602 E0.26641
G1 X44.71 Y24.253 E0.33307
G1 X45.37 Y23.977 E0.39969
G1 X46.056 Y23.776 E0.46627
G1 X46.761 Y23.653 E0.53291
G1 X47.509 Y23.609 E0.60269
G1 X162.491 Y23.61 E11.31078
G1 X163.205 Y23.65 E11.37738
G1 X163.91 Y23.769 E11.44396
G1 X164.598 Y23.967 E11.51064
G1 X165.259 Y24.24 E11.57724
G1 X165.886 Y24.585 E11.64389
G1 X166.47 Y24.997 E11.71044
G1 X167.004 Y25.472 E11.777
G1 X167.483 Y26.004 E11.84367
G1 X167.898 Y26.586 E11.91024
G1 X168.247 Y27.211 E11.9769
G1 X168.523 Y27.871 E12.04353
G1 X168.724 Y28.557 E12.1101
G1 X168.847 Y29.262 E12.17675
G1 X168.891 Y30.01 E12.24653
G1 X168.891 Y179.991 E26.21401
G1 X168.851 Y180.705 E26.28061
G1 X168.732 Y181.41 E26.3472
G1 X168.534 Y182.098 E26.41387
G1 X168.261 Y182.759 E26.48047
G1 X167.917 Y183.386 E26.54707
G1 X167.504 Y183.97 E26.61368
G1 X167.029 Y184.504 E26.68024
G1 X166.497 Y184.983 E26.74691
G1 X165.915 Y185.398 E26.81348
G1 X165.29 Y185.747 E26.88014
G1 X164.63 Y186.023 E26.94677
G1 X163.944 Y186.224 E27.01334
G1 X163.239 Y186.347 E27.07999
G1 X162.491 Y186.391 E27.14977
G1 X47.509 Y186.391 E37.85785
G1 X46.795 Y186.351 E37.92445
G1 X46.09 Y186.232 E37.99104
G1 X45.402 Y186.034 E38.05771
G1 X44.741 Y185.761 E38.12431
G1 X44.114 Y185.417 E38.19091
G1 X43.53 Y185.004 E38.25753
G1 X42.996 Y184.529 E38.32408
G1 X42.517 Y183.997 E38.39075
G1 X42.102 Y183.415 E38.45732
G1 X41.753 Y182.79 E38.52398
G1 X41.477 Y182.13 E38.59061
G1 X41.276 Y181.444 E38.65718
G1 X41.153 Y180.739 E38.72383
G1 X41.109 Y179.991 E38.79361
G1 X41.109 Y30.009 E52.76119
G1 X41.149 Y29.295 E52.82779
G1 X41.268 Y28.59 E52.89437
G1 X41.466 Y27.902 E52.96104
G1 X41.739 Y27.241 E53.02764
G1 X42.083 Y26.614 E53.09425
M204 S3500
G0 F3000 X42.641 Y26.783
M204 S2000
G1 F2400 X43.051 Y26.236 E53.15791
G1 X43.522 Y25.741 E53.22154
G1 X44.048 Y25.305 E53.28517
G1 X44.621 Y24.933 E53.34879
G1 X45.234 Y24.63 E53.41247
G1 X45.877 Y24.402 E53.476
G1 X46.543 Y24.249 E53.53964
G1 X47.509 Y24.169 E53.62991
G1 X162.491 Y24.17 E64.338
G1 X163.173 Y24.21 E64.40162
G1 X163.846 Y24.329 E64.46527
G1 X164.5 Y24.526 E64.52888
G1 X165.127 Y24.799 E64.59257
G1 X165.717 Y25.142 E64.65612
G1 X166.264 Y25.552 E64.71979
G1 X166.759 Y26.023 E64.78342
G1 X167.195 Y26.549 E64.84704
G1 X167.567 Y27.122 E64.91067
G1 X167.87 Y27.735 E64.97435
G1 X168.098 Y28.378 E65.03788
G1 X168.251 Y29.044 E65.10152
G1 X168.331 Y30.01 E65.19179
G1 X168.331 Y179.991 E79.15928
G1 X168.291 Y180.673 E79.2229
G1 X168.172 Y181.346 E79.28655
G1 X167.975 Y182 E79.35016
G1 X167.702 Y182.627 E79.41384
G1 X167.359 Y183.217 E79.4774
G1 X166.949 Y183.764 E79.54106
G1 X166.478 Y184.259 E79.60469
G1 X165.952 Y184.695 E79.66832
G1 X165.379 Y185.067 E79.73194
G1 X164.766 Y185.37 E79.79562
G1 X164.123 Y185.598 E79.85916
G1 X163.457 Y185.751 E79.9228
G1 X162.491 Y185.831 E80.01307
G1 X47.509 Y185.831 E90.72115
G1 X46.827 Y185.791 E90.78478
G1 X46.154 Y185.672 E90.84842
G1 X45.5 Y185.475 E90.91203
G1 X44.873 Y185.202 E90.97572
G1 X44.283 Y184.859 E91.03928
G1 X43.736 Y184.449 E91.10294
G1 X43.241 Y183.978 E91.16657
G1 X42.805 Y183.452 E91.2302
G1 X42.433 Y182.879 E91.29382
G1 X42.13 Y182.266 E91.3575
G1 X41.902 Y181.623 E91.42103
G1 X41.749 Y180.957 E91.48467
G1 X41.669 Y179.991 E91.57494
G1 X41.669 Y30.009 E105.54252
G1 X41.709 Y29.327 E105.60615
G1 X41.828 Y28.654 E105.66979
G1 X42.025 Y28 E105.7334
G1 X42.298 Y27.373 E105.79709
G1 X42.641 Y26.783 E105.86065
M204 S3500
G0 F3000 X43.198 Y26.96
M204 S2000
G1 F2400 X43.605 Y26.454 E105.92112
G1 X44.071 Y26.001 E105.98164
G1 X44.589 Y25.61 E106.04209
G1 X45.152 Y25.284 E106.10267
G1 X45.75 Y25.031 E106.16314
G1 X46.374 Y24.852 E106.2236
G1 X47.016 Y24.752 E106.28411
G1 X47.509 Y24.729 E106.33007
G1 X162.491 Y24.73 E117.03816
G1 X163.139 Y24.77 E117.09862
G1 X163.778 Y24.889 E117.15915
G1 X164.397 Y25.086 E117.21965
G1 X164.987 Y25.357 E117.28011
G1 X165.54 Y25.699 E117.34066
G1 X166.046 Y26.106 E117.40114
G1 X166.499 Y26.572 E117.46166
G1 X166.89 Y27.09 E117.5221
G1 X167.216 Y27.653 E117.58269
G1 X167.469 Y28.251 E117.64316
G1 X167.648 Y28.875 E117.70362
G1 X167.748 Y29.517 E117.76413
G1 X167.771 Y30.01 E117.81009
G1 X167.771 Y179.991 E131.77757
G1 X167.731 Y180.639 E131.83804
G1 X167.612 Y181.278 E131.89857
G1 X167.415 Y181.897 E131.95906
G1 X167.144 Y182.487 E132.01953
G1 X166.802 Y183.04 E132.08008
G1 X166.395 Y183.546 E132.14056
G1 X165.929 Y183.999 E132.20108
G1 X165.411 Y184.39 E132.26152
G1 X164.848 Y184.716 E132.32211
G1 X164.25 Y184.969 E132.38258
G1 X163.626 Y185.148 E132.44303
G1 X162.984 Y185.248 E132.50354
G1 X162.491 Y185.271 E132.54951
G1 X47.509 Y185.271 E143.25759
G1 X46.861 Y185.231 E143.31806
G1 X46.222 Y185.112 E143.37859
G1 X45.603 Y184.915 E143.43908
G1 X45.013 Y184.644 E143.49955
G1 X44.46 Y184.302 E143.5601
G1 X43.954 Y183.895 E143.62058
G1 X43.501 Y183.429 E143.6811
G1 X43.11 Y182.911 E143.74154
G1 X42.784 Y182.348 E143.80213
G1 X42.531 Y181.75 E143.8626
G1 X42.352 Y181.126 E143.92305
G1 X42.252 Y180.484 E143.98356
G1 X42.229 Y179.991 E144.02952
G1 X42.229 Y30.009 E157.9971
G1 X42.269 Y29.361 E158.05757
G1 X42.388 Y28.722 E158.1181
G1 X42.585 Y28.103 E158.17859
G1 X42.856 Y27.513 E158.23906
G1 X43.198 Y26.96 E158.29961
M204 S3500
G1 F2400 E151.29961
G0 F3000 X46.835 Y30.854
G0 X48.354 Y30.854
G0 X53.6 Y45.6
M204 S2000
;TYPE:WALL-INNER
G1 F2400 E158.29961
G1 F1800 X53.6 Y93.4 E162.75115
G1 X101.4 Y93.4 E167.20268
G1 X101.4 Y45.6 E171.65422
G1 X53.6 Y45.6 E176.10576
M204 S3500
G0 F3000 X53.6 Y116.6
M204 S2000
G1 F1800 X53.6 Y164.4 E180.55729
G1 X101.4 Y164.4 E185.00883
G1 X101.4 Y116.6 E189.46037
G1 X53.6 Y116.6 E193.9119
M204 S3500
G0 F3000 X100.868 Y117.132
G0 X125.35 Y124.85
M204 S2000
G1 F1800 X125.35 Y156.65 E196.87339
G1 X149.65 Y156.65 E199.13641
G1 X149.65 Y124.85 E202.09789
G1 X125.35 Y124.85 E204.36091
M204 S3500
G0 F3000 X125.882 Y156.118
G0 X161.1 Y178.6
M204 S2000
G1 F1800 X48.9 Y178.6 E214.80991
G1 X48.9 Y31.4 E228.51841
G1 X161.1 Y31.4 E238.96741
G1 X161.1 Y178.6 E252.67591
M204 S3500
G0 F3000 X149.118 Y125.382
G0 X125.882 Y84.868
G0 X125.35 Y53.6
M204 S2000
G1 F1800 X125.35 Y85.4 E255.63739
G1 X149.65 Y85.4 E257.90041
G1 X149.65 Y53.6 E260.86189
G1 X125.35 Y53.6 E263.12491
M204 S3500
G0 F3000 X125.91 Y54.16
M204 S2000
G1 F1800 X125.91 Y84.84 E265.98209
G1 X149.09 Y84.84 E268.14081
G1 X149.09 Y54.16 E270.99799
G1 X125.91 Y54.16 E273.1567
M204 S3500
G0 F3000 X125.84 Y54.09
G0 X125.84 Y125.34
G0 X125.91 Y125.41
M204 S2000
G1 F1800 X125.91 Y156.09 E276.01388
G1 X149.09 Y156.09 E278.1726
G1 X149.09 Y125.41 E281.02978
G1 X125.91 Y125.41 E283.18849
M204 S3500
G0 F3000 X125.84 Y125.34
G0 X125.882 Y156.118
G0 X161.59 Y179.09
G0 X161.66 Y179.16
M204 S2000
G1 F1800 X48.34 Y179.16 E293.7418
G1 X48.34 Y30.84 E307.5546
G1 X161.66 Y30.84 E318.10791
G1 X161.66 Y179.16 E331.92071
M204 S3500
G0 F3000 X161.59 Y179.09
G0 X100.873 Y141.377
G0 X100.868 Y117.132
G0 X54.09 Y117.09
G0 X54.16 Y117.16
M204 S2000
G1 F1800 X54.16 Y163.84 E336.26794
G1 X100.84 Y163.84 E340.61517
G1 X100.84 Y117.16 E344.96241
G1 X54.16 Y117.16 E349.30964
M204 S3500
G0 F3000 X54.09 Y117.09
G0 X54.09 Y46.09
G0 X54.16 Y46.16
M204 S2000
G1 F1800 X54.16 Y92.84 E353.65687
G1 X100.84 Y92.84 E358.00411
G1 X100.84 Y46.16 E362.35134
G1 X54.16 Y46.16 E366.69857
M204 S3500
G0 F3000 X54.72 Y46.72
M204 S2000
;TYPE:WALL-OUTER
G1 F1800 X54.72 Y92.28 E370.9415
G1 X100.28 Y92.28 E375.18443
G1 X100.28 Y46.72 E379.42736
G1 X54.72 Y46.72 E383.67029
M204 S3500
G0 F3000 X54.72 Y46.92
G0 X54.06 Y46.92
G0 X54.132 Y92.868
G0 X54.72 Y117.06
G0 X54.72 Y117.72
M204 S2000
G1 F1800 X54.72 Y163.28 E387.91322
G1 X100.28 Y163.28 E392.15614
G1 X100.28 Y117.72 E396.39907
G1 X54.72 Y117.72 E400.642
M204 S3500
G0 F3000 X54.72 Y117.92
G0 X54.06 Y117.92
G0 X54.132 Y117.132
G0 X100.868 Y117.132
G0 X126.47 Y125.31
G0 X126.47 Y125.97
M204 S2000
G1 F1800 X126.47 Y155.53 E403.39488
G1 X148.53 Y155.53 E405.44929
G1 X148.53 Y125.97 E408.20216
G1 X126.47 Y125.97 E410.25658
M204 S3500
G0 F3000 X126.47 Y126.17
G0 X125.81 Y126.17
G0 X125.882 Y156.118
G0 X161.59 Y179.09
G0 X162.22 Y179.72
M204 S2000
G1 F1800 X47.78 Y179.72 E420.91419
G1 X47.78 Y30.28 E434.83129
G1 X162.22 Y30.28 E445.4889
G1 X162.22 Y179.72 E459.40601
M204 S3500
G0 F3000 X162.02 Y179.72
G0 X161.59 Y179.09
G0 X149.118 Y125.382
G0 X125.882 Y84.868
G0 X125.882 Y54.132
G0 X126.47 Y54.06
G0 X126.47 Y54.72
M204 S2000
G1 F1800 X126.47 Y84.28 E462.15888
G1 X148.53 Y84.28 E464.2133
G1 X148.53 Y54.72 E466.96617
G1 X126.47 Y54.72 E469.02058
M204 S3500
G0 F3000 X126.47 Y54.92
G0 X125.81 Y54.92
G0 X124.8 Y53.05
M204 S2000
;TYPE:SKIN
G1 F1800 X124.8 Y85.95 E472.08451
G1 X150.2 Y85.95 E474.44997
G1 X150.2 Y53.05 E477.51389
G1 X124.8 Y53.05 E479.87935
M204 S3500
G0 F3000 X101.95 Y45.05
M204 S2000
G1 F1800 X53.05 Y45.05 E484.43333
G1 X53.05 Y93.95 E488.98731
G1 X101.95 Y93.95 E493.54128
G1 X101.95 Y45.05 E498.09526
M204 S3500
G0 F3000 X160.55 Y31.95
M204 S2000
G1 F1800 X160.55 Y178.05 E511.70132
G1 X49.45 Y178.05 E522.04788
G1 X49.45 Y31.95 E535.65394
G1 X160.55 Y31.95 E546.0005
M204 S3500
G0 F3000 X149.118 Y84.868
G0 X124.8 Y124.3
M204 S2000
G1 F1800 X124.8 Y157.2 E549.06442
G1 X150.2 Y157.2 E551.42988
G1 X150.2 Y124.3 E554.49381
G1 X124.8 Y124.3 E556.85927
M204 S3500
G0 F3000 X101.95 Y116.05
M204 S2000
G1 F1800 X53.05 Y116.05 E561.41325
G1 X53.05 Y164.95 E565.96722
G1 X101.95 Y164.95 E570.5212
G1 X101.95 Y116.05 E575.07518
M204 S3500
G0 F3000 X100.868 Y163.868
G0 X50.283 Y177.789
M204 S2000
G1 F1800 X49.709 Y177.215 E575.15078
M204 S3500
G0 F3000 X49.709 Y176.423
M204 S2000
G1 F1800 X51.075 Y177.789 E575.33068
G1 X51.145 Y177.859
M204 S3500
G0 F3000 X51.867 Y177.789
M204 S2000
G1 F1800 X49.709 Y175.631 E575.6149
G1 X49.639 Y175.561
M204 S3500
G0 F3000 X49.709 Y174.839
M204 S2000
G1 F1800 X52.659 Y177.789 E576.00343
G1 X52.729 Y177.859
M204 S3500
G0 F3000 X53.451 Y177.789
M204 S2000
G1 F1800 X49.709 Y174.047 E576.49626
G1 X49.639 Y173.977
M204 S3500
G0 F3000 X49.709 Y173.255
M204 S2000
G1 F1800 X54.243 Y177.789 E577.0934
G1 X54.313 Y177.859
M204 S3500
G0 F3000 X55.035 Y177.789
M204 S2000
G1 F1800 X49.709 Y172.463 E577.79486
G1 X49.639 Y172.393
M204 S3500
G0 F3000 X49.709 Y171.671
M204 S2000
G1 F1800 X55.827 Y177.789 E578.60062
G1 X55.897 Y177.859
M204 S3500
G0 F3000 X56.619 Y177.789
M204 S2000
G1 F1800 X49.709 Y170.879 E579.51069
G1 X49.639 Y170.809
M204 S3500
G0 F3000 X49.709 Y170.087
M204 S2000
G1 F1800 X57.411 Y177.789 E580.52507
G1 X57.481 Y177.859
M204 S3500
G0 F3000 X58.203 Y177.789
M204 S2000
G1 F1800 X49.709 Y169.295 E581.64376
G1 X49.639 Y169.225
M204 S3500
G0 F3000 X49.709 Y168.503
M204 S2000
G1 F1800 X58.995 Y177.789 E582.86675
G1 X59.065 Y177.859
M204 S3500
G0 F3000 X59.787 Y177.789
M204 S2000
G1 F1800 X49.709 Y167.711 E584.19406
G1 X49.639 Y167.641
M204 S3500
G0 F3000 X49.709 Y166.919
M204 S2000
G1 F1800 X60.579 Y177.789 E585.62568
G1 X60.649 Y177.859
M204 S3500
G0 F3000 X61.371 Y177.789
M204 S2000
G1 F1800 X49.709 Y166.127 E587.1616
G1 X49.639 Y166.057
M204 S3500
G0 F3000 X49.709 Y165.335
M204 S2000
G1 F1800 X62.163 Y177.789 E588.80184
G1 X62.233 Y177.859
M204 S3500
G0 F3000 X62.955 Y177.789
M204 S2000
G1 F1800 X49.709 Y164.543 E590.54638
G1 X49.639 Y164.473
M204 S3500
G0 F3000 X49.709 Y163.751
M204 S2000
G1 F1800 X63.747 Y177.789 E592.39523
G1 X63.817 Y177.859
M204 S3500
G0 F3000 X64.539 Y177.789
M204 S2000
G1 F1800 X49.709 Y162.959 E594.34839
G1 X49.639 Y162.889
M204 S3500
G0 F3000 X49.709 Y162.167
M204 S2000
G1 F1800 X65.331 Y177.789 E596.40586
G1 X65.401 Y177.859
M204 S3500
G0 F3000 X66.122 Y177.789
M204 S2000
G1 F1800 X53.542 Y165.209 E598.06269
G1 X53.472 Y165.139
M204 S3500
G0 F3000 X54.334 Y165.209
M204 S2000
G1 F1800 X66.914 Y177.789 E599.71952
G1 X66.984 Y177.859
M204 S3500
G0 F3000 X67.706 Y177.789
M204 S2000
G1 F1800 X55.126 Y165.209 E601.37635
G1 X55.056 Y165.139
M204 S3500
G0 F3000 X55.918 Y165.209
M204 S2000
G1 F1800 X68.498 Y177.789 E603.03318
G1 X68.568 Y177.859
M204 S3500
G0 F3000 X69.29 Y177.789
M204 S2000
G1 F1800 X56.71 Y165.209 E604.69001
G1 X56.64 Y165.139
M204 S3500
G0 F3000 X57.502 Y165.209
M204 S2000
G1 F1800 X70.082 Y177.789 E606.34684
G1 X70.152 Y177.859
M204 S3500
G0 F3000 X70.874 Y177.789
M204 S2000
G1 F1800 X58.294 Y165.209 E608.00367
G1 X58.224 Y165.139
M204 S3500
G0 F3000 X59.086 Y165.209
M204 S2000
G1 F1800 X71.666 Y177.789 E609.6605
G1 X71.736 Y177.859
M204 S3500
G0 F3000 X72.458 Y177.789
M204 S2000
G1 F1800 X59.878 Y165.209 E611.31733
G1 X59.808 Y165.139
M204 S3500
G0 F3000 X60.67 Y165.209
M204 S2000
G1 F1800 X73.25 Y177.789 E612.97415
G1 X73.32 Y177.859
M204 S3500
G0 F3000 X74.042 Y177.789
M204 S2000
G1 F1800 X61.462 Y165.209 E614.63098
G1 X61.392 Y165.139
M204 S3500
G0 F3000 X62.254 Y165.209
M204 S2000
G1 F1800 X74.834 Y177.789 E616.28781
G1 X74.904 Y177.859
M204 S3500
G0 F3000 X75.626 Y177.789
M204 S2000
G1 F1800 X63.046 Y165.209 E617.94464
G1 X62.976 Y165.139
M204 S3500
G0 F3000 X63.838 Y165.209
M204 S2000
G1 F1800 X76.418 Y177.789 E619.60147
G1 X76.488 Y177.859
M204 S3500
G0 F3000 X77.21 Y177.789
M204 S2000
G1 F1800 X64.63 Y165.209 E621.2583
G1 X64.56 Y165.139
M204 S3500
G0 F3000 X65.422 Y165.209
M204 S2000
G1 F1800 X78.002 Y177.789 E622.91513
G1 X78.072 Y177.859
M204 S3500
G0 F3000 X78.794 Y177.789
M204 S2000
G1 F1800 X66.214 Y165.209 E624.57196
G1 X66.144 Y165.139
M204 S3500
G0 F3000 X67.006 Y165.209
M204 S2000
G1 F1800 X79.586 Y177.789 E626.22879
G1 X79.656 Y177.859
M204 S3500
G0 F3000 X80.378 Y177.789
M204 S2000
G1 F1800 X67.798 Y165.209 E627.88562
G1 X67.728 Y165.139
M204 S3500
G0 F3000 X68.59 Y165.209
M204 S2000
G1 F1800 X81.17 Y177.789 E629.54244
G1 X81.24 Y177.859
M204 S3500
G0 F3000 X81.962 Y177.789
M204 S2000
G1 F1800 X69.382 Y165.209 E631.19927
G1 X69.312 Y165.139
M204 S3500
G0 F3000 X70.173 Y165.209
M204 S2000
G1 F1800 X82.754 Y177.789 E632.85617
G1 X82.824 Y177.859
M204 S3500
G0 F3000 X83.546 Y177.789
M204 S2000
G1 F1800 X70.965 Y165.209 E634.51306
G1 X70.895 Y165.139
M204 S3500
G0 F3000 X71.757 Y165.209
M204 S2000
G1 F1800 X84.338 Y177.789 E636.16996
G1 X84.408 Y177.859
M204 S3500
G0 F3000 X85.129 Y177.789
M204 S2000
G1 F1800 X72.549 Y165.209 E637.82679
G1 X72.479 Y165.139
M204 S3500
G0 F3000 X73.341 Y165.209
M204 S2000
G1 F1800 X85.921 Y177.789 E639.48362
G1 X85.991 Y177.859
M204 S3500
G0 F3000 X86.713 Y177.789
M204 S2000
G1 F1800 X74.133 Y165.209 E641.14044
G1 X74.063 Y165.139
M204 S3500
G0 F3000 X74.925 Y165.209
M204 S2000
G1 F1800 X87.505 Y177.789 E642.79727
G1 X87.575 Y177.859
M204 S3500
G0 F3000 X88.297 Y177.789
M204 S2000
G1 F1800 X75.717 Y165.209 E644.4541
G1 X75.647 Y165.139
M204 S3500
G0 F3000 X76.509 Y165.209
M204 S2000
G1 F1800 X89.089 Y177.789 E646.11093
G1 X89.159 Y177.859
M204 S3500
G0 F3000 X89.881 Y177.789
M204 S2000
G1 F1800 X77.301 Y165.209 E647.76776
G1 X77.231 Y165.139
M204 S3500
G0 F3000 X78.093 Y165.209
M204 S2000
G1 F1800 X90.673 Y177.789 E649.42459
G1 X90.743 Y177.859
M204 S3500
G0 F3000 X91.465 Y177.789
M204 S2000
G1 F1800 X78.885 Y165.209 E651.08142
G1 X78.815 Y165.139
M204 S3500
G0 F3000 X79.677 Y165.209
M204 S2000
G1 F1800 X92.257 Y177.789 E652.73825
G1 X92.327 Y177.859
M204 S3500
G0 F3000 X93.049 Y177.789
M204 S2000
G1 F1800 X80.469 Y165.209 E654.39508
G1 X80.399 Y165.139
M204 S3500
G0 F3000 X81.261 Y165.209
M204 S2000
G1 F1800 X93.841 Y177.789 E656.05191
G1 X93.911 Y177.859
M204 S3500
G0 F3000 X94.633 Y177.789
M204 S2000
G1 F1800 X82.053 Y165.209 E657.70873
