(1001)
(T1  D=10. CR=0. - ZMIN=-22. - FLAT END MILL)
G90 G94 G91.1 G40 G49 G17
G21

(POCKET-26 3)
M5
T1 M6
G54
M8
G0 X55.6 Y29.5
G43 Z11. H1
Z5.
G1 Z2.5 F2328.
Z-21. F330.
G19 G3 Y30.5 Z-22. J1. K0.
G17 G3 X54.6 I-0.5 J0. F2328.
X57.1 I1.25 J0.
X53.1 I-2. J0.
X58.6 I2.75 J0.
X51.6 I-3.5 J0.
X60.1 I4.25 J0.
X50.1 I-5. J0.
X61.6 I5.75 J0.
X48.6 I-6.5 J0.
X63.1 I7.25 J0.
X47.1 I-8. J0.
X63.1 I8. J0.
X63.067 Y30.756 Z-21.966 I-1. J0.
G1 X63.029 Y30.87 Z-21.916
X62.978 Y30.979 Z-21.866
X62.923 Y31.068 Z-21.787
X62.86 Y31.15 Z-21.707
X62.806 Y31.208 Z-21.604
X62.748 Y31.262 Z-21.5
X62.669 Y31.323 Z-21.259
X62.64 Y31.341 Z-21.
G0 Z11.

(FACE3)
G0 Z25.
X72.429 Y18.11
Z15.
G1 Z8.5 F2328.
G18 G3 X71.429 Z7.5 I-1. K0.
G1 X68.15
X42.05
X40.1
G17 G2 Y25.625 I0. J3.757
G1 X70.1
G3 Y33.14 I0. J3.757
G1 X40.1
G2 Y40.655 I0. J3.757
G1 X41.015
X69.185
G18 G2 X70.185 Z8.5 I0. K1.
G0 Z15.
X72.429 Y18.11
G1 Z6. F2328.
G3 X71.429 Z5. I-1. K0.
G1 X68.15
X42.05
X40.1
G17 G2 Y25.625 I0. J3.757
G1 X70.1
G3 Y33.14 I0. J3.757
G1 X40.1
G2 Y40.655 I0. J3.757
G1 X41.015
X69.185
G18 G2 X70.185 Z6. I0. K1.
G0 Z15.
X72.429 Y18.11
G1 Z3.5 F2328.
G3 X71.429 Z2.5 I-1. K0.
G1 X68.15
X42.05
X40.1
G17 G2 Y25.625 I0. J3.757
G1 X70.1
G3 Y33.14 I0. J3.757
G1 X40.1
G2 Y40.655 I0. J3.757
G1 X41.015
X69.185
G18 G2 X70.185 Z3.5 I0. K1.
G0 Z15.
X72.429 Y18.11
G1 Z1. F2328.
G3 X71.429 Z0. I-1. K0.
G1 X68.15
X42.05
X40.1
G17 G2 Y25.625 I0. J3.757
G1 X70.1
G3 Y33.14 I0. J3.757
G1 X40.1
G2 Y40.655 I0. J3.757
G1 X41.015
X69.185
G18 G2 X70.185 Z1. I0. K1.
G0 Z15.
X72.429 Y18.11
G1 Z-1.5 F2328.
G3 X71.429 Z-2.5 I-1. K0.
G1 X68.15
X42.05
X40.1
G17 G2 Y25.625 I0. J3.757
G1 X70.1
G3 Y33.14 I0. J3.757
G1 X40.1
G2 Y40.655 I0. J3.757
G1 X41.015
X69.185
G18 G2 X70.185 Z-1.5 I0. K1.
G0 Z15.
X72.429 Y18.11
G1 Z-4. F2328.
G3 X71.429 Z-5. I-1. K0.
G1 X68.15
X42.05
X40.1
G17 G2 Y25.625 I0. J3.757
G1 X70.1
G3 Y33.14 I0. J3.757
G1 X40.1
G2 Y40.655 I0. J3.757
G1 X41.015
X69.185
G18 G2 X70.185 Z-4. I0. K1.
G0 Z25.
G17

M9
M30
