(1001)
(T1  D=10. CR=0. - ZMIN=-5. - FLAT END MILL)
G90 G94 G91.1 G40 G49 G17
G21

(BUSHING-FACE)
M5
T1 M6
S9700 M3
G54
M8
G0 X70.151 Y15.578
G43 Z13. H1
Z8.
G1 Z2.4 F2328.
G18 G3 X69.151 Z1.4 I-1. K0.
G1 X66.345
X43.855
X40.927
G17 G2 Y20.602 I0. J2.512
G1 X69.273
X70.1
G3 Y25.625 I0. J2.512
G1 X40.1
G2 Y30.648 I0. J2.512
G1 X70.1
G3 Y35.672 I0. J2.512
G1 X70.096
X40.104
G2 Y40.695 I0. J2.512
G1 X41.029
X69.171
G18 G2 X70.171 Z2.4 I0. K1.
G0 Z8.
X70.151 Y15.578
G1 Z0.8 F2328.
G3 X69.151 Z-0.2 I-1. K0.
G1 X66.345
X43.855
X40.927
G17 G2 Y20.602 I0. J2.512
G1 X69.273
X70.1
G3 Y25.625 I0. J2.512
G1 X40.1
G2 Y30.648 I0. J2.512
G1 X70.1
G3 Y35.672 I0. J2.512
G1 X70.096
X40.104
G2 Y40.695 I0. J2.512
G1 X41.029
X69.171
G18 G2 X70.171 Z0.8 I0. K1.
G0 Z8.
X70.151 Y15.578
G1 Z-0.8 F2328.
G3 X69.151 Z-1.8 I-1. K0.
G1 X66.345
X43.855
X40.927
G17 G2 Y20.602 I0. J2.512
G1 X69.273
X70.1
G3 Y25.625 I0. J2.512
G1 X40.1
G2 Y30.648 I0. J2.512
G1 X70.1
G3 Y35.672 I0. J2.512
G1 X70.096
X40.104
G2 Y40.695 I0. J2.512
G1 X41.029
X69.171
G18 G2 X70.171 Z-0.8 I0. K1.
G0 Z8.
X70.151 Y15.578
G1 Z-2.4 F2328.
G3 X69.151 Z-3.4 I-1. K0.
G1 X66.345
X43.855
X40.927
G17 G2 Y20.602 I0. J2.512
G1 X69.273
X70.1
G3 Y25.625 I0. J2.512
G1 X40.1
G2 Y30.648 I0. J2.512
G1 X70.1
G3 Y35.672 I0. J2.512
G1 X70.096
X40.104
G2 Y40.695 I0. J2.512
G1 X41.029
X69.171
G18 G2 X70.171 Z-2.4 I0. K1.
G0 Z8.
X70.151 Y15.578
G1 Z-4. F2328.
G3 X69.151 Z-5. I-1. K0.
G1 X66.345
X43.855
X40.927
G17 G2 Y20.602 I0. J2.512
G1 X69.273
X70.1
G3 Y25.625 I0. J2.512
G1 X40.1
G2 Y30.648 I0. J2.512
G1 X70.1
G3 Y35.672 I0. J2.512
G1 X70.096
X40.104
G2 Y40.695 I0. J2.512
G1 X41.029
X69.171
G18 G2 X70.171 Z-4. I0. K1.
G0 Z13.
G17

M9
M30
