(1001)
(T3  D=10. CR=0. TAPER=90DEG - ZMIN=-2. - SPOT DRILL)
G90 G94 G91.1 G40 G49 G17
G21

(DRILL-SPOT 2)
M5
T3 M6
G54
M8
G0 X127.4 Y58.003
G43 Z14. H3
Z6.
G98 G81 X127.4 Y58.003 Z-2. R5. F330.
Y34.67
Y11.337
X8.936 Y11.343
Y34.677
X8.919 Y58.01
G80
Z14.

M9
M30
