(1001)
(T4  D=7. CR=0. TAPER=118DEG - ZMIN=-22.103 - DRILL)
G90 G94 G91.1 G40 G49 G17
G21

(DRILL-7MM 2)
M5
T4 M6
S4160 M3
G54
G0 X8.919 Y58.01
G43 Z8. H4
Z3.
Z1.
G1 Z-1. F50.
G0 Z-0.86
G1 Z-2. F50.
G0 Z-1.86
G1 Z-3. F50.
G0 Z-2.86
G1 Z-4. F50.
G0 Z3.
Z-2.
G1 Z-5. F50.
G0 Z-4.86
G1 Z-6. F50.
G0 Z-5.86
G1 Z-7. F50.
G0 Z-6.86
G1 Z-8. F50.
G0 Z3.
Z-6.
G1 Z-9. F50.
G0 Z-8.86
G1 Z-10. F50.
G0 Z-9.86
G1 Z-11. F50.
G0 Z-10.86
G1 Z-12. F50.
G0 Z3.
Z-10.
G1 Z-13. F50.
G0 Z-12.86
G1 Z-14. F50.
G0 Z-13.86
G1 Z-15. F50.
G0 Z-14.86
G1 Z-16. F50.
G0 Z3.
Z-14.
G1 Z-17. F50.
G0 Z-16.86
G1 Z-18. F50.
G0 Z-17.86
G1 Z-19. F50.
G0 Z-18.86
G1 Z-20. F50.
G0 Z3.
Z-18.
G1 Z-21. F50.
G0 Z-20.86
G1 Z-22. F50.
G0 Z-21.86
G1 Z-22.103 F50.
G0 Z3.
X8.936 Y34.677
Z1.
G1 Z-1. F50.
G0 Z-0.86
G1 Z-2. F50.
G0 Z-1.86
G1 Z-3. F50.
G0 Z-2.86
G1 Z-4. F50.
G0 Z3.
Z-2.
G1 Z-5. F50.
G0 Z-4.86
G1 Z-6. F50.
G0 Z-5.86
G1 Z-7. F50.
G0 Z-6.86
G1 Z-8. F50.
G0 Z3.
Z-6.
G1 Z-9. F50.
G0 Z-8.86
G1 Z-10. F50.
G0 Z-9.86
G1 Z-11. F50.
G0 Z-10.86
G1 Z-12. F50.
G0 Z3.
Z-10.
G1 Z-13. F50.
G0 Z-12.86
G1 Z-14. F50.
G0 Z-13.86
G1 Z-15. F50.
G0 Z-14.86
G1 Z-16. F50.
G0 Z3.
Z-14.
G1 Z-17. F50.
G0 Z-16.86
G1 Z-18. F50.
G0 Z-17.86
G1 Z-19. F50.
G0 Z-18.86
G1 Z-20. F50.
G0 Z3.
Z-18.
G1 Z-21. F50.
G0 Z-20.86
G1 Z-22. F50.
G0 Z-21.86
G1 Z-22.103 F50.
G0 Z3.
Y11.343
Z1.
G1 Z-1. F50.
G0 Z-0.86
G1 Z-2. F50.
G0 Z-1.86
G1 Z-3. F50.
G0 Z-2.86
G1 Z-4. F50.
G0 Z3.
Z-2.
G1 Z-5. F50.
G0 Z-4.86
G1 Z-6. F50.
G0 Z-5.86
G1 Z-7. F50.
G0 Z-6.86
G1 Z-8. F50.
G0 Z3.
Z-6.
G1 Z-9. F50.
G0 Z-8.86
G1 Z-10. F50.
G0 Z-9.86
G1 Z-11. F50.
G0 Z-10.86
G1 Z-12. F50.
G0 Z3.
Z-10.
G1 Z-13. F50.
G0 Z-12.86
G1 Z-14. F50.
G0 Z-13.86
G1 Z-15. F50.
G0 Z-14.86
G1 Z-16. F50.
G0 Z3.
Z-14.
G1 Z-17. F50.
G0 Z-16.86
G1 Z-18. F50.
G0 Z-17.86
G1 Z-19. F50.
G0 Z-18.86
G1 Z-20. F50.
G0 Z3.
Z-18.
G1 Z-21. F50.
G0 Z-20.86
G1 Z-22. F50.
G0 Z-21.86
G1 Z-22.103 F50.
G0 Z3.
X127.4 Y11.337
Z1.
G1 Z-1. F50.
G0 Z-0.86
G1 Z-2. F50.
G0 Z-1.86
G1 Z-3. F50.
G0 Z-2.86
G1 Z-4. F50.
G0 Z3.
Z-2.
G1 Z-5. F50.
G0 Z-4.86
G1 Z-6. F50.
G0 Z-5.86
G1 Z-7. F50.
G0 Z-6.86
G1 Z-8. F50.
G0 Z3.
Z-6.
G1 Z-9. F50.
G0 Z-8.86
G1 Z-10. F50.
G0 Z-9.86
G1 Z-11. F50.
G0 Z-10.86
G1 Z-12. F50.
G0 Z3.
Z-10.
G1 Z-13. F50.
G0 Z-12.86
G1 Z-14. F50.
G0 Z-13.86
G1 Z-15. F50.
G0 Z-14.86
G1 Z-16. F50.
G0 Z3.
Z-14.
G1 Z-17. F50.
G0 Z-16.86
G1 Z-18. F50.
G0 Z-17.86
G1 Z-19. F50.
G0 Z-18.86
G1 Z-20. F50.
G0 Z3.
Z-18.
G1 Z-21. F50.
G0 Z-20.86
G1 Z-22. F50.
G0 Z-21.86
G1 Z-22.103 F50.
G0 Z3.
Y34.67
Z1.
G1 Z-1. F50.
G0 Z-0.86
G1 Z-2. F50.
G0 Z-1.86
G1 Z-3. F50.
G0 Z-2.86
G1 Z-4. F50.
G0 Z3.
Z-2.
G1 Z-5. F50.
G0 Z-4.86
G1 Z-6. F50.
G0 Z-5.86
G1 Z-7. F50.
G0 Z-6.86
G1 Z-8. F50.
G0 Z3.
Z-6.
G1 Z-9. F50.
G0 Z-8.86
G1 Z-10. F50.
G0 Z-9.86
G1 Z-11. F50.
G0 Z-10.86
G1 Z-12. F50.
G0 Z3.
Z-10.
G1 Z-13. F50.
G0 Z-12.86
G1 Z-14. F50.
G0 Z-13.86
G1 Z-15. F50.
G0 Z-14.86
G1 Z-16. F50.
G0 Z3.
Z-14.
G1 Z-17. F50.
G0 Z-16.86
G1 Z-18. F50.
G0 Z-17.86
G1 Z-19. F50.
G0 Z-18.86
G1 Z-20. F50.
G0 Z3.
Z-18.
G1 Z-21. F50.
G0 Z-20.86
G1 Z-22. F50.
G0 Z-21.86
G1 Z-22.103 F50.
G0 Z3.
Y58.003
Z1.
G1 Z-1. F50.
G0 Z-0.86
G1 Z-2. F50.
G0 Z-1.86
G1 Z-3. F50.
G0 Z-2.86
G1 Z-4. F50.
G0 Z3.
Z-2.
G1 Z-5. F50.
G0 Z-4.86
G1 Z-6. F50.
G0 Z-5.86
G1 Z-7. F50.
G0 Z-6.86
G1 Z-8. F50.
G0 Z3.
Z-6.
G1 Z-9. F50.
G0 Z-8.86
G1 Z-10. F50.
G0 Z-9.86
G1 Z-11. F50.
G0 Z-10.86
G1 Z-12. F50.
G0 Z3.
Z-10.
G1 Z-13. F50.
G0 Z-12.86
G1 Z-14. F50.
G0 Z-13.86
G1 Z-15. F50.
G0 Z-14.86
G1 Z-16. F50.
G0 Z3.
Z-14.
G1 Z-17. F50.
G0 Z-16.86
G1 Z-18. F50.
G0 Z-17.86
G1 Z-19. F50.
G0 Z-18.86
G1 Z-20. F50.
G0 Z3.
Z-18.
G1 Z-21. F50.
G0 Z-20.86
G1 Z-22. F50.
G0 Z-21.86
G1 Z-22.103 F50.
G0 Z3.
Z8.

M30
