(1001)
(T1  D=10. CR=0. - ZMIN=-22. - FLAT END MILL)
G90 G94 G91.1 G40 G49 G17
G21

(POCKET-MAIN-ROUGHING 2)
M5
T1 M6
S9700 M3
G54
M8
G0 X72.054 Y-5.928
G43 Z10. H1
Z5.
G1 Z3. F2328.
Z-1.
Y-5.92 Z-1.121
Y-5.898 Z-1.239
Y-5.863 Z-1.355
Y-5.813 Z-1.465
Y-5.75 Z-1.568
Y-5.676 Z-1.663
Y-5.591 Z-1.749
Y-5.496 Z-1.823
Y-5.392 Z-1.885
Y-5.282 Z-1.935
Y-5.167 Z-1.971
Y-5.048 Z-1.993
X72.053 Y-4.928 Z-2.
X72.049 Y7.5
X72.073 Y21.102
G3 X70.633 Y21.876 I-0.927 J0.002
G2 X69.193 Y22.649 I-0.512 J0.773
G1 Y27.774
G3 X68.925 Y27.922 I-0.175 J0.
G2 X67.132 Y26.848 I-24.325 J38.578
G3 X66.987 Y26.401 I0.172 J-0.303
G2 X68.988 Y21.18 I-41.506 J-18.901
G1 X69.005 Y21.148
X69.033 Y21.123
X69.067 Y21.109
X69.104 Y21.108
X69.139 Y21.12
X69.168 Y21.143
X69.187 Y21.175
X69.193 Y21.212
Y22.649
G2 X70.193 Y22.664 I0.5 J0.
G1 X71.054 Y-4.904
G3 X72.053 Y-4.888 I0.5 J0.016
G1 X72.049 Y7.5
X72.094 Y33.479
G3 X71.832 Y33.603 I-0.16 J0.
G2 X63.258 Y28.086 I-27.232 J32.897
G3 X63.124 Y27.671 I0.132 J-0.272
G2 X68.233 Y7.5 I-37.98 J-20.351
G1 X68.228 Y-4.891
G3 X68.728 Y-5.391 I0.5 J0.
G1 X74.493 Y-5.397
G3 X74.994 Y-4.897 I0.001 J0.5
G1 Y40.414
G3 X74.747 Y40.506 I-0.141 J0.
G2 X59.073 Y29.418 I-30.147 J25.994
G3 X58.952 Y29.046 I0.092 J-0.235
G2 X65.333 Y7.5 I-33.71 J-21.7
G1 X65.328 Y-4.891
G3 X65.828 Y-5.391 I0.5 J0.
G1 X77.394 Y-5.396
G3 X77.894 Y-4.896 I0. J0.5
G1 Y50.075
X77.888 Y50.113
X77.869 Y50.147
X77.84 Y50.173
X77.805 Y50.188
X77.766 Y50.19
X77.729 Y50.18
X77.698 Y50.158
X77.675 Y50.127
G2 X54.946 Y31.028 I-33.198 J16.434
G3 X54.666 Y30.163 I0.154 J-0.528
G2 X62.432 Y7.5 I-29.184 J-22.663
G1 X62.427 Y-4.891
G3 X62.927 Y-5.391 I0.5 J0.
G1 X80.266 Y-5.399
G3 X80.767 Y-4.899 I0. J0.5
G1 X80.75 Y66.5
G2 X81.799 Y74.886 I34.05 J0.
G3 X81.315 Y75.509 I-0.485 J0.123
G1 X78.085 Y75.514
G3 X77.6 Y74.891 I-0.001 J-0.5
G2 X54.134 Y33.812 I-33. J-8.391
G3 X52.375 Y28.384 I0.966 J-3.312
G2 X59.532 Y7.5 I-26.894 J-20.884
G1 X59.527 Y-4.891
G3 X60.027 Y-5.391 I0.5 J0.
G1 X83.166 Y-5.392
G3 X83.666 Y-4.892 I0. J0.5
G1 X83.65 Y66.5
G2 X84.804 Y74.899 I31.15 J0.
G3 X84.322 Y75.534 I-0.481 J0.135
G1 X75.08 Y75.523
G3 X74.599 Y74.889 I0.001 J-0.5
G2 X53.322 Y36.596 I-29.999 J-8.389
G3 X50.085 Y26.605 I1.778 J-6.096
G2 X56.632 Y7.5 I-24.603 J-19.105
G1 X56.628 Y-4.891
G3 X57.127 Y-5.391 I0.5 J0.
G1 X86.066 Y-5.4
G3 X86.566 Y-4.9 I0. J0.5
G1 X86.55 Y66.5
G2 X87.825 Y74.891 I28.25 J0.
G3 X87.348 Y75.54 I-0.477 J0.149
G1 X72.051 Y75.544
G3 X71.574 Y74.896 I0. J-0.5
G2 X52.51 Y39.38 I-26.974 J-8.396
G3 X47.794 Y24.827 I2.59 J-8.88
G2 X53.732 Y7.5 I-22.313 J-17.327
G1 X53.728 Y-4.891
G3 X54.228 Y-5.391 I0.5 J0.
G1 X88.966 Y-5.393
G3 X89.466 Y-4.893 I0. J0.5
G1 X89.45 Y66.5
G2 X90.878 Y74.889 I25.35 J0.
G3 X90.407 Y75.555 I-0.472 J0.165
G1 X68.992 Y75.559
G3 X68.52 Y74.894 I0. J-0.5
G2 X51.698 Y42.164 I-23.92 J-8.394
G3 X45.504 Y23.048 I3.402 J-11.664
G2 X50.832 Y7.5 I-20.022 J-15.548
G1 X50.828 Y-4.891
G3 X51.328 Y-5.391 I0.5 J0.
G1 X91.866 Y-5.386
G3 X92.366 Y-4.885 I0. J0.5
G1 X92.35 Y66.5
G2 X93.976 Y74.889 I22.45 J0.
G3 X93.512 Y75.576 I-0.464 J0.187
G1 X65.886 Y75.58
G3 X65.422 Y74.893 I0. J-0.5
G2 X50.886 Y44.948 I-20.822 J-8.393
G3 X43.213 Y21.269 I4.214 J-14.448
G2 X47.932 Y7.5 I-17.732 J-13.769
G1 X47.928 Y-4.891
G3 X48.428 Y-5.391 I0.5 J0.
G1 X94.765 Y-5.394
G3 X95.266 Y-4.894 I0. J0.5
G1 X95.25 Y66.5
G2 X97.143 Y74.893 I19.55 J0.
G3 X96.692 Y75.608 I-0.452 J0.215
G1 X62.706 Y75.612
G3 X62.255 Y74.897 I0. J-0.5
G2 X50.074 Y47.732 I-17.655 J-8.397
G3 X40.923 Y19.491 I5.026 J-17.232
G2 X45.032 Y7.5 I-15.441 J-11.991
G1 X45.028 Y-4.891
G3 X45.528 Y-5.391 I0.5 J0.
G1 X97.665 Y-5.387
G3 X98.165 Y-4.887 I0. J0.5
G1 X98.15 Y66.5
G2 X100.422 Y74.895 I16.65 J0.
G3 X99.99 Y75.648 I-0.432 J0.252
G1 X59.408 Y75.651
G3 X58.976 Y74.899 I0. J-0.5
G2 X49.262 Y50.516 I-14.376 J-8.399
G3 X38.632 Y17.712 I5.838 J-20.016
G2 X42.132 Y7.5 I-13.151 J-10.212
G1 X42.128 Y-4.891
G3 X42.628 Y-5.391 I0.5 J0.
G1 X100.565 Y-5.395
G3 X101.065 Y-4.895 I0. J0.5
G1 X101.05 Y66.5
G2 X103.912 Y74.897 I13.75 J0.
G3 X103.516 Y75.702 I-0.396 J0.305
G1 X55.891 Y75.693
G3 X55.495 Y74.888 I0. J-0.5
G2 X48.45 Y53.3 I-10.895 J-8.388
G3 X36.342 Y15.933 I6.65 J-22.8
G2 X39.232 Y7.5 I-10.86 J-8.433
G1 X39.228 Y-4.891
G3 X39.728 Y-5.391 I0.5 J0.
G1 X103.465 Y-5.388
G3 X103.965 Y-4.888 I0. J0.5
G1 X103.95 Y66.5
G2 X107.921 Y74.891 I10.85 J0.
G3 X107.604 Y75.777 I-0.317 J0.387
G1 X51.793 Y75.78
G3 X51.476 Y74.893 I0. J-0.5
G2 X47.638 Y56.084 I-6.876 J-8.393
G3 X34.051 Y14.155 I7.462 J-25.584
G2 X36.37 Y7.267 I-8.718 J-6.77
G3 X36.332 Y0. I681.117 J-7.267
G1 X36.33 Y-4.897
G3 X36.83 Y-5.397 I0.5 J0.
G1 X106.365 Y-5.396
G3 X106.865 Y-4.896 I0. J0.5
G1 X106.85 Y66.5
G2 X114.8 Y74.45 I7.95 J0.
G1 X141.991 Y74.443
G3 X142.491 Y74.943 I0. J0.5
X141.991 Y75.443 I-0.5 J0.
G1 X-2.004 Y75.439
G3 X-2.504 Y74.939 I0. J-0.5
X-2.004 Y74.439 I0.5 J0.
G1 X44.6 Y74.45
G2 X46.826 Y58.868 I0. J-7.95
G3 X31.761 Y12.376 I8.274 J-28.368
G2 X33.432 Y7.5 I-6.279 J-4.876
G1 X33.428 Y-4.891
G3 X33.928 Y-5.391 I0.5 J0.
G1 X109.3 Y-5.387
G3 X109.8 Y-4.887 I0. J0.5
G1 Y66.5
G2 X114.8 Y71.5 I5. J0.
G1 X140.
X144.586
G3 Y72.5 I0. J0.5
G1 X-4.591
G3 Y71.5 I0. J-0.5
G1 X44.6
G2 X46. Y61.7 I0. J-5.
G3 X29.431 Y10.567 I9.1 J-31.2
G2 X30.482 Y7.5 I-3.949 J-3.067
G1 Y0.
Y-4.897
G3 X30.957 Y-5.397 I0.5 J0.
G1 X71.529 Y-7.427
G3 X72.054 Y-6.928 I0.025 J0.499
G1 Y-6.807 Z-2.007
Y-6.688 Z-2.029
Y-6.573 Z-2.065
Y-6.463 Z-2.115
Y-6.359 Z-2.177
Y-6.264 Z-2.251
Y-6.179 Z-2.337
Y-6.105 Z-2.432
Y-6.042 Z-2.535
Y-5.992 Z-2.645
Y-5.957 Z-2.761
Y-5.935 Z-2.879
Y-5.928 Z-3.
Y-5.92 Z-3.121
Y-5.898 Z-3.239
Y-5.863 Z-3.355
Y-5.813 Z-3.465
Y-5.75 Z-3.568
Y-5.676 Z-3.663
Y-5.591 Z-3.749
Y-5.496 Z-3.823
Y-5.392 Z-3.885
Y-5.282 Z-3.935
Y-5.167 Z-3.971
Y-5.048 Z-3.993
X72.053 Y-4.928 Z-4.
X72.049 Y7.5
X72.073 Y21.102
G3 X70.633 Y21.876 I-0.927 J0.002
G2 X69.193 Y22.649 I-0.512 J0.773
G1 Y27.774
G3 X68.925 Y27.922 I-0.175 J0.
G2 X67.132 Y26.848 I-24.325 J38.578
G3 X66.987 Y26.401 I0.172 J-0.303
G2 X68.988 Y21.18 I-41.506 J-18.901
G1 X69.005 Y21.148
X69.033 Y21.123
X69.067 Y21.109
X69.104 Y21.108
X69.139 Y21.12
X69.168 Y21.143
X69.187 Y21.175
X69.193 Y21.212
Y22.649
G2 X70.193 Y22.664 I0.5 J0.
G1 X71.054 Y-4.904
G3 X72.053 Y-4.888 I0.5 J0.016
G1 X72.049 Y7.5
X72.094 Y33.479
G3 X71.832 Y33.603 I-0.16 J0.
G2 X63.258 Y28.086 I-27.232 J32.897
G3 X63.124 Y27.671 I0.132 J-0.272
G2 X68.233 Y7.5 I-37.98 J-20.351
G1 X68.228 Y-4.891
G3 X68.728 Y-5.391 I0.5 J0.
G1 X74.493 Y-5.397
G3 X74.994 Y-4.897 I0.001 J0.5
G1 Y40.414
G3 X74.747 Y40.506 I-0.141 J0.
G2 X59.073 Y29.418 I-30.147 J25.994
G3 X58.952 Y29.046 I0.092 J-0.235
G2 X65.333 Y7.5 I-33.71 J-21.7
G1 X65.328 Y-4.891
G3 X65.828 Y-5.391 I0.5 J0.
G1 X77.394 Y-5.396
G3 X77.894 Y-4.896 I0. J0.5
G1 Y50.075
X77.888 Y50.113
X77.869 Y50.147
X77.84 Y50.173
X77.805 Y50.188
X77.766 Y50.19
X77.729 Y50.18
X77.698 Y50.158
X77.675 Y50.127
G2 X54.946 Y31.028 I-33.198 J16.434
G3 X54.666 Y30.163 I0.154 J-0.528
G2 X62.432 Y7.5 I-29.184 J-22.663
G1 X62.427 Y-4.891
G3 X62.927 Y-5.391 I0.5 J0.
G1 X80.266 Y-5.399
G3 X80.767 Y-4.899 I0. J0.5
G1 X80.75 Y66.5
G2 X81.799 Y74.886 I34.05 J0.
G3 X81.315 Y75.509 I-0.485 J0.123
G1 X78.085 Y75.514
G3 X77.6 Y74.891 I-0.001 J-0.5
G2 X54.134 Y33.812 I-33. J-8.391
G3 X52.375 Y28.384 I0.966 J-3.312
G2 X59.532 Y7.5 I-26.894 J-20.884
G1 X59.527 Y-4.891
G3 X60.027 Y-5.391 I0.5 J0.
G1 X83.166 Y-5.392
G3 X83.666 Y-4.892 I0. J0.5
G1 X83.65 Y66.5
G2 X84.804 Y74.899 I31.15 J0.
G3 X84.322 Y75.534 I-0.481 J0.135
G1 X75.08 Y75.523
G3 X74.599 Y74.889 I0.001 J-0.5
G2 X53.322 Y36.596 I-29.999 J-8.389
G3 X50.085 Y26.605 I1.778 J-6.096
G2 X56.632 Y7.5 I-24.603 J-19.105
G1 X56.628 Y-4.891
G3 X57.127 Y-5.391 I0.5 J0.
G1 X86.066 Y-5.4
G3 X86.566 Y-4.9 I0. J0.5
G1 X86.55 Y66.5
G2 X87.825 Y74.891 I28.25 J0.
G3 X87.348 Y75.54 I-0.477 J0.149
G1 X72.051 Y75.544
G3 X71.574 Y74.896 I0. J-0.5
G2 X52.51 Y39.38 I-26.974 J-8.396
G3 X47.794 Y24.827 I2.59 J-8.88
G2 X53.732 Y7.5 I-22.313 J-17.327
G1 X53.728 Y-4.891
G3 X54.228 Y-5.391 I0.5 J0.
G1 X88.966 Y-5.393
G3 X89.466 Y-4.893 I0. J0.5
G1 X89.45 Y66.5
G2 X90.878 Y74.889 I25.35 J0.
G3 X90.407 Y75.555 I-0.472 J0.165
G1 X68.992 Y75.559
G3 X68.52 Y74.894 I0. J-0.5
G2 X51.698 Y42.164 I-23.92 J-8.394
G3 X45.504 Y23.048 I3.402 J-11.664
G2 X50.832 Y7.5 I-20.022 J-15.548
G1 X50.828 Y-4.891
G3 X51.328 Y-5.391 I0.5 J0.
G1 X91.866 Y-5.386
G3 X92.366 Y-4.885 I0. J0.5
G1 X92.35 Y66.5
G2 X93.976 Y74.889 I22.45 J0.
G3 X93.512 Y75.576 I-0.464 J0.187
G1 X65.886 Y75.58
G3 X65.422 Y74.893 I0. J-0.5
G2 X50.886 Y44.948 I-20.822 J-8.393
G3 X43.213 Y21.269 I4.214 J-14.448
G2 X47.932 Y7.5 I-17.732 J-13.769
G1 X47.928 Y-4.891
G3 X48.428 Y-5.391 I0.5 J0.
G1 X94.765 Y-5.394
G3 X95.266 Y-4.894 I0. J0.5
G1 X95.25 Y66.5
G2 X97.143 Y74.893 I19.55 J0.
G3 X96.692 Y75.608 I-0.452 J0.215
G1 X62.706 Y75.612
G3 X62.255 Y74.897 I0. J-0.5
G2 X50.074 Y47.732 I-17.655 J-8.397
G3 X40.923 Y19.491 I5.026 J-17.232
G2 X45.032 Y7.5 I-15.441 J-11.991
G1 X45.028 Y-4.891
G3 X45.528 Y-5.391 I0.5 J0.
G1 X97.665 Y-5.387
G3 X98.165 Y-4.887 I0. J0.5
G1 X98.15 Y66.5
G2 X100.422 Y74.895 I16.65 J0.
G3 X99.99 Y75.648 I-0.432 J0.252
G1 X59.408 Y75.651
G3 X58.976 Y74.899 I0. J-0.5
G2 X49.262 Y50.516 I-14.376 J-8.399
G3 X38.632 Y17.712 I5.838 J-20.016
G2 X42.132 Y7.5 I-13.151 J-10.212
G1 X42.128 Y-4.891
G3 X42.628 Y-5.391 I0.5 J0.
G1 X100.565 Y-5.395
G3 X101.065 Y-4.895 I0. J0.5
G1 X101.05 Y66.5
G2 X103.912 Y74.897 I13.75 J0.
G3 X103.516 Y75.702 I-0.396 J0.305
G1 X55.891 Y75.693
G3 X55.495 Y74.888 I0. J-0.5
G2 X48.45 Y53.3 I-10.895 J-8.388
G3 X36.342 Y15.933 I6.65 J-22.8
G2 X39.232 Y7.5 I-10.86 J-8.433
G1 X39.228 Y-4.891
G3 X39.728 Y-5.391 I0.5 J0.
G1 X103.465 Y-5.388
G3 X103.965 Y-4.888 I0. J0.5
G1 X103.95 Y66.5
G2 X107.921 Y74.891 I10.85 J0.
G3 X107.604 Y75.777 I-0.317 J0.387
G1 X51.793 Y75.78
G3 X51.476 Y74.893 I0. J-0.5
G2 X47.638 Y56.084 I-6.876 J-8.393
G3 X34.051 Y14.155 I7.462 J-25.584
G2 X36.37 Y7.267 I-8.718 J-6.77
G3 X36.332 Y0. I681.117 J-7.267
G1 X36.33 Y-4.897
G3 X36.83 Y-5.397 I0.5 J0.
G1 X106.365 Y-5.396
G3 X106.865 Y-4.896 I0. J0.5
G1 X106.85 Y66.5
G2 X114.8 Y74.45 I7.95 J0.
G1 X141.991 Y74.443
G3 X142.491 Y74.943 I0. J0.5
X141.991 Y75.443 I-0.5 J0.
G1 X-2.004 Y75.439
G3 X-2.504 Y74.939 I0. J-0.5
X-2.004 Y74.439 I0.5 J0.
G1 X44.6 Y74.45
G2 X46.826 Y58.868 I0. J-7.95
G3 X31.761 Y12.376 I8.274 J-28.368
G2 X33.432 Y7.5 I-6.279 J-4.876
G1 X33.428 Y-4.891
G3 X33.928 Y-5.391 I0.5 J0.
G1 X109.3 Y-5.387
G3 X109.8 Y-4.887 I0. J0.5
G1 Y66.5
G2 X114.8 Y71.5 I5. J0.
G1 X140.
X144.586
G3 Y72.5 I0. J0.5
G1 X-4.591
G3 Y71.5 I0. J-0.5
G1 X44.6
G2 X46. Y61.7 I0. J-5.
G3 X29.431 Y10.567 I9.1 J-31.2
G2 X30.482 Y7.5 I-3.949 J-3.067
G1 Y0.
Y-4.897
G3 X30.96 Y-5.397 I0.5 J0.
G1 X71.532 Y-7.159
G3 X72.054 Y-6.66 I0.022 J0.5
G1 Y-6.543 Z-4.007
Y-6.429 Z-4.027
Y-6.318 Z-4.06
Y-6.211 Z-4.106
Y-6.11 Z-4.165
Y-6.017 Z-4.234
Y-5.932 Z-4.314
Y-5.857 Z-4.403
Y-5.794 Z-4.5
Y-5.73 Z-4.597
Y-5.655 Z-4.686
Y-5.57 Z-4.766
Y-5.477 Z-4.835
Y-5.376 Z-4.894
Y-5.27 Z-4.94
Y-5.158 Z-4.973
Y-5.044 Z-4.993
X72.053 Y-4.928 Z-5.
X72.049 Y7.5
X72.073 Y21.102
G3 X70.633 Y21.876 I-0.927 J0.002
G2 X69.193 Y22.649 I-0.512 J0.773
G1 Y27.774
G3 X68.925 Y27.922 I-0.175 J0.
G2 X67.132 Y26.848 I-24.325 J38.578
G3 X66.987 Y26.401 I0.172 J-0.303
G2 X68.988 Y21.18 I-41.506 J-18.901
G1 X69.005 Y21.148
X69.033 Y21.123
X69.067 Y21.109
X69.104 Y21.108
X69.139 Y21.12
X69.168 Y21.143
X69.187 Y21.175
X69.193 Y21.212
Y22.649
G2 X70.193 Y22.664 I0.5 J0.
G1 X71.054 Y-4.904
G3 X72.053 Y-4.888 I0.5 J0.016
G1 X72.049 Y7.5
X72.094 Y33.479
G3 X71.832 Y33.603 I-0.16 J0.
G2 X63.258 Y28.086 I-27.232 J32.897
G3 X63.124 Y27.671 I0.132 J-0.272
G2 X68.233 Y7.5 I-37.98 J-20.351
G1 X68.228 Y-4.891
G3 X68.728 Y-5.391 I0.5 J0.
G1 X74.493 Y-5.397
G3 X74.994 Y-4.897 I0.001 J0.5
G1 Y40.414
G3 X74.747 Y40.506 I-0.141 J0.
G2 X59.073 Y29.418 I-30.147 J25.994
G3 X58.952 Y29.046 I0.092 J-0.235
G2 X65.333 Y7.5 I-33.71 J-21.7
G1 X65.328 Y-4.891
G3 X65.828 Y-5.391 I0.5 J0.
G1 X77.394 Y-5.396
G3 X77.894 Y-4.896 I0. J0.5
G1 Y50.075
X77.888 Y50.113
X77.869 Y50.147
X77.84 Y50.173
X77.805 Y50.188
X77.766 Y50.19
X77.729 Y50.18
X77.698 Y50.158
X77.675 Y50.127
G2 X54.946 Y31.028 I-33.198 J16.434
G3 X54.666 Y30.163 I0.154 J-0.528
G2 X62.432 Y7.5 I-29.184 J-22.663
G1 X62.427 Y-4.891
G3 X62.927 Y-5.391 I0.5 J0.
G1 X80.266 Y-5.399
G3 X80.767 Y-4.899 I0. J0.5
G1 X80.75 Y66.5
G2 X81.799 Y74.886 I34.05 J0.
G3 X81.315 Y75.509 I-0.485 J0.123
G1 X78.085 Y75.514
G3 X77.6 Y74.891 I-0.001 J-0.5
G2 X54.134 Y33.812 I-33. J-8.391
G3 X52.375 Y28.384 I0.966 J-3.312
G2 X59.532 Y7.5 I-26.894 J-20.884
G1 X59.527 Y-4.891
G3 X60.027 Y-5.391 I0.5 J0.
G1 X83.166 Y-5.392
G3 X83.666 Y-4.892 I0. J0.5
G1 X83.65 Y66.5
G2 X84.804 Y74.899 I31.15 J0.
G3 X84.322 Y75.534 I-0.481 J0.135
G1 X75.08 Y75.523
G3 X74.599 Y74.889 I0.001 J-0.5
G2 X53.322 Y36.596 I-29.999 J-8.389
G3 X50.085 Y26.605 I1.778 J-6.096
G2 X56.632 Y7.5 I-24.603 J-19.105
G1 X56.628 Y-4.891
G3 X57.127 Y-5.391 I0.5 J0.
G1 X86.066 Y-5.4
G3 X86.566 Y-4.9 I0. J0.5
G1 X86.55 Y66.5
G2 X87.825 Y74.891 I28.25 J0.
G3 X87.348 Y75.54 I-0.477 J0.149
G1 X72.051 Y75.544
G3 X71.574 Y74.896 I0. J-0.5
G2 X52.51 Y39.38 I-26.974 J-8.396
G3 X47.794 Y24.827 I2.59 J-8.88
G2 X53.732 Y7.5 I-22.313 J-17.327
G1 X53.728 Y-4.891
G3 X54.228 Y-5.391 I0.5 J0.
G1 X88.966 Y-5.393
G3 X89.466 Y-4.893 I0. J0.5
G1 X89.45 Y66.5
G2 X90.878 Y74.889 I25.35 J0.
G3 X90.407 Y75.555 I-0.472 J0.165
G1 X68.992 Y75.559
G3 X68.52 Y74.894 I0. J-0.5
G2 X51.698 Y42.164 I-23.92 J-8.394
G3 X45.504 Y23.048 I3.402 J-11.664
G2 X50.832 Y7.5 I-20.022 J-15.548
G1 X50.828 Y-4.891
G3 X51.328 Y-5.391 I0.5 J0.
G1 X91.866 Y-5.386
G3 X92.366 Y-4.885 I0. J0.5
G1 X92.35 Y66.5
G2 X93.976 Y74.889 I22.45 J0.
G3 X93.512 Y75.576 I-0.464 J0.187
G1 X65.886 Y75.58
G3 X65.422 Y74.893 I0. J-0.5
G2 X50.886 Y44.948 I-20.822 J-8.393
G3 X43.213 Y21.269 I4.214 J-14.448
G2 X47.932 Y7.5 I-17.732 J-13.769
G1 X47.928 Y-4.891
G3 X48.428 Y-5.391 I0.5 J0.
G1 X94.765 Y-5.394
G3 X95.266 Y-4.894 I0. J0.5
G1 X95.25 Y66.5
G2 X97.143 Y74.893 I19.55 J0.
G3 X96.692 Y75.608 I-0.452 J0.215
G1 X62.706 Y75.612
G3 X62.255 Y74.897 I0. J-0.5
G2 X50.074 Y47.732 I-17.655 J-8.397
G3 X40.923 Y19.491 I5.026 J-17.232
G2 X45.032 Y7.5 I-15.441 J-11.991
G1 X45.028 Y-4.891
G3 X45.528 Y-5.391 I0.5 J0.
G1 X97.665 Y-5.387
G3 X98.165 Y-4.887 I0. J0.5
G1 X98.15 Y66.5
G2 X100.422 Y74.895 I16.65 J0.
G3 X99.99 Y75.648 I-0.432 J0.252
G1 X59.408 Y75.651
G3 X58.976 Y74.899 I0. J-0.5
G2 X49.262 Y50.516 I-14.376 J-8.399
G3 X38.632 Y17.712 I5.838 J-20.016
G2 X42.132 Y7.5 I-13.151 J-10.212
G1 X42.128 Y-4.891
G3 X42.628 Y-5.391 I0.5 J0.
G1 X100.565 Y-5.395
G3 X101.065 Y-4.895 I0. J0.5
G1 X101.05 Y66.5
G2 X103.912 Y74.897 I13.75 J0.
G3 X103.516 Y75.702 I-0.396 J0.305
G1 X55.891 Y75.693
G3 X55.495 Y74.888 I0. J-0.5
G2 X48.45 Y53.3 I-10.895 J-8.388
G3 X36.342 Y15.933 I6.65 J-22.8
G2 X39.232 Y7.5 I-10.86 J-8.433
G1 X39.228 Y-4.891
G3 X39.728 Y-5.391 I0.5 J0.
G1 X103.465 Y-5.388
G3 X103.965 Y-4.888 I0. J0.5
G1 X103.95 Y66.5
G2 X107.921 Y74.891 I10.85 J0.
G3 X107.604 Y75.777 I-0.317 J0.387
G1 X51.793 Y75.78
G3 X51.476 Y74.893 I0. J-0.5
G2 X47.638 Y56.084 I-6.876 J-8.393
G3 X34.051 Y14.155 I7.462 J-25.584
G2 X36.37 Y7.267 I-8.718 J-6.77
G3 X36.332 Y0. I681.117 J-7.267
G1 X36.33 Y-4.897
G3 X36.83 Y-5.397 I0.5 J0.
G1 X106.365 Y-5.396
G3 X106.865 Y-4.896 I0. J0.5
G1 X106.85 Y66.5
G2 X114.8 Y74.45 I7.95 J0.
G1 X141.991 Y74.443
G3 X142.491 Y74.943 I0. J0.5
X141.991 Y75.443 I-0.5 J0.
G1 X-2.004 Y75.439
G3 X-2.504 Y74.939 I0. J-0.5
X-2.004 Y74.439 I0.5 J0.
G1 X44.6 Y74.45
G2 X46.826 Y58.868 I0. J-7.95
G3 X31.761 Y12.376 I8.274 J-28.368
G2 X33.432 Y7.5 I-6.279 J-4.876
G1 X33.428 Y-4.891
G3 X33.928 Y-5.391 I0.5 J0.
G1 X109.3 Y-5.387
G3 X109.8 Y-4.887 I0. J0.5
G1 Y66.5
G2 X114.8 Y71.5 I5. J0.
G1 X140.
X144.586
G3 Y72.5 I0. J0.5
G1 X-4.591
G3 Y71.5 I0. J-0.5
G1 X44.6
G2 X46. Y61.7 I0. J-5.
G3 X29.431 Y10.567 I9.1 J-31.2
G2 X30.482 Y7.5 I-3.949 J-3.067
G1 Y0.
Y-4.897
X30.485 Y-4.976
X30.494 Y-5.054
X30.787 Y-6.906
X30.806 Y-7.025 Z-4.993
X30.825 Y-7.142 Z-4.971
X30.843 Y-7.256 Z-4.935
X30.86 Y-7.365 Z-4.885
X30.876 Y-7.467 Z-4.823
X30.891 Y-7.561 Z-4.749
X30.904 Y-7.645 Z-4.663
X30.916 Y-7.718 Z-4.568
X30.926 Y-7.78 Z-4.465
X30.933 Y-7.829 Z-4.355
X30.939 Y-7.865 Z-4.239
X30.943 Y-7.886 Z-4.121
X30.944 Y-7.893 Z-4.
G0 Z10.

(POCKET-30MM-ROUGHING 2)
G0 Z11.
X55.1 Y30.5
G1 Z-10. F2328.
X55.107 Y30.478
X55.126 Y30.464
X55.149
X55.168 Y30.478
X55.175 Y30.5
X55.168 Y30.533
X55.147 Y30.559
X55.117 Y30.573
X55.083
X55.053 Y30.559
X55.032 Y30.533
X55.025 Y30.5
G3 X55.675 I0.325 J0.
X54.525 I-0.575 J0.
X56.175 I0.825 J0.
X54.025 I-1.075 J0.
X56.675 I1.325 J0.
X53.525 I-1.575 J0.
X57.175 I1.825 J0.
X53.025 I-2.075 J0.
X57.675 I2.325 J0.
X52.525 I-2.575 J0.
X58.175 I2.825 J0.
X52.025 I-3.075 J0.
X58.675 I3.325 J0.
X51.525 I-3.575 J0.
X59.175 I3.825 J0.
X51.025 I-4.075 J0.
X59.675 I4.325 J0.
X50.525 I-4.575 J0.
X60.175 I4.825 J0.
X50.025 I-5.075 J0.
X60.675 I5.325 J0.
X49.525 I-5.575 J0.
X61.175 I5.825 J0.
X49.025 I-6.075 J0.
X61.675 I6.325 J0.
X48.525 I-6.575 J0.
X62.175 I6.825 J0.
X48.025 I-7.075 J0.
X62.675 I7.325 J0.
X47.525 I-7.575 J0.
X63.175 I7.825 J0.
X47.025 I-8.075 J0.
X63.675 I8.325 J0.
X46.525 I-8.575 J0.
X64.175 I8.825 J0.
X46.025 I-9.075 J0.
X64.675 I9.325 J0.
X45.525 I-9.575 J0.
X65.175 I9.825 J0.
X45.025 I-10.075 J0.
X65.175 I10.075 J0.
X64.629 Y30.99 I-0.493 J0.
G1 X60.191 Y30.503
X60.137 Y30.5
X60.084 Y30.503
X55.646 Y30.99
G3 X55.1 Y30.5 I-0.054 J-0.49
G1 Z-18.
X55.175
X55.168 Y30.533
X55.147 Y30.559
X55.117 Y30.573
X55.083
X55.053 Y30.559
X55.032 Y30.533
X55.025 Y30.5
G3 X55.675 I0.325 J0.
X54.525 I-0.575 J0.
X56.175 I0.825 J0.
X54.025 I-1.075 J0.
X56.675 I1.325 J0.
X53.525 I-1.575 J0.
X57.175 I1.825 J0.
X53.025 I-2.075 J0.
X57.675 I2.325 J0.
X52.525 I-2.575 J0.
X58.175 I2.825 J0.
X52.025 I-3.075 J0.
X58.675 I3.325 J0.
X51.525 I-3.575 J0.
X59.175 I3.825 J0.
X51.025 I-4.075 J0.
X59.675 I4.325 J0.
X50.525 I-4.575 J0.
X60.175 I4.825 J0.
X50.025 I-5.075 J0.
X60.675 I5.325 J0.
X49.525 I-5.575 J0.
X61.175 I5.825 J0.
X49.025 I-6.075 J0.
X61.675 I6.325 J0.
X48.525 I-6.575 J0.
X62.175 I6.825 J0.
X48.025 I-7.075 J0.
X62.675 I7.325 J0.
X47.525 I-7.575 J0.
X63.175 I7.825 J0.
X47.025 I-8.075 J0.
X63.675 I8.325 J0.
X46.525 I-8.575 J0.
X64.175 I8.825 J0.
X46.025 I-9.075 J0.
X64.675 I9.325 J0.
X45.525 I-9.575 J0.
X65.175 I9.825 J0.
X45.025 I-10.075 J0.
X65.175 I10.075 J0.
X65.142 Y30.752 Z-17.966 I-0.985 J0.
G1 X65.105 Y30.865 Z-17.917
X65.054 Y30.972 Z-17.868
X65.001 Y31.059 Z-17.79
X64.939 Y31.14 Z-17.712
X64.886 Y31.197 Z-17.609
X64.828 Y31.25 Z-17.507
X64.75 Y31.31 Z-17.27
X64.722 Y31.329 Z-17.015
G0 Z11.

(POCKET-26 3)
G0 X55.6 Y29.5
Z11.
Z5.
G1 Z2.5 F2328.
Z-21. F330.
G19 G3 Y30.5 Z-22. J1. K0.
G17 G3 X54.6 I-0.5 J0. F2328.
X57.1 I1.25 J0.
X53.1 I-2. J0.
X58.6 I2.75 J0.
X51.6 I-3.5 J0.
X60.1 I4.25 J0.
X50.1 I-5. J0.
X61.6 I5.75 J0.
X48.6 I-6.5 J0.
X63.1 I7.25 J0.
X47.1 I-8. J0.
X63.1 I8. J0.
X63.067 Y30.756 Z-21.966 I-1. J0.
G1 X63.029 Y30.87 Z-21.916
X62.978 Y30.979 Z-21.866
X62.923 Y31.068 Z-21.787
X62.86 Y31.15 Z-21.707
X62.806 Y31.208 Z-21.604
X62.748 Y31.262 Z-21.5
X62.669 Y31.323 Z-21.259
X62.64 Y31.341 Z-21.
G0 Z11.

M9
M30
