(1001)
(T1  D=9.85 CR=0. - ZMIN=-18. - FLAT END MILL)
G90 G94 G91.1 G40 G49 G17
G21

(POCKET - 30 MM - ROUGHING 2)
M5
T1 M6
S9700 M3
G54
M8
G0 X55.1 Y39.5
G43 Z11. H1
G1 Z-10. F2328.
X55.107 Y39.478
X55.126 Y39.464
X55.149
X55.168 Y39.478
X55.175 Y39.5
X55.168 Y39.533
X55.147 Y39.559
X55.117 Y39.573
X55.083
X55.053 Y39.559
X55.032 Y39.533
X55.025 Y39.5
G3 X55.675 I0.325 J0.
X54.525 I-0.575 J0.
X56.175 I0.825 J0.
X54.025 I-1.075 J0.
X56.675 I1.325 J0.
X53.525 I-1.575 J0.
X57.175 I1.825 J0.
X53.025 I-2.075 J0.
X57.675 I2.325 J0.
X52.525 I-2.575 J0.
X58.175 I2.825 J0.
X52.025 I-3.075 J0.
X58.675 I3.325 J0.
X51.525 I-3.575 J0.
X59.175 I3.825 J0.
X51.025 I-4.075 J0.
X59.675 I4.325 J0.
X50.525 I-4.575 J0.
X60.175 I4.825 J0.
X50.025 I-5.075 J0.
X60.675 I5.325 J0.
X49.525 I-5.575 J0.
X61.175 I5.825 J0.
X49.025 I-6.075 J0.
X61.675 I6.325 J0.
X48.525 I-6.575 J0.
X62.175 I6.825 J0.
X48.025 I-7.075 J0.
X62.675 I7.325 J0.
X47.525 I-7.575 J0.
X63.175 I7.825 J0.
X47.025 I-8.075 J0.
X63.675 I8.325 J0.
X46.525 I-8.575 J0.
X64.175 I8.825 J0.
X46.025 I-9.075 J0.
X64.675 I9.325 J0.
X45.525 I-9.575 J0.
X65.175 I9.825 J0.
X45.025 I-10.075 J0.
X65.175 I10.075 J0.
X64.629 Y39.99 I-0.493 J0.
G1 X60.191 Y39.503
X60.137 Y39.5
X60.084 Y39.503
X55.646 Y39.99
G3 X55.1 Y39.5 I-0.054 J-0.49
G1 Z-18.
X55.175
X55.168 Y39.533
X55.147 Y39.559
X55.117 Y39.573
X55.083
X55.053 Y39.559
X55.032 Y39.533
X55.025 Y39.5
G3 X55.675 I0.325 J0.
X54.525 I-0.575 J0.
X56.175 I0.825 J0.
X54.025 I-1.075 J0.
X56.675 I1.325 J0.
X53.525 I-1.575 J0.
X57.175 I1.825 J0.
X53.025 I-2.075 J0.
X57.675 I2.325 J0.
X52.525 I-2.575 J0.
X58.175 I2.825 J0.
X52.025 I-3.075 J0.
X58.675 I3.325 J0.
X51.525 I-3.575 J0.
X59.175 I3.825 J0.
X51.025 I-4.075 J0.
X59.675 I4.325 J0.
X50.525 I-4.575 J0.
X60.175 I4.825 J0.
X50.025 I-5.075 J0.
X60.675 I5.325 J0.
X49.525 I-5.575 J0.
X61.175 I5.825 J0.
X49.025 I-6.075 J0.
X61.675 I6.325 J0.
X48.525 I-6.575 J0.
X62.175 I6.825 J0.
X48.025 I-7.075 J0.
X62.675 I7.325 J0.
X47.525 I-7.575 J0.
X63.175 I7.825 J0.
X47.025 I-8.075 J0.
X63.675 I8.325 J0.
X46.525 I-8.575 J0.
X64.175 I8.825 J0.
X46.025 I-9.075 J0.
X64.675 I9.325 J0.
X45.525 I-9.575 J0.
X65.175 I9.825 J0.
X45.025 I-10.075 J0.
X65.175 I10.075 J0.
X65.142 Y39.752 Z-17.966 I-0.985 J0.
G1 X65.105 Y39.865 Z-17.917
X65.054 Y39.972 Z-17.868
X65.001 Y40.059 Z-17.79
X64.939 Y40.14 Z-17.712
X64.886 Y40.197 Z-17.609
X64.828 Y40.25 Z-17.507
X64.75 Y40.31 Z-17.27
X64.722 Y40.329 Z-17.015
G0 Z11.

M9
M30
