(1001)
(T1  D=10. CR=0. - ZMIN=-18. - FLAT END MILL)
G90 G94 G91.1 G40 G49 G17
G21

(POCKET - 30 MM - ROUGHING 2)
M5
T1 M6
S9700 M3
G54
M8
G0 X55.1 Y39.5
G43 Z11. H1
G1 Z-10. F2328.
G3 X55.6 I0.25 J0.
X54.6 I-0.5 J0.
X56.1 I0.75 J0.
X54.1 I-1. J0.
X56.6 I1.25 J0.
X53.6 I-1.5 J0.
X57.1 I1.75 J0.
X53.1 I-2. J0.
X57.6 I2.25 J0.
X52.6 I-2.5 J0.
X58.1 I2.75 J0.
X52.1 I-3. J0.
X58.6 I3.25 J0.
X51.6 I-3.5 J0.
X59.1 I3.75 J0.
X51.1 I-4. J0.
X59.6 I4.25 J0.
X50.6 I-4.5 J0.
X60.1 I4.75 J0.
X50.1 I-5. J0.
X60.6 I5.25 J0.
X49.6 I-5.5 J0.
X61.1 I5.75 J0.
X49.1 I-6. J0.
X61.6 I6.25 J0.
X48.6 I-6.5 J0.
X62.1 I6.75 J0.
X48.1 I-7. J0.
X62.6 I7.25 J0.
X47.6 I-7.5 J0.
X63.1 I7.75 J0.
X47.1 I-8. J0.
X63.6 I8.25 J0.
X46.6 I-8.5 J0.
X64.1 I8.75 J0.
X46.1 I-9. J0.
X64.6 I9.25 J0.
X45.6 I-9.5 J0.
X65.1 I9.75 J0.
X45.1 I-10. J0.
X65.1 I10. J0.
X64.544 Y39.997 I-0.5 J0.
G1 X60.156 Y39.503
X60.1 Y39.5
X60.044 Y39.503
X55.656 Y39.997
G3 X55.1 Y39.5 I-0.056 J-0.497
G1 Z-18.
G3 X55.6 I0.25 J0.
X54.6 I-0.5 J0.
X56.1 I0.75 J0.
X54.1 I-1. J0.
X56.6 I1.25 J0.
X53.6 I-1.5 J0.
X57.1 I1.75 J0.
X53.1 I-2. J0.
X57.6 I2.25 J0.
X52.6 I-2.5 J0.
X58.1 I2.75 J0.
X52.1 I-3. J0.
X58.6 I3.25 J0.
X51.6 I-3.5 J0.
X59.1 I3.75 J0.
X51.1 I-4. J0.
X59.6 I4.25 J0.
X50.6 I-4.5 J0.
X60.1 I4.75 J0.
X50.1 I-5. J0.
X60.6 I5.25 J0.
X49.6 I-5.5 J0.
X61.1 I5.75 J0.
X49.1 I-6. J0.
X61.6 I6.25 J0.
X48.6 I-6.5 J0.
X62.1 I6.75 J0.
X48.1 I-7. J0.
X62.6 I7.25 J0.
X47.6 I-7.5 J0.
X63.1 I7.75 J0.
X47.1 I-8. J0.
X63.6 I8.25 J0.
X46.6 I-8.5 J0.
X64.1 I8.75 J0.
X46.1 I-9. J0.
X64.6 I9.25 J0.
X45.6 I-9.5 J0.
X65.1 I9.75 J0.
X45.1 I-10. J0.
X65.1 I10. J0.
X65.067 Y39.756 Z-17.966 I-1. J0.
G1 X65.029 Y39.87 Z-17.916
X64.978 Y39.979 Z-17.866
X64.923 Y40.068 Z-17.787
X64.86 Y40.15 Z-17.707
X64.806 Y40.208 Z-17.604
X64.748 Y40.262 Z-17.5
X64.669 Y40.323 Z-17.259
X64.64 Y40.341 Z-17.
G0 Z11.

M9
M30
