(1001)
(T4  D=7. CR=0. TAPER=118DEG - ZMIN=-22.103 - DRILL)
G90 G94 G91.1 G40 G49 G17
G21

(DRILL-7MM)
M5
T4 M6
S4160 M3
G54
G0 X127.4 Y12.002
G43 Z15. H4
Z5.
Z2.
G1 Z-1. F50.
G0 Z-0.86
G1 Z-2. F50.
G0 Z-1.86
G1 Z-3. F50.
G0 Z-2.86
G1 Z-4. F50.
G0 Z-3.86
G1 Z-5. F50.
G0 Z5.
Z-3.
G1 Z-6. F50.
G0 Z-5.86
G1 Z-7. F50.
G0 Z-6.86
G1 Z-8. F50.
G0 Z-7.86
G1 Z-9. F50.
G0 Z-8.86
G1 Z-10. F50.
G0 Z5.
Z-8.
G1 Z-11. F50.
G0 Z-10.86
G1 Z-12. F50.
G0 Z-11.86
G1 Z-13. F50.
G0 Z-12.86
G1 Z-14. F50.
G0 Z-13.86
G1 Z-15. F50.
G0 Z5.
Z-13.
G1 Z-16. F50.
G0 Z-15.86
G1 Z-17. F50.
G0 Z-16.86
G1 Z-18. F50.
G0 Z-17.86
G1 Z-19. F50.
G0 Z-18.86
G1 Z-20. F50.
G0 Z5.
Z-18.
G1 Z-21. F50.
G0 Z-20.86
G1 Z-22. F50.
G0 Z-21.86
G1 Z-22.103 F50.
G0 Z5.
Y35.335
Z2.
G1 Z-1. F50.
G0 Z-0.86
G1 Z-2. F50.
G0 Z-1.86
G1 Z-3. F50.
G0 Z-2.86
G1 Z-4. F50.
G0 Z-3.86
G1 Z-5. F50.
G0 Z5.
Z-3.
G1 Z-6. F50.
G0 Z-5.86
G1 Z-7. F50.
G0 Z-6.86
G1 Z-8. F50.
G0 Z-7.86
G1 Z-9. F50.
G0 Z-8.86
G1 Z-10. F50.
G0 Z5.
Z-8.
G1 Z-11. F50.
G0 Z-10.86
G1 Z-12. F50.
G0 Z-11.86
G1 Z-13. F50.
G0 Z-12.86
G1 Z-14. F50.
G0 Z-13.86
G1 Z-15. F50.
G0 Z5.
Z-13.
G1 Z-16. F50.
G0 Z-15.86
G1 Z-17. F50.
G0 Z-16.86
G1 Z-18. F50.
G0 Z-17.86
G1 Z-19. F50.
G0 Z-18.86
G1 Z-20. F50.
G0 Z5.
Z-18.
G1 Z-21. F50.
G0 Z-20.86
G1 Z-22. F50.
G0 Z-21.86
G1 Z-22.103 F50.
G0 Z5.
Y58.669
Z2.
G1 Z-1. F50.
G0 Z-0.86
G1 Z-2. F50.
G0 Z-1.86
G1 Z-3. F50.
G0 Z-2.86
G1 Z-4. F50.
G0 Z-3.86
G1 Z-5. F50.
G0 Z5.
Z-3.
G1 Z-6. F50.
G0 Z-5.86
G1 Z-7. F50.
G0 Z-6.86
G1 Z-8. F50.
G0 Z-7.86
G1 Z-9. F50.
G0 Z-8.86
G1 Z-10. F50.
G0 Z5.
Z-8.
G1 Z-11. F50.
G0 Z-10.86
G1 Z-12. F50.
G0 Z-11.86
G1 Z-13. F50.
G0 Z-12.86
G1 Z-14. F50.
G0 Z-13.86
G1 Z-15. F50.
G0 Z5.
Z-13.
G1 Z-16. F50.
G0 Z-15.86
G1 Z-17. F50.
G0 Z-16.86
G1 Z-18. F50.
G0 Z-17.86
G1 Z-19. F50.
G0 Z-18.86
G1 Z-20. F50.
G0 Z5.
Z-18.
G1 Z-21. F50.
G0 Z-20.86
G1 Z-22. F50.
G0 Z-21.86
G1 Z-22.103 F50.
G0 Z5.
X8.936 Y58.662
Z2.
G1 Z-1. F50.
G0 Z-0.86
G1 Z-2. F50.
G0 Z-1.86
G1 Z-3. F50.
G0 Z-2.86
G1 Z-4. F50.
G0 Z-3.86
G1 Z-5. F50.
G0 Z5.
Z-3.
G1 Z-6. F50.
G0 Z-5.86
G1 Z-7. F50.
G0 Z-6.86
G1 Z-8. F50.
G0 Z-7.86
G1 Z-9. F50.
G0 Z-8.86
G1 Z-10. F50.
G0 Z5.
Z-8.
G1 Z-11. F50.
G0 Z-10.86
G1 Z-12. F50.
G0 Z-11.86
G1 Z-13. F50.
G0 Z-12.86
G1 Z-14. F50.
G0 Z-13.86
G1 Z-15. F50.
G0 Z5.
Z-13.
G1 Z-16. F50.
G0 Z-15.86
G1 Z-17. F50.
G0 Z-16.86
G1 Z-18. F50.
G0 Z-17.86
G1 Z-19. F50.
G0 Z-18.86
G1 Z-20. F50.
G0 Z5.
Z-18.
G1 Z-21. F50.
G0 Z-20.86
G1 Z-22. F50.
G0 Z-21.86
G1 Z-22.103 F50.
G0 Z5.
Y35.329
Z2.
G1 Z-1. F50.
G0 Z-0.86
G1 Z-2. F50.
G0 Z-1.86
G1 Z-3. F50.
G0 Z-2.86
G1 Z-4. F50.
G0 Z-3.86
G1 Z-5. F50.
G0 Z5.
Z-3.
G1 Z-6. F50.
G0 Z-5.86
G1 Z-7. F50.
G0 Z-6.86
G1 Z-8. F50.
G0 Z-7.86
G1 Z-9. F50.
G0 Z-8.86
G1 Z-10. F50.
G0 Z5.
Z-8.
G1 Z-11. F50.
G0 Z-10.86
G1 Z-12. F50.
G0 Z-11.86
G1 Z-13. F50.
G0 Z-12.86
G1 Z-14. F50.
G0 Z-13.86
G1 Z-15. F50.
G0 Z5.
Z-13.
G1 Z-16. F50.
G0 Z-15.86
G1 Z-17. F50.
G0 Z-16.86
G1 Z-18. F50.
G0 Z-17.86
G1 Z-19. F50.
G0 Z-18.86
G1 Z-20. F50.
G0 Z5.
Z-18.
G1 Z-21. F50.
G0 Z-20.86
G1 Z-22. F50.
G0 Z-21.86
G1 Z-22.103 F50.
G0 Z5.
X8.919 Y11.996
Z2.
G1 Z-1. F50.
G0 Z-0.86
G1 Z-2. F50.
G0 Z-1.86
G1 Z-3. F50.
G0 Z-2.86
G1 Z-4. F50.
G0 Z-3.86
G1 Z-5. F50.
G0 Z5.
Z-3.
G1 Z-6. F50.
G0 Z-5.86
G1 Z-7. F50.
G0 Z-6.86
G1 Z-8. F50.
G0 Z-7.86
G1 Z-9. F50.
G0 Z-8.86
G1 Z-10. F50.
G0 Z5.
Z-8.
G1 Z-11. F50.
G0 Z-10.86
G1 Z-12. F50.
G0 Z-11.86
G1 Z-13. F50.
G0 Z-12.86
G1 Z-14. F50.
G0 Z-13.86
G1 Z-15. F50.
G0 Z5.
Z-13.
G1 Z-16. F50.
G0 Z-15.86
G1 Z-17. F50.
G0 Z-16.86
G1 Z-18. F50.
G0 Z-17.86
G1 Z-19. F50.
G0 Z-18.86
G1 Z-20. F50.
G0 Z5.
Z-18.
G1 Z-21. F50.
G0 Z-20.86
G1 Z-22. F50.
G0 Z-21.86
G1 Z-22.103 F50.
G0 Z5.
Z15.

M30
