(1001)
(T1  D=10. CR=0. - ZMIN=-22. - FLAT END MILL)
G90 G94 G91.1 G40 G49 G17
G21

(POCKET - MAIN ROUGHING 2)
M5
T1 M6
S9700 M3
G54
M8
G0 X68.228 Y75.928
G43 Z10. H1
Z5.
G1 Z3. F2328.
Z-1.
Y75.92 Z-1.121
Y75.898 Z-1.239
Y75.863 Z-1.355
Y75.813 Z-1.465
Y75.75 Z-1.568
Y75.676 Z-1.663
Y75.591 Z-1.749
Y75.496 Z-1.823
Y75.392 Z-1.885
Y75.282 Z-1.935
Y75.167 Z-1.971
Y75.048 Z-1.993
Y74.928 Z-2.
X68.233 Y62.5
G2 X66.277 Y49.777 I-42.375 J0.
G3 X67.505 Y48.713 I1.075 J0.
G2 X68.537 Y47.459 I0.135 J-0.941
X66.987 Y43.599 I-43.055 J15.041
G3 X67.132 Y43.152 I0.317 J-0.144
G2 X68.925 Y42.078 I-22.532 J-39.652
G3 X69.193 Y42.226 I0.093 J0.148
G1 Y48.788
X69.187 Y48.825
X69.168 Y48.857
X69.139 Y48.88
X69.104 Y48.892
X69.067 Y48.891
X69.033 Y48.877
X69.005 Y48.852
X68.988 Y48.82
G2 X68.537 Y47.459 I-43.507 J13.68
G3 X69.481 Y47.129 I0.472 J-0.165
X69.509 Y47.299 I-0.472 J0.165
G1 X69.228 Y74.894
G3 X68.228 Y74.888 I-0.5 J-0.005
G1 X68.233 Y62.5
G2 X63.124 Y42.329 I-42.375 J0.
G3 X63.258 Y41.914 I0.267 J-0.143
G2 X71.832 Y36.397 I-18.658 J-38.414
G3 X72.094 Y36.521 I0.102 J0.123
G1 Y74.89
G3 X71.595 Y75.39 I-0.5 J0.
G1 X65.829 Y75.397
G3 X65.328 Y74.897 I-0.001 J-0.5
G1 X65.333 Y62.5
G2 X58.952 Y40.954 I-39.57 J0.
G3 X59.073 Y40.582 I0.212 J-0.137
G2 X74.747 Y29.494 I-14.473 J-37.082
G3 X74.994 Y29.586 I0.106 J0.092
G1 Y74.889
G3 X74.494 Y75.389 I-0.5 J0.
G1 X62.928 Y75.396
G3 X62.427 Y74.896 I0. J-0.5
G1 X62.432 Y62.5
G2 X54.666 Y39.837 I-36.95 J0.
G3 X54.946 Y38.972 I0.434 J-0.337
G2 X77.675 Y19.873 I-10.308 J-35.341
G1 X77.698 Y19.842
X77.729 Y19.82
X77.766 Y19.81
X77.805 Y19.812
X77.84 Y19.827
X77.869 Y19.853
X77.888 Y19.887
X77.894 Y19.925
Y74.898
G3 X77.394 Y75.398 I-0.5 J0.
G1 X60.027 Y75.399
G3 X59.527 Y74.899 I0. J-0.5
G1 X59.532 Y62.5
G2 X52.375 Y41.616 I-34.05 J0.
G3 X54.134 Y36.188 I2.725 J-2.116
G2 X77.6 Y-4.889 I-9.534 J-32.688
G3 X78.085 Y-5.513 I0.485 J-0.123
G1 X81.315 Y-5.514
G3 X81.8 Y-4.891 I0. J0.5
G2 X80.75 Y3.5 I33. J8.391
G1 X80.767 Y74.89
G3 X80.267 Y75.39 I-0.5 J0.
G1 X57.128 Y75.392
G3 X56.628 Y74.892 I0. J-0.5
G1 X56.632 Y62.5
G2 X50.085 Y43.395 I-31.15 J0.
G3 X53.322 Y33.404 I5.015 J-3.895
G2 X74.599 Y-4.888 I-8.722 J-29.904
G3 X75.081 Y-5.523 I0.482 J-0.135
G1 X84.319
G3 X84.801 Y-4.889 I0. J0.5
G2 X83.65 Y3.5 I29.999 J8.389
G1 X83.666 Y74.89
G3 X83.167 Y75.39 I-0.5 J0.
G1 X54.228 Y75.4
G3 X53.728 Y74.9 I0. J-0.5
G1 X53.732 Y62.5
G2 X47.794 Y45.173 I-28.25 J0.
G3 X52.51 Y30.62 I7.306 J-5.673
G2 X71.573 Y-4.897 I-7.91 J-27.12
G3 X72.051 Y-5.545 I0.477 J-0.149
G1 X87.349 Y-5.544
G3 X87.826 Y-4.896 I0. J0.5
G2 X86.55 Y3.5 I26.974 J8.396
G1 X86.566 Y74.89
G3 X86.066 Y75.39 I-0.5 J0.
G1 X51.328 Y75.393
G3 X50.828 Y74.893 I0. J-0.5
G1 X50.832 Y62.5
G2 X45.504 Y46.952 I-25.35 J0.
G3 X51.698 Y27.836 I9.596 J-7.452
G2 X68.519 Y-4.896 I-7.098 J-24.336
G3 X68.991 Y-5.562 I0.472 J-0.166
G1 X90.408 Y-5.559
G3 X90.88 Y-4.894 I0. J0.5
G2 X89.45 Y3.5 I23.92 J8.394
G1 X89.466 Y74.89
G3 X88.966 Y75.39 I-0.5 J0.
G1 X48.428 Y75.386
G3 X47.928 Y74.885 I0. J-0.5
G1 X47.932 Y62.5
G2 X43.213 Y48.731 I-22.45 J0.
G3 X50.886 Y25.052 I11.887 J-9.231
G2 X65.421 Y-4.896 I-6.286 J-21.552
G3 X65.885 Y-5.583 I0.464 J-0.187
G1 X93.514 Y-5.58
G3 X93.978 Y-4.893 I0. J0.5
G2 X92.35 Y3.5 I20.822 J8.393
G1 X92.366 Y74.89
G3 X91.866 Y75.39 I-0.5 J0.
G1 X45.528 Y75.394
G3 X45.028 Y74.894 I0. J-0.5
G1 X45.032 Y62.5
G2 X40.923 Y50.509 I-19.55 J0.
G3 X50.074 Y22.268 I14.177 J-11.009
G2 X62.259 Y-4.887 I-5.474 J-18.768
G3 X62.711 Y-5.602 I0.452 J-0.215
G1 X96.694 Y-5.612
G3 X97.145 Y-4.897 I0. J0.5
G2 X95.25 Y3.5 I17.655 J8.397
G1 X95.266 Y74.89
G3 X94.765 Y75.39 I-0.5 J0.
G1 X42.628 Y75.387
G3 X42.128 Y74.887 I0. J-0.5
G1 X42.132 Y62.5
G2 X38.632 Y52.288 I-16.65 J0.
G3 X49.262 Y19.484 I16.468 J-12.788
G2 X58.981 Y-4.891 I-4.662 J-15.984
G3 X59.413 Y-5.643 I0.432 J-0.252
G1 X99.992 Y-5.651
G3 X100.424 Y-4.899 I0. J0.5
G2 X98.15 Y3.5 I14.376 J8.399
G1 X98.165 Y74.89
G3 X97.665 Y75.39 I-0.5 J0.
G1 X39.728 Y75.395
G3 X39.228 Y74.895 I0. J-0.5
G1 X39.232 Y62.5
G2 X36.342 Y54.067 I-13.75 J0.
G3 X48.45 Y16.7 I18.758 J-14.567
G2 X55.491 Y-4.894 I-3.85 J-13.2
G3 X55.887 Y-5.699 I0.396 J-0.305
G1 X103.509 Y-5.693
G3 X103.905 Y-4.888 I0. J0.5
G2 X101.05 Y3.5 I10.895 J8.388
G1 X101.065 Y74.89
G3 X100.565 Y75.39 I-0.5 J0.
G1 X36.828 Y75.388
G3 X36.328 Y74.888 I0. J-0.5
G1 X36.332 Y62.5
G2 X34.051 Y55.845 I-10.85 J0.
G3 X47.638 Y13.916 I21.049 J-16.345
G2 X51.469 Y-4.899 I-3.038 J-10.416
G3 X51.786 Y-5.786 I0.317 J-0.387
G1 X107.607 Y-5.78
G3 X107.924 Y-4.893 I0. J0.5
G2 X103.95 Y3.5 I6.876 J8.393
G1 X103.965 Y74.89
G3 X103.465 Y75.39 I-0.5 J0.
G1 X33.928 Y75.396
G3 X33.428 Y74.896 I0. J-0.5
G1 X33.432 Y62.5
G2 X31.761 Y57.624 I-7.95 J0.
G3 X46.826 Y11.132 I23.339 J-18.124
G2 X44.6 Y-4.45 I-2.226 J-7.632
G1 X-1.993 Y-4.439
G3 X-2.494 Y-4.939 I0. J-0.5
X-1.994 Y-5.439 I0.5 J0.
G1 X141.989 Y-5.443
G3 X142.489 Y-4.943 I0. J0.5
X141.989 Y-4.443 I-0.5 J0.
G1 X114.8 Y-4.45
G2 X106.85 Y3.5 I0. J7.95
G1 X106.865 Y74.89
G3 X106.365 Y75.39 I-0.5 J0.
G1 X30.982 Y75.387
G3 X30.482 Y74.887 I0. J-0.5
G1 Y62.5
G2 X29.431 Y59.433 I-5. J0.
G3 X46. Y8.3 I25.669 J-19.933
G2 X44.6 Y-1.5 I-1.4 J-4.8
G1 X0.
X-4.586
G3 Y-2.5 I0. J-0.5
G1 X144.591
G3 Y-1.5 I0. J0.5
G1 X114.8
G2 X109.8 Y3.5 I0. J5.
G1 Y70.
Y74.897
G3 X109.325 Y75.397 I-0.5 J0.
G1 X68.752 Y77.427
G3 X68.227 Y76.928 I-0.025 J-0.499
G1 Y76.807 Z-2.007
Y76.688 Z-2.029
X68.228 Y76.573 Z-2.065
Y76.463 Z-2.115
Y76.359 Z-2.177
Y76.264 Z-2.251
Y76.179 Z-2.337
Y76.105 Z-2.432
Y76.042 Z-2.535
Y75.992 Z-2.645
Y75.957 Z-2.761
Y75.935 Z-2.879
Y75.928 Z-3.
Y75.92 Z-3.121
Y75.898 Z-3.239
Y75.863 Z-3.355
Y75.813 Z-3.465
Y75.75 Z-3.568
Y75.676 Z-3.663
Y75.591 Z-3.749
Y75.496 Z-3.823
Y75.392 Z-3.885
Y75.282 Z-3.935
Y75.167 Z-3.971
Y75.048 Z-3.993
Y74.928 Z-4.
X68.233 Y62.5
G2 X66.277 Y49.777 I-42.375 J0.
G3 X67.505 Y48.713 I1.075 J0.
G2 X68.537 Y47.459 I0.135 J-0.941
X66.987 Y43.599 I-43.055 J15.041
G3 X67.132 Y43.152 I0.317 J-0.144
G2 X68.925 Y42.078 I-22.532 J-39.652
G3 X69.193 Y42.226 I0.093 J0.148
G1 Y48.788
X69.187 Y48.825
X69.168 Y48.857
X69.139 Y48.88
X69.104 Y48.892
X69.067 Y48.891
X69.033 Y48.877
X69.005 Y48.852
X68.988 Y48.82
G2 X68.537 Y47.459 I-43.507 J13.68
G3 X69.481 Y47.129 I0.472 J-0.165
X69.509 Y47.299 I-0.472 J0.165
G1 X69.228 Y74.894
G3 X68.228 Y74.888 I-0.5 J-0.005
G1 X68.233 Y62.5
G2 X63.124 Y42.329 I-42.375 J0.
G3 X63.258 Y41.914 I0.267 J-0.143
G2 X71.832 Y36.397 I-18.658 J-38.414
G3 X72.094 Y36.521 I0.102 J0.123
G1 Y74.89
G3 X71.595 Y75.39 I-0.5 J0.
G1 X65.829 Y75.397
G3 X65.328 Y74.897 I-0.001 J-0.5
G1 X65.333 Y62.5
G2 X58.952 Y40.954 I-39.57 J0.
G3 X59.073 Y40.582 I0.212 J-0.137
G2 X74.747 Y29.494 I-14.473 J-37.082
G3 X74.994 Y29.586 I0.106 J0.092
G1 Y74.889
G3 X74.494 Y75.389 I-0.5 J0.
G1 X62.928 Y75.396
G3 X62.427 Y74.896 I0. J-0.5
G1 X62.432 Y62.5
G2 X54.666 Y39.837 I-36.95 J0.
G3 X54.946 Y38.972 I0.434 J-0.337
G2 X77.675 Y19.873 I-10.308 J-35.341
G1 X77.698 Y19.842
X77.729 Y19.82
X77.766 Y19.81
X77.805 Y19.812
X77.84 Y19.827
X77.869 Y19.853
X77.888 Y19.887
X77.894 Y19.925
Y74.898
G3 X77.394 Y75.398 I-0.5 J0.
G1 X60.027 Y75.399
G3 X59.527 Y74.899 I0. J-0.5
G1 X59.532 Y62.5
G2 X52.375 Y41.616 I-34.05 J0.
G3 X54.134 Y36.188 I2.725 J-2.116
G2 X77.6 Y-4.889 I-9.534 J-32.688
G3 X78.085 Y-5.513 I0.485 J-0.123
G1 X81.315 Y-5.514
G3 X81.8 Y-4.891 I0. J0.5
G2 X80.75 Y3.5 I33. J8.391
G1 X80.767 Y74.89
G3 X80.267 Y75.39 I-0.5 J0.
G1 X57.128 Y75.392
G3 X56.628 Y74.892 I0. J-0.5
G1 X56.632 Y62.5
G2 X50.085 Y43.395 I-31.15 J0.
G3 X53.322 Y33.404 I5.015 J-3.895
G2 X74.599 Y-4.888 I-8.722 J-29.904
G3 X75.081 Y-5.523 I0.482 J-0.135
G1 X84.319
G3 X84.801 Y-4.889 I0. J0.5
G2 X83.65 Y3.5 I29.999 J8.389
G1 X83.666 Y74.89
G3 X83.167 Y75.39 I-0.5 J0.
G1 X54.228 Y75.4
G3 X53.728 Y74.9 I0. J-0.5
G1 X53.732 Y62.5
G2 X47.794 Y45.173 I-28.25 J0.
G3 X52.51 Y30.62 I7.306 J-5.673
G2 X71.573 Y-4.897 I-7.91 J-27.12
G3 X72.051 Y-5.545 I0.477 J-0.149
G1 X87.349 Y-5.544
G3 X87.826 Y-4.896 I0. J0.5
G2 X86.55 Y3.5 I26.974 J8.396
G1 X86.566 Y74.89
G3 X86.066 Y75.39 I-0.5 J0.
G1 X51.328 Y75.393
G3 X50.828 Y74.893 I0. J-0.5
G1 X50.832 Y62.5
G2 X45.504 Y46.952 I-25.35 J0.
G3 X51.698 Y27.836 I9.596 J-7.452
G2 X68.519 Y-4.896 I-7.098 J-24.336
G3 X68.991 Y-5.562 I0.472 J-0.166
G1 X90.408 Y-5.559
G3 X90.88 Y-4.894 I0. J0.5
G2 X89.45 Y3.5 I23.92 J8.394
G1 X89.466 Y74.89
G3 X88.966 Y75.39 I-0.5 J0.
G1 X48.428 Y75.386
G3 X47.928 Y74.885 I0. J-0.5
G1 X47.932 Y62.5
G2 X43.213 Y48.731 I-22.45 J0.
G3 X50.886 Y25.052 I11.887 J-9.231
G2 X65.421 Y-4.896 I-6.286 J-21.552
G3 X65.885 Y-5.583 I0.464 J-0.187
G1 X93.514 Y-5.58
G3 X93.978 Y-4.893 I0. J0.5
G2 X92.35 Y3.5 I20.822 J8.393
G1 X92.366 Y74.89
G3 X91.866 Y75.39 I-0.5 J0.
G1 X45.528 Y75.394
G3 X45.028 Y74.894 I0. J-0.5
G1 X45.032 Y62.5
G2 X40.923 Y50.509 I-19.55 J0.
G3 X50.074 Y22.268 I14.177 J-11.009
G2 X62.259 Y-4.887 I-5.474 J-18.768
G3 X62.711 Y-5.602 I0.452 J-0.215
G1 X96.694 Y-5.612
G3 X97.145 Y-4.897 I0. J0.5
G2 X95.25 Y3.5 I17.655 J8.397
G1 X95.266 Y74.89
G3 X94.765 Y75.39 I-0.5 J0.
G1 X42.628 Y75.387
G3 X42.128 Y74.887 I0. J-0.5
G1 X42.132 Y62.5
G2 X38.632 Y52.288 I-16.65 J0.
G3 X49.262 Y19.484 I16.468 J-12.788
G2 X58.981 Y-4.891 I-4.662 J-15.984
G3 X59.413 Y-5.643 I0.432 J-0.252
G1 X99.992 Y-5.651
G3 X100.424 Y-4.899 I0. J0.5
G2 X98.15 Y3.5 I14.376 J8.399
G1 X98.165 Y74.89
G3 X97.665 Y75.39 I-0.5 J0.
G1 X39.728 Y75.395
G3 X39.228 Y74.895 I0. J-0.5
G1 X39.232 Y62.5
G2 X36.342 Y54.067 I-13.75 J0.
G3 X48.45 Y16.7 I18.758 J-14.567
G2 X55.491 Y-4.894 I-3.85 J-13.2
G3 X55.887 Y-5.699 I0.396 J-0.305
G1 X103.509 Y-5.693
G3 X103.905 Y-4.888 I0. J0.5
G2 X101.05 Y3.5 I10.895 J8.388
G1 X101.065 Y74.89
G3 X100.565 Y75.39 I-0.5 J0.
G1 X36.828 Y75.388
G3 X36.328 Y74.888 I0. J-0.5
G1 X36.332 Y62.5
G2 X34.051 Y55.845 I-10.85 J0.
G3 X47.638 Y13.916 I21.049 J-16.345
G2 X51.469 Y-4.899 I-3.038 J-10.416
G3 X51.786 Y-5.786 I0.317 J-0.387
G1 X107.607 Y-5.78
G3 X107.924 Y-4.893 I0. J0.5
G2 X103.95 Y3.5 I6.876 J8.393
G1 X103.965 Y74.89
G3 X103.465 Y75.39 I-0.5 J0.
G1 X33.928 Y75.396
G3 X33.428 Y74.896 I0. J-0.5
G1 X33.432 Y62.5
G2 X31.761 Y57.624 I-7.95 J0.
G3 X46.826 Y11.132 I23.339 J-18.124
G2 X44.6 Y-4.45 I-2.226 J-7.632
G1 X-1.993 Y-4.439
G3 X-2.494 Y-4.939 I0. J-0.5
X-1.994 Y-5.439 I0.5 J0.
G1 X141.989 Y-5.443
G3 X142.489 Y-4.943 I0. J0.5
X141.989 Y-4.443 I-0.5 J0.
G1 X114.8 Y-4.45
G2 X106.85 Y3.5 I0. J7.95
G1 X106.865 Y74.89
G3 X106.365 Y75.39 I-0.5 J0.
G1 X30.982 Y75.387
G3 X30.482 Y74.887 I0. J-0.5
G1 Y62.5
G2 X29.431 Y59.433 I-5. J0.
G3 X46. Y8.3 I25.669 J-19.933
G2 X44.6 Y-1.5 I-1.4 J-4.8
G1 X0.
X-4.586
G3 Y-2.5 I0. J-0.5
G1 X144.591
G3 Y-1.5 I0. J0.5
G1 X114.8
G2 X109.8 Y3.5 I0. J5.
G1 Y70.
Y74.897
G3 X109.322 Y75.397 I-0.5 J0.
G1 X68.749 Y77.159
G3 X68.227 Y76.66 I-0.022 J-0.5
G1 X68.228 Y76.543 Z-4.007
Y76.429 Z-4.027
Y76.318 Z-4.06
Y76.211 Z-4.106
Y76.11 Z-4.165
Y76.017 Z-4.234
Y75.932 Z-4.314
Y75.857 Z-4.403
Y75.794 Z-4.5
Y75.73 Z-4.597
Y75.655 Z-4.686
Y75.57 Z-4.766
Y75.477 Z-4.835
Y75.376 Z-4.894
Y75.27 Z-4.94
Y75.158 Z-4.973
Y75.044 Z-4.993
Y74.928 Z-5.
X68.233 Y62.5
G2 X66.277 Y49.777 I-42.375 J0.
G3 X67.505 Y48.713 I1.075 J0.
G2 X68.537 Y47.459 I0.135 J-0.941
X66.987 Y43.599 I-43.055 J15.041
G3 X67.132 Y43.152 I0.317 J-0.144
G2 X68.925 Y42.078 I-22.532 J-39.652
G3 X69.193 Y42.226 I0.093 J0.148
G1 Y48.788
X69.187 Y48.825
X69.168 Y48.857
X69.139 Y48.88
X69.104 Y48.892
X69.067 Y48.891
X69.033 Y48.877
X69.005 Y48.852
X68.988 Y48.82
G2 X68.537 Y47.459 I-43.507 J13.68
G3 X69.481 Y47.129 I0.472 J-0.165
X69.509 Y47.299 I-0.472 J0.165
G1 X69.228 Y74.894
G3 X68.228 Y74.888 I-0.5 J-0.005
G1 X68.233 Y62.5
G2 X63.124 Y42.329 I-42.375 J0.
G3 X63.258 Y41.914 I0.267 J-0.143
G2 X71.832 Y36.397 I-18.658 J-38.414
G3 X72.094 Y36.521 I0.102 J0.123
G1 Y74.89
G3 X71.595 Y75.39 I-0.5 J0.
G1 X65.829 Y75.397
G3 X65.328 Y74.897 I-0.001 J-0.5
G1 X65.333 Y62.5
G2 X58.952 Y40.954 I-39.57 J0.
G3 X59.073 Y40.582 I0.212 J-0.137
G2 X74.747 Y29.494 I-14.473 J-37.082
G3 X74.994 Y29.586 I0.106 J0.092
G1 Y74.889
G3 X74.494 Y75.389 I-0.5 J0.
G1 X62.928 Y75.396
G3 X62.427 Y74.896 I0. J-0.5
G1 X62.432 Y62.5
G2 X54.666 Y39.837 I-36.95 J0.
G3 X54.946 Y38.972 I0.434 J-0.337
G2 X77.675 Y19.873 I-10.308 J-35.341
G1 X77.698 Y19.842
X77.729 Y19.82
X77.766 Y19.81
X77.805 Y19.812
X77.84 Y19.827
X77.869 Y19.853
X77.888 Y19.887
X77.894 Y19.925
Y74.898
G3 X77.394 Y75.398 I-0.5 J0.
G1 X60.027 Y75.399
G3 X59.527 Y74.899 I0. J-0.5
G1 X59.532 Y62.5
G2 X52.375 Y41.616 I-34.05 J0.
G3 X54.134 Y36.188 I2.725 J-2.116
G2 X77.6 Y-4.889 I-9.534 J-32.688
G3 X78.085 Y-5.513 I0.485 J-0.123
G1 X81.315 Y-5.514
G3 X81.8 Y-4.891 I0. J0.5
G2 X80.75 Y3.5 I33. J8.391
G1 X80.767 Y74.89
G3 X80.267 Y75.39 I-0.5 J0.
G1 X57.128 Y75.392
G3 X56.628 Y74.892 I0. J-0.5
G1 X56.632 Y62.5
G2 X50.085 Y43.395 I-31.15 J0.
G3 X53.322 Y33.404 I5.015 J-3.895
G2 X74.599 Y-4.888 I-8.722 J-29.904
G3 X75.081 Y-5.523 I0.482 J-0.135
G1 X84.319
G3 X84.801 Y-4.889 I0. J0.5
G2 X83.65 Y3.5 I29.999 J8.389
G1 X83.666 Y74.89
G3 X83.167 Y75.39 I-0.5 J0.
G1 X54.228 Y75.4
G3 X53.728 Y74.9 I0. J-0.5
G1 X53.732 Y62.5
G2 X47.794 Y45.173 I-28.25 J0.
G3 X52.51 Y30.62 I7.306 J-5.673
G2 X71.573 Y-4.897 I-7.91 J-27.12
G3 X72.051 Y-5.545 I0.477 J-0.149
G1 X87.349 Y-5.544
G3 X87.826 Y-4.896 I0. J0.5
G2 X86.55 Y3.5 I26.974 J8.396
G1 X86.566 Y74.89
G3 X86.066 Y75.39 I-0.5 J0.
G1 X51.328 Y75.393
G3 X50.828 Y74.893 I0. J-0.5
G1 X50.832 Y62.5
G2 X45.504 Y46.952 I-25.35 J0.
G3 X51.698 Y27.836 I9.596 J-7.452
G2 X68.519 Y-4.896 I-7.098 J-24.336
G3 X68.991 Y-5.562 I0.472 J-0.166
G1 X90.408 Y-5.559
G3 X90.88 Y-4.894 I0. J0.5
G2 X89.45 Y3.5 I23.92 J8.394
G1 X89.466 Y74.89
G3 X88.966 Y75.39 I-0.5 J0.
G1 X48.428 Y75.386
G3 X47.928 Y74.885 I0. J-0.5
G1 X47.932 Y62.5
G2 X43.213 Y48.731 I-22.45 J0.
G3 X50.886 Y25.052 I11.887 J-9.231
G2 X65.421 Y-4.896 I-6.286 J-21.552
G3 X65.885 Y-5.583 I0.464 J-0.187
G1 X93.514 Y-5.58
G3 X93.978 Y-4.893 I0. J0.5
G2 X92.35 Y3.5 I20.822 J8.393
G1 X92.366 Y74.89
G3 X91.866 Y75.39 I-0.5 J0.
G1 X45.528 Y75.394
G3 X45.028 Y74.894 I0. J-0.5
G1 X45.032 Y62.5
G2 X40.923 Y50.509 I-19.55 J0.
G3 X50.074 Y22.268 I14.177 J-11.009
G2 X62.259 Y-4.887 I-5.474 J-18.768
G3 X62.711 Y-5.602 I0.452 J-0.215
G1 X96.694 Y-5.612
G3 X97.145 Y-4.897 I0. J0.5
G2 X95.25 Y3.5 I17.655 J8.397
G1 X95.266 Y74.89
G3 X94.765 Y75.39 I-0.5 J0.
G1 X42.628 Y75.387
G3 X42.128 Y74.887 I0. J-0.5
G1 X42.132 Y62.5
G2 X38.632 Y52.288 I-16.65 J0.
G3 X49.262 Y19.484 I16.468 J-12.788
G2 X58.981 Y-4.891 I-4.662 J-15.984
G3 X59.413 Y-5.643 I0.432 J-0.252
G1 X99.992 Y-5.651
G3 X100.424 Y-4.899 I0. J0.5
G2 X98.15 Y3.5 I14.376 J8.399
G1 X98.165 Y74.89
G3 X97.665 Y75.39 I-0.5 J0.
G1 X39.728 Y75.395
G3 X39.228 Y74.895 I0. J-0.5
G1 X39.232 Y62.5
G2 X36.342 Y54.067 I-13.75 J0.
G3 X48.45 Y16.7 I18.758 J-14.567
G2 X55.491 Y-4.894 I-3.85 J-13.2
G3 X55.887 Y-5.699 I0.396 J-0.305
G1 X103.509 Y-5.693
G3 X103.905 Y-4.888 I0. J0.5
G2 X101.05 Y3.5 I10.895 J8.388
G1 X101.065 Y74.89
G3 X100.565 Y75.39 I-0.5 J0.
G1 X36.828 Y75.388
G3 X36.328 Y74.888 I0. J-0.5
G1 X36.332 Y62.5
G2 X34.051 Y55.845 I-10.85 J0.
G3 X47.638 Y13.916 I21.049 J-16.345
G2 X51.469 Y-4.899 I-3.038 J-10.416
G3 X51.786 Y-5.786 I0.317 J-0.387
G1 X107.607 Y-5.78
G3 X107.924 Y-4.893 I0. J0.5
G2 X103.95 Y3.5 I6.876 J8.393
G1 X103.965 Y74.89
G3 X103.465 Y75.39 I-0.5 J0.
G1 X33.928 Y75.396
G3 X33.428 Y74.896 I0. J-0.5
G1 X33.432 Y62.5
G2 X31.761 Y57.624 I-7.95 J0.
G3 X46.826 Y11.132 I23.339 J-18.124
G2 X44.6 Y-4.45 I-2.226 J-7.632
G1 X-1.993 Y-4.439
G3 X-2.494 Y-4.939 I0. J-0.5
X-1.994 Y-5.439 I0.5 J0.
G1 X141.989 Y-5.443
G3 X142.489 Y-4.943 I0. J0.5
X141.989 Y-4.443 I-0.5 J0.
G1 X114.8 Y-4.45
G2 X106.85 Y3.5 I0. J7.95
G1 X106.865 Y74.89
G3 X106.365 Y75.39 I-0.5 J0.
G1 X30.982 Y75.387
G3 X30.482 Y74.887 I0. J-0.5
G1 Y62.5
G2 X29.431 Y59.433 I-5. J0.
G3 X46. Y8.3 I25.669 J-19.933
G2 X44.6 Y-1.5 I-1.4 J-4.8
G1 X0.
X-4.586
G3 Y-2.5 I0. J-0.5
G1 X144.591
G3 Y-1.5 I0. J0.5
G1 X114.8
G2 X109.8 Y3.5 I0. J5.
G1 Y70.
Y74.897
X109.797 Y74.976
X109.788 Y75.054
X109.494 Y76.906
X109.476 Y77.025 Z-4.993
X109.457 Y77.142 Z-4.971
X109.439 Y77.256 Z-4.935
X109.422 Y77.365 Z-4.885
X109.406 Y77.467 Z-4.823
X109.391 Y77.561 Z-4.749
X109.377 Y77.645 Z-4.663
X109.366 Y77.718 Z-4.568
X109.356 Y77.78 Z-4.465
X109.348 Y77.829 Z-4.355
X109.342 Y77.865 Z-4.239
X109.339 Y77.886 Z-4.121
X109.338 Y77.893 Z-4.
G0 Z10.

(POCKET-MAIN-CLEANUP 2)
G0 X67.528 Y75.928
Z10.
Z5.
G1 Z1. F2328.
Z-4.
Y75.921 Z-4.121
Y75.899 Z-4.239
Y75.863 Z-4.355
Y75.813 Z-4.465
Y75.751 Z-4.568
Y75.676 Z-4.663
Y75.591 Z-4.749
Y75.496 Z-4.823
Y75.393 Z-4.885
Y75.283 Z-4.935
Y75.167 Z-4.971
Y75.048 Z-4.993
Y74.928 Z-5.
Y74.889
X67.533 Y62.5
G2 X65.974 Y51.207 I-41.7 J0.
G3 X67.442 Y50.005 I1.226 J0.
G2 X68.706 Y48.591 I0.217 J-1.078
X66.728 Y43.513 I-43.224 J13.909
G3 X66.872 Y43.069 I0.313 J-0.144
G2 X69.126 Y41.714 I-22.272 J-39.569
G3 X69.393 Y41.86 I0.094 J0.146
G1 Y50.173
X69.387 Y50.21
X69.368 Y50.241
X69.339 Y50.264
X69.304 Y50.275
X69.268 Y50.274
X69.234 Y50.26
X69.207 Y50.234
X69.191 Y50.201
G2 X68.706 Y48.591 I-43.71 J12.299
X67.73 Y48.759 I-0.476 J0.153
G1 X68.528 Y74.874
G3 X68.036 Y75.389 I-0.5 J0.015
X67.528 Y74.889 I-0.008 J-0.5
G1 X67.533 Y62.5
G2 X62.15 Y42.008 I-41.7 J0.
G3 X62.281 Y41.603 I0.253 J-0.142
G2 X72.535 Y34.871 I-17.681 J-38.103
G3 X72.794 Y34.987 I0.103 J0.116
G1 Y74.896
G2 X73.296 Y75.396 I0.5 J0.
G1 X75.696 Y75.385
G2 X76.194 Y74.885 I-0.002 J-0.5
G1 Y26.1
G2 X75.955 Y26.023 I-0.132 J0.
G3 X57.21 Y39.989 I-31.355 J-22.523
G2 X57.095 Y40.342 I0.076 J0.22
G3 X64.133 Y62.5 I-31.367 J22.158
G1 X64.128 Y74.9
G3 X63.625 Y75.399 I-0.5 J0.
G1 X61.225 Y75.386
G3 X60.727 Y74.886 I0.003 J-0.5
G1 X60.732 Y62.5
G2 X53.323 Y40.88 I-35.25 J0.
G3 X54.47 Y37.34 I1.777 J-1.38
G2 X79.404 Y8.806 I-9.849 J-33.767
G1 X79.416 Y8.773
X79.439 Y8.746
X79.47 Y8.729
X79.506 Y8.725
X79.54 Y8.734
X79.569 Y8.756
X79.587 Y8.786
X79.594 Y8.821
Y74.894
Y74.933
G19 G3 Y75.933 Z-4. J0. K1.
G0 Z5.
X80.864 Y-5.965
G1 Z-4. F2328.
X80.862 Y-5.958 Z-4.121
X80.857 Y-5.937 Z-4.239
X80.849 Y-5.902 Z-4.355
X80.837 Y-5.854 Z-4.465
X80.822 Y-5.793 Z-4.568
X80.804 Y-5.721 Z-4.663
X80.784 Y-5.638 Z-4.749
X80.762 Y-5.546 Z-4.823
X80.737 Y-5.445 Z-4.885
X80.711 Y-5.338 Z-4.935
X80.684 Y-5.226 Z-4.971
X80.656 Y-5.111 Z-4.993
X80.627 Y-4.994 Z-5.
X80.602 Y-4.889
G17 G2 X79.799 Y-0.29 I34.198 J8.34
G1 X79.788 Y-0.255
X79.766 Y-0.227
X79.735 Y-0.208
X79.7 Y-0.201
X79.664 Y-0.208
X79.634 Y-0.227
X79.612 Y-0.255
X79.601 Y-0.29
G2 X78.791 Y-4.895 I-35.05 J3.795
X78.355 Y-5.274 I-0.486 J0.119
G1 X75.856 Y-5.523
G2 X75.324 Y-4.894 I-0.05 J0.498
G3 X53.518 Y34.076 I-30.724 J8.394
G2 X50.637 Y42.965 I1.582 J5.424
G3 X57.332 Y62.5 I-25.156 J19.535
G1 X57.327 Y74.891
G3 X56.827 Y75.391 I-0.5 J0.
G1 X54.427 Y75.387
G3 X53.928 Y74.887 I0.001 J-0.5
G1 X53.932 Y62.5
G2 X47.952 Y45.051 I-28.45 J0.
G3 X52.566 Y30.812 I7.148 J-5.551
G2 X71.785 Y-4.89 I-7.966 J-27.312
X71.366 Y-5.239 I-0.478 J0.147
G1 X68.734 Y-5.554
G2 X68.203 Y-4.89 I-0.059 J0.496
G3 X51.614 Y27.548 I-23.603 J8.39
G2 X45.267 Y47.136 I3.486 J11.952
G3 X50.532 Y62.5 I-19.785 J15.364
G1 X50.528 Y74.897
G3 X50.027 Y75.397 I-0.5 J0.
G1 X47.627 Y75.393
G3 X47.128 Y74.893 I0.001 J-0.5
G1 X47.132 Y62.5
G2 X42.581 Y49.221 I-21.65 J0.
G3 X50.662 Y24.284 I12.519 J-9.721
G2 X64.555 Y-4.898 I-6.062 J-20.784
X64.167 Y-5.199 I-0.461 J0.194
G1 X61.321 Y-5.621
G2 X60.804 Y-4.896 I-0.073 J0.495
G3 X49.71 Y21.02 I-16.204 J8.396
G2 X39.896 Y51.307 I5.39 J18.48
G3 X43.732 Y62.5 I-14.414 J11.193
G1 X43.728 Y74.888
G3 X43.23 Y75.388 I-0.5 J0.
G1 X40.83 Y75.399
G3 X40.328 Y74.899 I-0.002 J-0.5
G1 X40.332 Y62.5
G2 X37.21 Y53.392 I-14.85 J0.
G3 X48.758 Y17.756 I17.89 J-13.892
G2 X56.851 Y-4.892 I-4.158 J-14.256
X56.525 Y-5.102 I-0.413 J0.283
G1 X52.813 Y-5.754
G2 X52.386 Y-4.895 I-0.086 J0.492
G3 X47.806 Y14.492 I-7.786 J8.395
G2 X34.525 Y55.477 I7.294 J25.008
G3 X36.932 Y62.5 I-9.043 J7.023
G1 X36.928 Y74.894
G3 X36.427 Y75.394 I-0.5 J0.
G1 X33.98 Y75.387
G3 X33.482 Y74.887 I0.001 J-0.5
G1 Y62.5
G2 X31.8 Y57.593 I-8. J0.
G3 X46.84 Y11.18 I23.3 J-18.093
G2 X44.6 Y-4.5 I-2.24 J-7.68
G1 X0.
X-1.912
G2 X-2.212 Y-4.4 I0. J0.5
G1 X-4.886 Y-2.4
G2 X-4.586 Y-1.5 I0.299 J0.4
G1 X44.6
G3 X46. Y8.3 I0. J5.
G2 X29.431 Y59.433 I9.1 J31.2
G3 X30.482 Y62.5 I-3.949 J3.067
G1 Y70.
Y74.887
X30.485 Y74.965
X30.494 Y75.043
X30.5 Y75.082
X30.519 Y75.201 Z-4.993
X30.537 Y75.318 Z-4.971
X30.555 Y75.432 Z-4.935
X30.573 Y75.541 Z-4.885
X30.589 Y75.643 Z-4.823
X30.604 Y75.737 Z-4.749
X30.617 Y75.821 Z-4.663
X30.629 Y75.894 Z-4.568
X30.639 Y75.956 Z-4.465
X30.646 Y76.005 Z-4.355
X30.652 Y76.041 Z-4.239
X30.655 Y76.062 Z-4.121
X30.656 Y76.069 Z-4.
Z5.
X55.1 Y39.5
Z-5.
G2 X55.202 Y39.802 I0.5 J0.
G1 X82.068 Y75.193
G2 X82.967 Y74.89 I0.398 J-0.302
G1 X82.95 Y3.5
G3 X84.075 Y-4.889 I31.85 J0.
X84.504 Y-5.254 I0.482 J0.132
G1 X87.083 Y-5.53
G3 X87.614 Y-4.886 I0.053 J0.497
G2 X86.35 Y3.5 I27.186 J8.386
G1 X86.366 Y74.89
G2 X86.866 Y75.39 I0.5 J0.
G1 X89.266
G2 X89.766 Y74.89 I0. J-0.5
G1 X89.75 Y3.5
G3 X91.195 Y-4.885 I25.05 J0.
X91.599 Y-5.213 I0.471 J0.167
G1 X94.315 Y-5.583
G3 X94.843 Y-4.894 I0.067 J0.495
G2 X93.15 Y3.5 I19.957 J8.394
G1 X93.166 Y74.89
G2 X93.666 Y75.39 I0.5 J0.
G1 X96.065
G2 X96.565 Y74.89 I0. J-0.5
G1 X96.55 Y3.5
G3 X98.594 Y-4.893 I18.25 J0.
X98.957 Y-5.156 I0.444 J0.23
G1 X102.053 Y-5.665
G3 X102.546 Y-4.889 I0.081 J0.493
G2 X99.95 Y3.5 I12.254 J8.389
G1 X99.965 Y74.89
G2 X100.465 Y75.39 I0.5 J0.
G1 X102.865
G2 X103.365 Y74.89 I0. J-0.5
G1 X103.35 Y3.5
G3 X107.011 Y-4.892 I11.45 J0.
X107.344 Y-5.026 I0.34 J0.366
G1 X141.895 Y-5.5
G3 X142.402 Y-5.003 I0.007 J0.5
X141.902 Y-4.5 I-0.5 J0.003
G1 X114.8
G2 X106.8 Y3.5 I0. J8.
G1 Y70.
Y74.897
G2 X107.3 Y75.397 I0.5 J0.
G1 X109.3
G2 X109.8 Y74.897 I0. J-0.5
G1 Y3.5
G3 X114.8 Y-1.5 I5. J0.
G1 X140.
X144.591
X144.67 Y-1.503
X144.748 Y-1.512
X144.786 Y-1.518
X144.905 Y-1.537 Z-4.993
X145.023 Y-1.556 Z-4.971
X145.136 Y-1.574 Z-4.935
X145.245 Y-1.591 Z-4.885
X145.347 Y-1.607 Z-4.823
X145.441 Y-1.622 Z-4.749
X145.526 Y-1.636 Z-4.663
X145.599 Y-1.647 Z-4.568
X145.661 Y-1.657 Z-4.465
X145.71 Y-1.665 Z-4.355
X145.745 Y-1.67 Z-4.239
X145.767 Y-1.674 Z-4.121
X145.774 Y-1.675 Z-4.
G0 Z10.

(POCKET - 30 MM - ROUGHING 2)
G0 Z11.
X55.1 Y39.5
G1 Z-10. F2328.
G3 X55.6 I0.25 J0.
X54.6 I-0.5 J0.
X56.1 I0.75 J0.
X54.1 I-1. J0.
X56.6 I1.25 J0.
X53.6 I-1.5 J0.
X57.1 I1.75 J0.
X53.1 I-2. J0.
X57.6 I2.25 J0.
X52.6 I-2.5 J0.
X58.1 I2.75 J0.
X52.1 I-3. J0.
X58.6 I3.25 J0.
X51.6 I-3.5 J0.
X59.1 I3.75 J0.
X51.1 I-4. J0.
X59.6 I4.25 J0.
X50.6 I-4.5 J0.
X60.1 I4.75 J0.
X50.1 I-5. J0.
X60.6 I5.25 J0.
X49.6 I-5.5 J0.
X61.1 I5.75 J0.
X49.1 I-6. J0.
X61.6 I6.25 J0.
X48.6 I-6.5 J0.
X62.1 I6.75 J0.
X48.1 I-7. J0.
X62.6 I7.25 J0.
X47.6 I-7.5 J0.
X63.1 I7.75 J0.
X47.1 I-8. J0.
X63.6 I8.25 J0.
X46.6 I-8.5 J0.
X64.1 I8.75 J0.
X46.1 I-9. J0.
X64.6 I9.25 J0.
X45.6 I-9.5 J0.
X65.1 I9.75 J0.
X45.1 I-10. J0.
X65.1 I10. J0.
X64.544 Y39.997 I-0.5 J0.
G1 X60.156 Y39.503
X60.1 Y39.5
X60.044 Y39.503
X55.656 Y39.997
G3 X55.1 Y39.5 I-0.056 J-0.497
G1 Z-18.
G3 X55.6 I0.25 J0.
X54.6 I-0.5 J0.
X56.1 I0.75 J0.
X54.1 I-1. J0.
X56.6 I1.25 J0.
X53.6 I-1.5 J0.
X57.1 I1.75 J0.
X53.1 I-2. J0.
X57.6 I2.25 J0.
X52.6 I-2.5 J0.
X58.1 I2.75 J0.
X52.1 I-3. J0.
X58.6 I3.25 J0.
X51.6 I-3.5 J0.
X59.1 I3.75 J0.
X51.1 I-4. J0.
X59.6 I4.25 J0.
X50.6 I-4.5 J0.
X60.1 I4.75 J0.
X50.1 I-5. J0.
X60.6 I5.25 J0.
X49.6 I-5.5 J0.
X61.1 I5.75 J0.
X49.1 I-6. J0.
X61.6 I6.25 J0.
X48.6 I-6.5 J0.
X62.1 I6.75 J0.
X48.1 I-7. J0.
X62.6 I7.25 J0.
X47.6 I-7.5 J0.
X63.1 I7.75 J0.
X47.1 I-8. J0.
X63.6 I8.25 J0.
X46.6 I-8.5 J0.
X64.1 I8.75 J0.
X46.1 I-9. J0.
X64.6 I9.25 J0.
X45.6 I-9.5 J0.
X65.1 I9.75 J0.
X45.1 I-10. J0.
X65.1 I10. J0.
X65.067 Y39.756 Z-17.966 I-1. J0.
G1 X65.029 Y39.87 Z-17.916
X64.978 Y39.979 Z-17.866
X64.923 Y40.068 Z-17.787
X64.86 Y40.15 Z-17.707
X64.806 Y40.208 Z-17.604
X64.748 Y40.262 Z-17.5
X64.669 Y40.323 Z-17.259
X64.64 Y40.341 Z-17.
G0 Z11.

(POCKET-26 2)
G0 X55.6 Y38.5
Z11.
Z5.
G1 Z2.5 F2328.
Z-21. F330.
G19 G3 Y39.5 Z-22. J1. K0.
G17 G3 X54.6 I-0.5 J0. F2328.
X57.1 I1.25 J0.
X53.1 I-2. J0.
X58.6 I2.75 J0.
X51.6 I-3.5 J0.
X60.1 I4.25 J0.
X50.1 I-5. J0.
X61.6 I5.75 J0.
X48.6 I-6.5 J0.
X63.1 I7.25 J0.
X47.1 I-8. J0.
X63.1 I8. J0.
X63.067 Y39.756 Z-21.966 I-1. J0.
G1 X63.029 Y39.87 Z-21.916
X62.978 Y39.979 Z-21.866
X62.923 Y40.068 Z-21.787
X62.86 Y40.15 Z-21.707
X62.806 Y40.208 Z-21.604
X62.748 Y40.262 Z-21.5
X62.669 Y40.323 Z-21.259
X62.64 Y40.341 Z-21.
G0 Z11.

(FACE1)
G0 X146.5 Y6.915
Z10.
Z5.
G1 Z0.9 F2328.
G18 G3 X145.5 Z-0.1 I-1. K0.
G1 X140.
X114.8
G17 G2 Y15.235 I0. J4.16
G1 X140.
G3 Y23.555 I0. J4.16
G1 X114.8
G2 Y31.875 I0. J4.16
G1 X140.
G3 Y40.195 I0. J4.16
G1 X114.8
G2 Y48.515 I0. J4.16
G1 X140.
G3 Y56.835 I0. J4.16
G1 X114.8
G2 Y65.155 I0. J4.16
G1 X140.
G18 G2 X141. Z0.9 I0. K1.
G0 Z5.
X49.906 Y6.915
G1 Z0.9 F2328.
G3 X48.906 Z-0.1 I-1. K0.
G1 X44.6
X0.
G17 G2 Y15.235 I0. J4.16
G1 X31.656
G3 Y23.555 I0. J4.16
G1 X24.
X0.
G2 Y31.875 I0. J4.16
G1 X19.794
G3 Y40.195 I0. J4.16
G1 X18.037
X0.
G2 Y48.515 I0. J4.16
G1 X20.32
X24.982
G3 Y56.835 I0. J4.16
G1 X0.
G2 Y65.155 I0. J4.16
G1 X25.482
G18 G2 X26.482 Z0.9 I0. K1.
G0 Z10.
G17

M9
M30
