(1001)
(T1  D=10. CR=0. - ZMIN=-5. - FLAT END MILL)
G90 G94 G91.1 G40 G49 G17
G21

(BUSHING-FACE 2)
M5
T1 M6
S9700 M3
G54
M8
G0 X72.429 Y27.11
G43 Z25. H1
Z8.
G1 Z3.5 F2328.
G18 G3 X71.429 Z2.5 I-1. K0.
G1 X68.15
X42.05
X40.1
G17 G2 Y34.625 I0. J3.757
G1 X70.1
G3 Y42.14 I0. J3.757
G1 X40.1
G2 Y49.655 I0. J3.757
G1 X41.015
X69.185
G18 G2 X70.185 Z3.5 I0. K1.
G0 Z15.
X72.429 Y27.11
Z8.
G1 Z1. F2328.
G3 X71.429 Z0. I-1. K0.
G1 X68.15
X42.05
X40.1
G17 G2 Y34.625 I0. J3.757
G1 X70.1
G3 Y42.14 I0. J3.757
G1 X40.1
G2 Y49.655 I0. J3.757
G1 X41.015
X69.185
G18 G2 X70.185 Z1. I0. K1.
G0 Z15.
X72.429 Y27.11
Z8.
G1 Z-1.5 F2328.
G3 X71.429 Z-2.5 I-1. K0.
G1 X68.15
X42.05
X40.1
G17 G2 Y34.625 I0. J3.757
G1 X70.1
G3 Y42.14 I0. J3.757
G1 X40.1
G2 Y49.655 I0. J3.757
G1 X41.015
X69.185
G18 G2 X70.185 Z-1.5 I0. K1.
G0 Z15.
X72.429 Y27.11
Z8.
G1 Z-4. F2328.
G3 X71.429 Z-5. I-1. K0.
G1 X68.15
X42.05
X40.1
G17 G2 Y34.625 I0. J3.757
G1 X70.1
G3 Y42.14 I0. J3.757
G1 X40.1
G2 Y49.655 I0. J3.757
G1 X41.015
X69.185
G18 G2 X70.185 Z-4. I0. K1.
G0 Z25.
G17

M9
M30
