(1001)
(T1  D=10. CR=0. - ZMIN=-5. - FLAT END MILL)
G90 G94 G91.1 G40 G49 G17
G21

(POCKET-MAIN-CLEANUP 2)
M5
T1 M6
S9700 M3
G54
M8
G0 X67.528 Y75.928
G43 Z10. H1
Z5.
G1 Z1. F2328.
Z-4.
Y75.921 Z-4.121
Y75.899 Z-4.239
Y75.863 Z-4.355
Y75.813 Z-4.465
Y75.751 Z-4.568
Y75.676 Z-4.663
Y75.591 Z-4.749
Y75.496 Z-4.823
Y75.393 Z-4.885
Y75.283 Z-4.935
Y75.167 Z-4.971
Y75.048 Z-4.993
Y74.928 Z-5.
Y74.889
X67.533 Y62.5
G2 X65.974 Y51.207 I-41.7 J0.
G3 X67.442 Y50.005 I1.226 J0.
G2 X68.706 Y48.591 I0.217 J-1.078
X66.728 Y43.513 I-43.224 J13.909
G3 X66.872 Y43.069 I0.313 J-0.144
G2 X69.126 Y41.714 I-22.272 J-39.569
G3 X69.393 Y41.86 I0.094 J0.146
G1 Y50.173
X69.387 Y50.21
X69.368 Y50.241
X69.339 Y50.264
X69.304 Y50.275
X69.268 Y50.274
X69.234 Y50.26
X69.207 Y50.234
X69.191 Y50.201
G2 X68.706 Y48.591 I-43.71 J12.299
X67.73 Y48.759 I-0.476 J0.153
G1 X68.528 Y74.874
G3 X68.036 Y75.389 I-0.5 J0.015
X67.528 Y74.889 I-0.008 J-0.5
G1 X67.533 Y62.5
G2 X62.15 Y42.008 I-41.7 J0.
G3 X62.281 Y41.603 I0.253 J-0.142
G2 X72.535 Y34.871 I-17.681 J-38.103
G3 X72.794 Y34.987 I0.103 J0.116
G1 Y74.896
G2 X73.296 Y75.396 I0.5 J0.
G1 X75.696 Y75.385
G2 X76.194 Y74.885 I-0.002 J-0.5
G1 Y26.1
G2 X75.955 Y26.023 I-0.132 J0.
G3 X57.21 Y39.989 I-31.355 J-22.523
G2 X57.095 Y40.342 I0.076 J0.22
G3 X64.133 Y62.5 I-31.367 J22.158
G1 X64.128 Y74.9
G3 X63.625 Y75.399 I-0.5 J0.
G1 X61.225 Y75.386
G3 X60.727 Y74.886 I0.003 J-0.5
G1 X60.732 Y62.5
G2 X53.323 Y40.88 I-35.25 J0.
G3 X54.47 Y37.34 I1.777 J-1.38
G2 X79.404 Y8.806 I-9.849 J-33.767
G1 X79.416 Y8.773
X79.439 Y8.746
X79.47 Y8.729
X79.506 Y8.725
X79.54 Y8.734
X79.569 Y8.756
X79.587 Y8.786
X79.594 Y8.821
Y74.894
Y74.933
G19 G3 Y75.933 Z-4. J0. K1.
G0 Z5.
X80.864 Y-5.965
G1 Z-4. F2328.
X80.862 Y-5.958 Z-4.121
X80.857 Y-5.937 Z-4.239
X80.849 Y-5.902 Z-4.355
X80.837 Y-5.854 Z-4.465
X80.822 Y-5.793 Z-4.568
X80.804 Y-5.721 Z-4.663
X80.784 Y-5.638 Z-4.749
X80.762 Y-5.546 Z-4.823
X80.737 Y-5.445 Z-4.885
X80.711 Y-5.338 Z-4.935
X80.684 Y-5.226 Z-4.971
X80.656 Y-5.111 Z-4.993
X80.627 Y-4.994 Z-5.
X80.602 Y-4.889
G17 G2 X79.799 Y-0.29 I34.198 J8.34
G1 X79.788 Y-0.255
X79.766 Y-0.227
X79.735 Y-0.208
X79.7 Y-0.201
X79.664 Y-0.208
X79.634 Y-0.227
X79.612 Y-0.255
X79.601 Y-0.29
G2 X78.791 Y-4.895 I-35.05 J3.795
X78.355 Y-5.274 I-0.486 J0.119
G1 X75.856 Y-5.523
G2 X75.324 Y-4.894 I-0.05 J0.498
G3 X53.518 Y34.076 I-30.724 J8.394
G2 X50.637 Y42.965 I1.582 J5.424
G3 X57.332 Y62.5 I-25.156 J19.535
G1 X57.327 Y74.891
G3 X56.827 Y75.391 I-0.5 J0.
G1 X54.427 Y75.387
G3 X53.928 Y74.887 I0.001 J-0.5
G1 X53.932 Y62.5
G2 X47.952 Y45.051 I-28.45 J0.
G3 X52.566 Y30.812 I7.148 J-5.551
G2 X71.785 Y-4.89 I-7.966 J-27.312
X71.366 Y-5.239 I-0.478 J0.147
G1 X68.734 Y-5.554
G2 X68.203 Y-4.89 I-0.059 J0.496
G3 X51.614 Y27.548 I-23.603 J8.39
G2 X45.267 Y47.136 I3.486 J11.952
G3 X50.532 Y62.5 I-19.785 J15.364
G1 X50.528 Y74.897
G3 X50.027 Y75.397 I-0.5 J0.
G1 X47.627 Y75.393
G3 X47.128 Y74.893 I0.001 J-0.5
G1 X47.132 Y62.5
G2 X42.581 Y49.221 I-21.65 J0.
G3 X50.662 Y24.284 I12.519 J-9.721
G2 X64.555 Y-4.898 I-6.062 J-20.784
X64.167 Y-5.199 I-0.461 J0.194
G1 X61.321 Y-5.621
G2 X60.804 Y-4.896 I-0.073 J0.495
G3 X49.71 Y21.02 I-16.204 J8.396
G2 X39.896 Y51.307 I5.39 J18.48
G3 X43.732 Y62.5 I-14.414 J11.193
G1 X43.728 Y74.888
G3 X43.23 Y75.388 I-0.5 J0.
G1 X40.83 Y75.399
G3 X40.328 Y74.899 I-0.002 J-0.5
G1 X40.332 Y62.5
G2 X37.21 Y53.392 I-14.85 J0.
G3 X48.758 Y17.756 I17.89 J-13.892
G2 X56.851 Y-4.892 I-4.158 J-14.256
X56.525 Y-5.102 I-0.413 J0.283
G1 X52.813 Y-5.754
G2 X52.386 Y-4.895 I-0.086 J0.492
G3 X47.806 Y14.492 I-7.786 J8.395
G2 X34.525 Y55.477 I7.294 J25.008
G3 X36.932 Y62.5 I-9.043 J7.023
G1 X36.928 Y74.894
G3 X36.427 Y75.394 I-0.5 J0.
G1 X33.98 Y75.387
G3 X33.482 Y74.887 I0.001 J-0.5
G1 Y62.5
G2 X31.8 Y57.593 I-8. J0.
G3 X46.84 Y11.18 I23.3 J-18.093
G2 X44.6 Y-4.5 I-2.24 J-7.68
G1 X0.
X-1.912
G2 X-2.212 Y-4.4 I0. J0.5
G1 X-4.886 Y-2.4
G2 X-4.586 Y-1.5 I0.299 J0.4
G1 X44.6
G3 X46. Y8.3 I0. J5.
G2 X29.431 Y59.433 I9.1 J31.2
G3 X30.482 Y62.5 I-3.949 J3.067
G1 Y70.
Y74.887
X30.485 Y74.965
X30.494 Y75.043
X30.5 Y75.082
X30.519 Y75.201 Z-4.993
X30.537 Y75.318 Z-4.971
X30.555 Y75.432 Z-4.935
X30.573 Y75.541 Z-4.885
X30.589 Y75.643 Z-4.823
X30.604 Y75.737 Z-4.749
X30.617 Y75.821 Z-4.663
X30.629 Y75.894 Z-4.568
X30.639 Y75.956 Z-4.465
X30.646 Y76.005 Z-4.355
X30.652 Y76.041 Z-4.239
X30.655 Y76.062 Z-4.121
X30.656 Y76.069 Z-4.
Z5.
X55.1 Y39.5
Z-5.
G2 X55.202 Y39.802 I0.5 J0.
G1 X82.068 Y75.193
G2 X82.967 Y74.89 I0.398 J-0.302
G1 X82.95 Y3.5
G3 X84.075 Y-4.889 I31.85 J0.
X84.504 Y-5.254 I0.482 J0.132
G1 X87.083 Y-5.53
G3 X87.614 Y-4.886 I0.053 J0.497
G2 X86.35 Y3.5 I27.186 J8.386
G1 X86.366 Y74.89
G2 X86.866 Y75.39 I0.5 J0.
G1 X89.266
G2 X89.766 Y74.89 I0. J-0.5
G1 X89.75 Y3.5
G3 X91.195 Y-4.885 I25.05 J0.
X91.599 Y-5.213 I0.471 J0.167
G1 X94.315 Y-5.583
G3 X94.843 Y-4.894 I0.067 J0.495
G2 X93.15 Y3.5 I19.957 J8.394
G1 X93.166 Y74.89
G2 X93.666 Y75.39 I0.5 J0.
G1 X96.065
G2 X96.565 Y74.89 I0. J-0.5
G1 X96.55 Y3.5
G3 X98.594 Y-4.893 I18.25 J0.
X98.957 Y-5.156 I0.444 J0.23
G1 X102.053 Y-5.665
G3 X102.546 Y-4.889 I0.081 J0.493
G2 X99.95 Y3.5 I12.254 J8.389
G1 X99.965 Y74.89
G2 X100.465 Y75.39 I0.5 J0.
G1 X102.865
G2 X103.365 Y74.89 I0. J-0.5
G1 X103.35 Y3.5
G3 X107.011 Y-4.892 I11.45 J0.
X107.344 Y-5.026 I0.34 J0.366
G1 X141.895 Y-5.5
G3 X142.402 Y-5.003 I0.007 J0.5
X141.902 Y-4.5 I-0.5 J0.003
G1 X114.8
G2 X106.8 Y3.5 I0. J8.
G1 Y70.
Y74.897
G2 X107.3 Y75.397 I0.5 J0.
G1 X109.3
G2 X109.8 Y74.897 I0. J-0.5
G1 Y3.5
G3 X114.8 Y-1.5 I5. J0.
G1 X140.
X144.591
X144.67 Y-1.503
X144.748 Y-1.512
X144.786 Y-1.518
X144.905 Y-1.537 Z-4.993
X145.023 Y-1.556 Z-4.971
X145.136 Y-1.574 Z-4.935
X145.245 Y-1.591 Z-4.885
X145.347 Y-1.607 Z-4.823
X145.441 Y-1.622 Z-4.749
X145.526 Y-1.636 Z-4.663
X145.599 Y-1.647 Z-4.568
X145.661 Y-1.657 Z-4.465
X145.71 Y-1.665 Z-4.355
X145.745 Y-1.67 Z-4.239
X145.767 Y-1.674 Z-4.121
X145.774 Y-1.675 Z-4.
G0 Z10.

M9
M30
