(MAIN-ROUGHING)
(T1  D=10. CR=0. - ZMIN=-5. - FLAT END MILL)
G90 G94 G91.1 G40 G49 G17
G21

(POCKET - MAIN ROUGHING 2)
M5
T1 M6
S9700 M3
G54
M8
G0 X67.928 Y75.932
G43 Z10. H1
Z5.
G1 Z3. F2328.
Z-1.
Y75.925 Z-1.121
Y75.903 Z-1.239
Y75.867 Z-1.355
Y75.818 Z-1.465
Y75.755 Z-1.568
Y75.681 Z-1.663
Y75.595 Z-1.749
Y75.5 Z-1.823
Y75.397 Z-1.885
Y75.287 Z-1.935
Y75.171 Z-1.971
Y75.053 Z-1.993
Y74.932 Z-2.
Y74.893
X67.933 Y62.5
G2 X65.627 Y48.762 I-42.085 J0.
G3 X67.046 Y47.492 I1.278 J0.
G2 X68.207 Y45.983 I0.122 J-1.107
X67.246 Y43.684 I-42.725 J16.517
G3 X67.391 Y43.234 I0.321 J-0.144
G2 X68.724 Y42.44 I-22.791 J-39.734
G3 X68.993 Y42.589 I0.093 J0.15
G1 Y47.531
X68.987 Y47.568
X68.968 Y47.6
X68.939 Y47.624
X68.904 Y47.637
X68.867 Y47.636
X68.832 Y47.623
X68.804 Y47.599
X68.786 Y47.566
G2 X68.207 Y45.983 I-43.304 J14.934
G3 X69.14 Y45.623 I0.466 J-0.18
X69.173 Y45.807 I-0.466 J0.18
G1 X68.928 Y74.897
G3 X67.928 Y74.893 I-0.5 J-0.004
G1 X67.933 Y62.5
G2 X62.709 Y42.192 I-42.085 J0.
G3 X62.842 Y41.782 I0.261 J-0.142
G2 X72.133 Y35.752 I-18.242 J-38.282
G3 X72.394 Y35.872 I0.103 J0.12
G1 Y74.895
G3 X71.894 Y75.395 I-0.5 J0.
G1 X65.028 Y75.389
G3 X64.528 Y74.888 I0. J-0.5
G1 X64.533 Y62.5
G2 X57.725 Y40.549 I-38.793 J0.
G3 X57.841 Y40.19 I0.198 J-0.135
G2 X75.552 Y27.237 I-13.241 J-36.69
G3 X75.794 Y27.319 I0.107 J0.082
G1 Y74.892
G3 X75.294 Y75.392 I-0.5 J0.
G1 X61.627 Y75.39
G3 X61.127 Y74.89 I0. J-0.5
G1 X61.132 Y62.5
G2 X53.639 Y40.635 I-35.65 J0.
G3 X54.582 Y37.724 I1.461 J-1.135
G2 X78.993 Y12.713 I-9.956 J-34.136
G1 X79.009 Y12.68
X79.035 Y12.654
X79.069 Y12.64
X79.105 Y12.638
X79.14 Y12.649
X79.169 Y12.672
X79.188 Y12.703
X79.194 Y12.739
Y74.895
G2 X80.194 Y74.901 I0.5 J0.
G1 X81.181 Y-4.771
G2 X80.195 Y-4.895 I-0.5 J-0.006
X79.807 Y-3.079 I34.605 J8.341
G1 X79.794 Y-3.044
X79.77 Y-3.015
X79.737 Y-2.997
X79.7 Y-2.99
X79.663 Y-2.997
X79.63 Y-3.015
X79.606 Y-3.044
X79.593 Y-3.079
G2 X79.204 Y-4.888 I-35.046 J6.589
G3 X79.687 Y-5.505 I0.486 J-0.118
G1 X83.177 Y-5.528
G3 X83.663 Y-4.898 I0.003 J0.5
G2 X82.55 Y3.5 I31.137 J8.398
G1 X82.567 Y74.89
G3 X82.067 Y75.39 I-0.5 J0.
G1 X58.228 Y75.396
G3 X57.727 Y74.895 I0. J-0.5
G1 X57.732 Y62.5
G2 X50.953 Y42.72 I-32.25 J0.
G3 X53.63 Y34.46 I4.147 J-3.22
G2 X75.738 Y-4.894 I-9.03 J-30.96
G3 X76.22 Y-5.525 I0.483 J-0.13
G1 X86.719 Y-5.541
G3 X87.199 Y-4.895 I0.001 J0.5
G2 X85.95 Y3.5 I27.601 J8.395
G1 X85.966 Y74.89
G3 X85.466 Y75.39 I-0.5 J0.
G1 X54.828 Y75.391
G3 X54.328 Y74.891 I0. J-0.5
G1 X54.332 Y62.5
G2 X48.268 Y44.805 I-28.85 J0.
G3 X52.678 Y31.196 I6.832 J-5.305
G2 X72.202 Y-4.892 I-8.078 J-27.696
G3 X72.68 Y-5.537 I0.478 J-0.145
G1 X90.302 Y-5.562
G3 X90.775 Y-4.897 I0.001 J0.5
G2 X89.35 Y3.5 I24.025 J8.397
G1 X89.366 Y74.89
G3 X88.866 Y75.39 I-0.5 J0.
G1 X51.428 Y75.386
G3 X50.928 Y74.886 I0. J-0.5
G1 X50.932 Y62.5
G2 X45.583 Y46.891 I-25.45 J0.
G3 X51.726 Y27.932 I9.517 J-7.391
G2 X68.626 Y-4.893 I-7.126 J-24.432
G3 X69.098 Y-5.558 I0.472 J-0.165
G1 X93.947 Y-5.584
G3 X94.41 Y-4.894 I0.001 J0.5
G2 X92.75 Y3.5 I20.39 J8.394
G1 X92.766 Y74.89
G3 X92.266 Y75.39 I-0.5 J0.
G1 X48.028 Y75.397
G3 X47.528 Y74.897 I0. J-0.5
G1 X47.532 Y62.5
G2 X42.897 Y48.976 I-22.05 J0.
G3 X50.774 Y24.668 I12.203 J-9.476
G2 X64.991 Y-4.89 I-6.174 J-21.168
G3 X65.453 Y-5.58 I0.462 J-0.19
G1 X97.701 Y-5.623
G3 X98.148 Y-4.898 I0.001 J0.5
G2 X96.15 Y3.5 I16.652 J8.398
G1 X96.165 Y74.89
G3 X95.665 Y75.39 I-0.5 J0.
G1 X44.628 Y75.392
G3 X44.128 Y74.892 I0. J-0.5
G1 X44.132 Y62.5
G2 X40.212 Y51.061 I-18.65 J0.
G3 X49.822 Y21.404 I14.888 J-11.561
G2 X61.254 Y-4.895 I-5.222 J-17.904
G3 X61.7 Y-5.62 I0.446 J-0.225
G1 X101.651 Y-5.67
G3 X102.069 Y-4.895 I0.001 J0.5
G2 X99.55 Y3.5 I12.731 J8.395
G1 X99.565 Y74.89
G3 X99.065 Y75.39 I-0.5 J0.
G1 X41.228 Y75.388
G3 X40.728 Y74.887 I0. J-0.5
G1 X40.732 Y62.5
G2 X37.526 Y53.147 I-15.25 J0.
G3 X48.87 Y18.14 I17.574 J-13.647
G2 X57.334 Y-4.891 I-4.27 J-14.64
G3 X57.75 Y-5.667 I0.417 J-0.275
G1 X106.085 Y-5.752
G3 X106.439 Y-4.897 I0.001 J0.5
G2 X102.95 Y3.5 I8.361 J8.397
G1 X102.965 Y74.89
G3 X102.465 Y75.39 I-0.5 J0.
G1 X37.828 Y75.398
G3 X37.328 Y74.898 I0. J-0.5
G1 X37.332 Y62.5
G2 X34.841 Y55.232 I-11.85 J0.
G3 X47.918 Y14.876 I20.259 J-15.732
G2 X52.964 Y-4.894 I-3.318 J-11.376
G3 X53.316 Y-5.748 I0.353 J-0.354
G1 X113.813 Y-5.896
G3 X113.869 Y-4.899 I0.001 J0.5
G2 X106.35 Y3.5 I0.931 J8.399
G1 X106.365 Y74.89
G3 X105.865 Y75.39 I-0.5 J0.
G1 X34.428 Y75.394
G3 X33.928 Y74.893 I0. J-0.5
G1 X33.932 Y62.5
G2 X32.156 Y57.317 I-8.45 J0.
G3 X46.966 Y11.612 I22.944 J-17.817
G2 X45.52 Y-4.9 I-2.366 J-8.112
G1 X45.481 Y-4.904
X45.361 Y-4.917 Z-1.993
X45.243 Y-4.93 Z-1.971
X45.129 Y-4.943 Z-1.935
X45.019 Y-4.955 Z-1.885
X44.916 Y-4.966 Z-1.823
X44.822 Y-4.976 Z-1.749
X44.737 Y-4.986 Z-1.663
X44.663 Y-4.994 Z-1.568
X44.601 Y-5. Z-1.465
X44.552 Y-5.006 Z-1.355
X44.516 Y-5.01 Z-1.239
X44.494 Y-5.012 Z-1.121
X44.487 Y-5.013 Z-1.
G0 Z5.
X55.1 Y39.5
G1 Z-2. F2328.
G3 X55.016 Y39.778 I-0.5 J0.
G1 X31.397 Y75.164
G3 X30.482 Y74.887 I-0.416 J-0.278
G1 Y62.5
G2 X29.431 Y59.433 I-5. J0.
G3 X46. Y8.3 I25.669 J-19.933
G2 X44.6 Y-1.5 I-1.4 J-4.8
G1 X0.
X-4.586
G3 Y-2.5 I0. J-0.5
G1 X144.591
G3 Y-1.5 I0. J0.5
G1 X114.8
G2 X109.8 Y3.5 I0. J5.
G1 Y70.
Y74.897
G3 X109.325 Y75.397 I-0.5 J0.
G1 X68.452 Y77.432
G3 X67.927 Y76.932 I-0.025 J-0.499
G1 Y76.812 Z-2.007
Y76.693 Z-2.029
X67.928 Y76.578 Z-2.065
Y76.467 Z-2.115
Y76.364 Z-2.177
Y76.269 Z-2.251
Y76.184 Z-2.337
Y76.109 Z-2.432
Y76.047 Z-2.535
Y75.997 Z-2.645
Y75.961 Z-2.761
Y75.939 Z-2.879
Y75.932 Z-3.
Y75.925 Z-3.121
Y75.903 Z-3.239
Y75.867 Z-3.355
Y75.818 Z-3.465
Y75.755 Z-3.568
Y75.681 Z-3.663
Y75.595 Z-3.749
Y75.5 Z-3.823
Y75.397 Z-3.885
Y75.287 Z-3.935
Y75.171 Z-3.971
Y75.053 Z-3.993
Y74.932 Z-4.
Y74.893
X67.933 Y62.5
G2 X65.627 Y48.762 I-42.085 J0.
G3 X67.046 Y47.492 I1.278 J0.
G2 X68.207 Y45.983 I0.122 J-1.107
X67.246 Y43.684 I-42.725 J16.517
G3 X67.391 Y43.234 I0.321 J-0.144
G2 X68.724 Y42.44 I-22.791 J-39.734
G3 X68.993 Y42.589 I0.093 J0.15
G1 Y47.531
X68.987 Y47.568
X68.968 Y47.6
X68.939 Y47.624
X68.904 Y47.637
X68.867 Y47.636
X68.832 Y47.623
X68.804 Y47.599
X68.786 Y47.566
G2 X68.207 Y45.983 I-43.304 J14.934
G3 X69.14 Y45.623 I0.466 J-0.18
X69.173 Y45.807 I-0.466 J0.18
G1 X68.928 Y74.897
G3 X67.928 Y74.893 I-0.5 J-0.004
G1 X67.933 Y62.5
G2 X62.709 Y42.192 I-42.085 J0.
G3 X62.842 Y41.782 I0.261 J-0.142
G2 X72.133 Y35.752 I-18.242 J-38.282
G3 X72.394 Y35.872 I0.103 J0.12
G1 Y74.895
G3 X71.894 Y75.395 I-0.5 J0.
G1 X65.028 Y75.389
G3 X64.528 Y74.888 I0. J-0.5
G1 X64.533 Y62.5
G2 X57.725 Y40.549 I-38.793 J0.
G3 X57.841 Y40.19 I0.198 J-0.135
G2 X75.552 Y27.237 I-13.241 J-36.69
G3 X75.794 Y27.319 I0.107 J0.082
G1 Y74.892
G3 X75.294 Y75.392 I-0.5 J0.
G1 X61.627 Y75.39
G3 X61.127 Y74.89 I0. J-0.5
G1 X61.132 Y62.5
G2 X53.639 Y40.635 I-35.65 J0.
G3 X54.582 Y37.724 I1.461 J-1.135
G2 X78.993 Y12.713 I-9.956 J-34.136
G1 X79.009 Y12.68
X79.035 Y12.654
X79.069 Y12.64
X79.105 Y12.638
X79.14 Y12.649
X79.169 Y12.672
X79.188 Y12.703
X79.194 Y12.739
Y74.895
G2 X80.194 Y74.901 I0.5 J0.
G1 X81.181 Y-4.771
G2 X80.195 Y-4.895 I-0.5 J-0.006
X79.807 Y-3.079 I34.605 J8.341
G1 X79.794 Y-3.044
X79.77 Y-3.015
X79.737 Y-2.997
X79.7 Y-2.99
X79.663 Y-2.997
X79.63 Y-3.015
X79.606 Y-3.044
X79.593 Y-3.079
G2 X79.204 Y-4.888 I-35.046 J6.589
G3 X79.687 Y-5.505 I0.486 J-0.118
G1 X83.177 Y-5.528
G3 X83.663 Y-4.898 I0.003 J0.5
G2 X82.55 Y3.5 I31.137 J8.398
G1 X82.567 Y74.89
G3 X82.067 Y75.39 I-0.5 J0.
G1 X58.228 Y75.396
G3 X57.727 Y74.895 I0. J-0.5
G1 X57.732 Y62.5
G2 X50.953 Y42.72 I-32.25 J0.
G3 X53.63 Y34.46 I4.147 J-3.22
G2 X75.738 Y-4.894 I-9.03 J-30.96
G3 X76.22 Y-5.525 I0.483 J-0.13
G1 X86.719 Y-5.541
G3 X87.199 Y-4.895 I0.001 J0.5
G2 X85.95 Y3.5 I27.601 J8.395
G1 X85.966 Y74.89
G3 X85.466 Y75.39 I-0.5 J0.
G1 X54.828 Y75.391
G3 X54.328 Y74.891 I0. J-0.5
G1 X54.332 Y62.5
G2 X48.268 Y44.805 I-28.85 J0.
G3 X52.678 Y31.196 I6.832 J-5.305
G2 X72.202 Y-4.892 I-8.078 J-27.696
G3 X72.68 Y-5.537 I0.478 J-0.145
G1 X90.302 Y-5.562
G3 X90.775 Y-4.897 I0.001 J0.5
G2 X89.35 Y3.5 I24.025 J8.397
G1 X89.366 Y74.89
G3 X88.866 Y75.39 I-0.5 J0.
G1 X51.428 Y75.386
G3 X50.928 Y74.886 I0. J-0.5
G1 X50.932 Y62.5
G2 X45.583 Y46.891 I-25.45 J0.
G3 X51.726 Y27.932 I9.517 J-7.391
G2 X68.626 Y-4.893 I-7.126 J-24.432
G3 X69.098 Y-5.558 I0.472 J-0.165
G1 X93.947 Y-5.584
G3 X94.41 Y-4.894 I0.001 J0.5
G2 X92.75 Y3.5 I20.39 J8.394
G1 X92.766 Y74.89
G3 X92.266 Y75.39 I-0.5 J0.
G1 X48.028 Y75.397
G3 X47.528 Y74.897 I0. J-0.5
G1 X47.532 Y62.5
G2 X42.897 Y48.976 I-22.05 J0.
G3 X50.774 Y24.668 I12.203 J-9.476
G2 X64.991 Y-4.89 I-6.174 J-21.168
G3 X65.453 Y-5.58 I0.462 J-0.19
G1 X97.701 Y-5.623
G3 X98.148 Y-4.898 I0.001 J0.5
G2 X96.15 Y3.5 I16.652 J8.398
G1 X96.165 Y74.89
G3 X95.665 Y75.39 I-0.5 J0.
G1 X44.628 Y75.392
G3 X44.128 Y74.892 I0. J-0.5
G1 X44.132 Y62.5
G2 X40.212 Y51.061 I-18.65 J0.
G3 X49.822 Y21.404 I14.888 J-11.561
G2 X61.254 Y-4.895 I-5.222 J-17.904
G3 X61.7 Y-5.62 I0.446 J-0.225
G1 X101.651 Y-5.67
G3 X102.069 Y-4.895 I0.001 J0.5
G2 X99.55 Y3.5 I12.731 J8.395
G1 X99.565 Y74.89
G3 X99.065 Y75.39 I-0.5 J0.
G1 X41.228 Y75.388
G3 X40.728 Y74.887 I0. J-0.5
G1 X40.732 Y62.5
G2 X37.526 Y53.147 I-15.25 J0.
G3 X48.87 Y18.14 I17.574 J-13.647
G2 X57.334 Y-4.891 I-4.27 J-14.64
G3 X57.75 Y-5.667 I0.417 J-0.275
G1 X106.085 Y-5.752
G3 X106.439 Y-4.897 I0.001 J0.5
G2 X102.95 Y3.5 I8.361 J8.397
G1 X102.965 Y74.89
G3 X102.465 Y75.39 I-0.5 J0.
G1 X37.828 Y75.398
G3 X37.328 Y74.898 I0. J-0.5
G1 X37.332 Y62.5
G2 X34.841 Y55.232 I-11.85 J0.
G3 X47.918 Y14.876 I20.259 J-15.732
G2 X52.964 Y-4.894 I-3.318 J-11.376
G3 X53.316 Y-5.748 I0.353 J-0.354
G1 X113.813 Y-5.896
G3 X113.869 Y-4.899 I0.001 J0.5
G2 X106.35 Y3.5 I0.931 J8.399
G1 X106.365 Y74.89
G3 X105.865 Y75.39 I-0.5 J0.
G1 X34.428 Y75.394
G3 X33.928 Y74.893 I0. J-0.5
G1 X33.932 Y62.5
G2 X32.156 Y57.317 I-8.45 J0.
G3 X46.966 Y11.612 I22.944 J-17.817
G2 X45.52 Y-4.9 I-2.366 J-8.112
G1 X45.481 Y-4.904
X45.361 Y-4.917 Z-3.993
X45.243 Y-4.93 Z-3.971
X45.129 Y-4.943 Z-3.935
X45.019 Y-4.955 Z-3.885
X44.916 Y-4.966 Z-3.823
X44.822 Y-4.976 Z-3.749
X44.737 Y-4.986 Z-3.663
X44.663 Y-4.994 Z-3.568
X44.601 Y-5. Z-3.465
X44.552 Y-5.006 Z-3.355
X44.516 Y-5.01 Z-3.239
X44.494 Y-5.012 Z-3.121
X44.487 Y-5.013 Z-3.
G0 Z5.
X55.1 Y39.5
G1 Z-4. F2328.
G3 X55.016 Y39.778 I-0.5 J0.
G1 X31.397 Y75.164
G3 X30.482 Y74.887 I-0.416 J-0.278
G1 Y62.5
G2 X29.431 Y59.433 I-5. J0.
G3 X46. Y8.3 I25.669 J-19.933
G2 X44.6 Y-1.5 I-1.4 J-4.8
G1 X0.
X-4.586
G3 Y-2.5 I0. J-0.5
G1 X144.591
G3 Y-1.5 I0. J0.5
G1 X114.8
G2 X109.8 Y3.5 I0. J5.
G1 Y70.
Y74.897
G3 X109.322 Y75.397 I-0.5 J0.
G1 X68.449 Y77.164
G3 X67.927 Y76.664 I-0.022 J-0.5
G1 X67.928 Y76.548 Z-4.007
Y76.434 Z-4.027
Y76.322 Z-4.06
Y76.215 Z-4.106
Y76.115 Z-4.165
Y76.021 Z-4.234
Y75.937 Z-4.314
Y75.862 Z-4.403
Y75.798 Z-4.5
Y75.734 Z-4.597
Y75.659 Z-4.686
Y75.575 Z-4.766
Y75.482 Z-4.835
Y75.381 Z-4.894
Y75.274 Z-4.94
Y75.163 Z-4.973
Y75.048 Z-4.993
Y74.932 Z-5.
Y74.893
X67.933 Y62.5
G2 X65.627 Y48.762 I-42.085 J0.
G3 X67.046 Y47.492 I1.278 J0.
G2 X68.207 Y45.983 I0.122 J-1.107
X67.246 Y43.684 I-42.725 J16.517
G3 X67.391 Y43.234 I0.321 J-0.144
G2 X68.724 Y42.44 I-22.791 J-39.734
G3 X68.993 Y42.589 I0.093 J0.15
G1 Y47.531
X68.987 Y47.568
X68.968 Y47.6
X68.939 Y47.624
X68.904 Y47.637
X68.867 Y47.636
X68.832 Y47.623
X68.804 Y47.599
X68.786 Y47.566
G2 X68.207 Y45.983 I-43.304 J14.934
G3 X69.14 Y45.623 I0.466 J-0.18
X69.173 Y45.807 I-0.466 J0.18
G1 X68.928 Y74.897
G3 X67.928 Y74.893 I-0.5 J-0.004
G1 X67.933 Y62.5
G2 X62.709 Y42.192 I-42.085 J0.
G3 X62.842 Y41.782 I0.261 J-0.142
G2 X72.133 Y35.752 I-18.242 J-38.282
G3 X72.394 Y35.872 I0.103 J0.12
G1 Y74.895
G3 X71.894 Y75.395 I-0.5 J0.
G1 X65.028 Y75.389
G3 X64.528 Y74.888 I0. J-0.5
G1 X64.533 Y62.5
G2 X57.725 Y40.549 I-38.793 J0.
G3 X57.841 Y40.19 I0.198 J-0.135
G2 X75.552 Y27.237 I-13.241 J-36.69
G3 X75.794 Y27.319 I0.107 J0.082
G1 Y74.892
G3 X75.294 Y75.392 I-0.5 J0.
G1 X61.627 Y75.39
G3 X61.127 Y74.89 I0. J-0.5
G1 X61.132 Y62.5
G2 X53.639 Y40.635 I-35.65 J0.
G3 X54.582 Y37.724 I1.461 J-1.135
G2 X78.993 Y12.713 I-9.956 J-34.136
G1 X79.009 Y12.68
X79.035 Y12.654
X79.069 Y12.64
X79.105 Y12.638
X79.14 Y12.649
X79.169 Y12.672
X79.188 Y12.703
X79.194 Y12.739
Y74.895
G2 X80.194 Y74.901 I0.5 J0.
G1 X81.181 Y-4.771
G2 X80.195 Y-4.895 I-0.5 J-0.006
X79.807 Y-3.079 I34.605 J8.341
G1 X79.794 Y-3.044
X79.77 Y-3.015
X79.737 Y-2.997
X79.7 Y-2.99
X79.663 Y-2.997
X79.63 Y-3.015
X79.606 Y-3.044
X79.593 Y-3.079
G2 X79.204 Y-4.888 I-35.046 J6.589
G3 X79.687 Y-5.505 I0.486 J-0.118
G1 X83.177 Y-5.528
G3 X83.663 Y-4.898 I0.003 J0.5
G2 X82.55 Y3.5 I31.137 J8.398
G1 X82.567 Y74.89
G3 X82.067 Y75.39 I-0.5 J0.
G1 X58.228 Y75.396
G3 X57.727 Y74.895 I0. J-0.5
G1 X57.732 Y62.5
G2 X50.953 Y42.72 I-32.25 J0.
G3 X53.63 Y34.46 I4.147 J-3.22
G2 X75.738 Y-4.894 I-9.03 J-30.96
G3 X76.22 Y-5.525 I0.483 J-0.13
G1 X86.719 Y-5.541
G3 X87.199 Y-4.895 I0.001 J0.5
G2 X85.95 Y3.5 I27.601 J8.395
G1 X85.966 Y74.89
G3 X85.466 Y75.39 I-0.5 J0.
G1 X54.828 Y75.391
G3 X54.328 Y74.891 I0. J-0.5
G1 X54.332 Y62.5
G2 X48.268 Y44.805 I-28.85 J0.
G3 X52.678 Y31.196 I6.832 J-5.305
G2 X72.202 Y-4.892 I-8.078 J-27.696
G3 X72.68 Y-5.537 I0.478 J-0.145
G1 X90.302 Y-5.562
G3 X90.775 Y-4.897 I0.001 J0.5
G2 X89.35 Y3.5 I24.025 J8.397
G1 X89.366 Y74.89
G3 X88.866 Y75.39 I-0.5 J0.
G1 X51.428 Y75.386
G3 X50.928 Y74.886 I0. J-0.5
G1 X50.932 Y62.5
G2 X45.583 Y46.891 I-25.45 J0.
G3 X51.726 Y27.932 I9.517 J-7.391
G2 X68.626 Y-4.893 I-7.126 J-24.432
G3 X69.098 Y-5.558 I0.472 J-0.165
G1 X93.947 Y-5.584
G3 X94.41 Y-4.894 I0.001 J0.5
G2 X92.75 Y3.5 I20.39 J8.394
G1 X92.766 Y74.89
G3 X92.266 Y75.39 I-0.5 J0.
G1 X48.028 Y75.397
G3 X47.528 Y74.897 I0. J-0.5
G1 X47.532 Y62.5
G2 X42.897 Y48.976 I-22.05 J0.
G3 X50.774 Y24.668 I12.203 J-9.476
G2 X64.991 Y-4.89 I-6.174 J-21.168
G3 X65.453 Y-5.58 I0.462 J-0.19
G1 X97.701 Y-5.623
G3 X98.148 Y-4.898 I0.001 J0.5
G2 X96.15 Y3.5 I16.652 J8.398
G1 X96.165 Y74.89
G3 X95.665 Y75.39 I-0.5 J0.
G1 X44.628 Y75.392
G3 X44.128 Y74.892 I0. J-0.5
G1 X44.132 Y62.5
G2 X40.212 Y51.061 I-18.65 J0.
G3 X49.822 Y21.404 I14.888 J-11.561
G2 X61.254 Y-4.895 I-5.222 J-17.904
G3 X61.7 Y-5.62 I0.446 J-0.225
G1 X101.651 Y-5.67
G3 X102.069 Y-4.895 I0.001 J0.5
G2 X99.55 Y3.5 I12.731 J8.395
G1 X99.565 Y74.89
G3 X99.065 Y75.39 I-0.5 J0.
G1 X41.228 Y75.388
G3 X40.728 Y74.887 I0. J-0.5
G1 X40.732 Y62.5
G2 X37.526 Y53.147 I-15.25 J0.
G3 X48.87 Y18.14 I17.574 J-13.647
G2 X57.334 Y-4.891 I-4.27 J-14.64
G3 X57.75 Y-5.667 I0.417 J-0.275
G1 X106.085 Y-5.752
G3 X106.439 Y-4.897 I0.001 J0.5
G2 X102.95 Y3.5 I8.361 J8.397
G1 X102.965 Y74.89
G3 X102.465 Y75.39 I-0.5 J0.
G1 X37.828 Y75.398
G3 X37.328 Y74.898 I0. J-0.5
G1 X37.332 Y62.5
G2 X34.841 Y55.232 I-11.85 J0.
G3 X47.918 Y14.876 I20.259 J-15.732
G2 X52.964 Y-4.894 I-3.318 J-11.376
G3 X53.316 Y-5.748 I0.353 J-0.354
G1 X113.813 Y-5.896
G3 X113.869 Y-4.899 I0.001 J0.5
G2 X106.35 Y3.5 I0.931 J8.399
G1 X106.365 Y74.89
G3 X105.865 Y75.39 I-0.5 J0.
G1 X34.428 Y75.394
G3 X33.928 Y74.893 I0. J-0.5
G1 X33.932 Y62.5
G2 X32.156 Y57.317 I-8.45 J0.
G3 X46.966 Y11.612 I22.944 J-17.817
G2 X45.52 Y-4.9 I-2.366 J-8.112
G1 X45.481 Y-4.904
X45.361 Y-4.917 Z-4.993
X45.243 Y-4.93 Z-4.971
X45.129 Y-4.943 Z-4.935
X45.019 Y-4.955 Z-4.885
X44.916 Y-4.966 Z-4.823
X44.822 Y-4.976 Z-4.749
X44.737 Y-4.986 Z-4.663
X44.663 Y-4.994 Z-4.568
X44.601 Y-5. Z-4.465
X44.552 Y-5.006 Z-4.355
X44.516 Y-5.01 Z-4.239
X44.494 Y-5.012 Z-4.121
X44.487 Y-5.013 Z-4.
G0 Z5.
X55.1 Y39.5
G1 Z-5. F2328.
G3 X55.016 Y39.778 I-0.5 J0.
G1 X31.397 Y75.164
G3 X30.482 Y74.887 I-0.416 J-0.278
G1 Y62.5
G2 X29.431 Y59.433 I-5. J0.
G3 X46. Y8.3 I25.669 J-19.933
G2 X44.6 Y-1.5 I-1.4 J-4.8
G1 X0.
X-4.586
G3 Y-2.5 I0. J-0.5
G1 X144.591
G3 Y-1.5 I0. J0.5
G1 X114.8
G2 X109.8 Y3.5 I0. J5.
G1 Y70.
Y74.897
X109.797 Y74.976
X109.788 Y75.054
X109.494 Y76.906
X109.476 Y77.025 Z-4.993
X109.457 Y77.142 Z-4.971
X109.439 Y77.256 Z-4.935
X109.422 Y77.365 Z-4.885
X109.406 Y77.467 Z-4.823
X109.391 Y77.561 Z-4.749
X109.377 Y77.645 Z-4.663
X109.366 Y77.718 Z-4.568
X109.356 Y77.78 Z-4.465
X109.348 Y77.829 Z-4.355
X109.342 Y77.865 Z-4.239
X109.339 Y77.886 Z-4.121
X109.338 Y77.893 Z-4.
G0 Z10.

M9
M30
