(1001)
(T1  D=5.85 CR=0. - ZMIN=-11.2 - FLAT END MILL)
G90 G94 G91.1 G40 G49 G17
G21

(2D CONTOUR1)
M5
T1 M6
S10000 M3
G54
M8
G0 X70.585 Y58.32
G43 Z15. H1
Z5.
G1 Z1. F330.
Z-10.615
G19 G3 Y58.905 Z-11.2 J0.585 K0.
G1 Y59.49 F1440.
G17 G3 X70. Y60.075 I-0.585 J0.
G1 X55.523
X41.046 Y35.
X55.523 Y9.925
X84.477
X98.954 Y35.
X84.477 Y60.075
X55.523
X41.046 Y35.
X55.523 Y9.925
X84.477
X98.954 Y35.
X84.477 Y60.075
X70.
G3 X69.415 Y59.49 I0. J-0.585
G1 Y58.905
G19 G2 Y58.32 Z-10.615 J0. K0.585
G0 Z15.
G17

M9
M30
