(1001)
(T1  D=6. CR=0. - ZMIN=-8. - FLAT END MILL)
G90 G94 G91.1 G40 G49 G17
G21

(2D ADAPTIVE1)
M5
T1 M6
S10000 M3
G54
M8
G0 X70.801 Y37.735
G43 Z15. H1
Z5.
Z2.5
G3 X69.199 Y32.265 Z2.187 I-0.801 J-2.735 F1440.
X70.801 Y37.735 Z1.875 I0.801 J2.735
X69.199 Y32.265 Z1.562 I-0.801 J-2.735
X70.801 Y37.735 Z1.249 I0.801 J2.735
X69.199 Y32.265 Z0.937 I-0.801 J-2.735
X70.801 Y37.735 Z0.624 I0.801 J2.735
X69.199 Y32.265 Z0.311 I-0.801 J-2.735
X70.801 Y37.735 Z-0.001 I0.801 J2.735
X69.199 Y32.265 Z-0.314 I-0.801 J-2.735
X70.801 Y37.735 Z-0.627 I0.801 J2.735
X69.199 Y32.265 Z-0.939 I-0.801 J-2.735
X70.801 Y37.735 Z-1.252 I0.801 J2.735
X69.199 Y32.265 Z-1.565 I-0.801 J-2.735
X70.801 Y37.735 Z-1.877 I0.801 J2.735
X69.199 Y32.265 Z-2.19 I-0.801 J-2.735
X70.801 Y37.735 Z-2.503 I0.801 J2.735
X69.199 Y32.265 Z-2.815 I-0.801 J-2.735
X72.85 Y35. Z-3. I0.801 J2.735
X67.15 I-2.85 J0.
X72.85 I2.85 J0.
G1 X72.853 Y35.222
X73.006 Y36.094
X73.056 Y36.236
X73.09 Y36.382
X73.108 Y36.531
X73.113 Y36.681
X73.105 Y36.834
X73.082 Y36.998
X73.045 Y37.17
X72.99 Y37.349
X72.918 Y37.533
X72.826 Y37.72
X72.713 Y37.909
X72.58 Y38.097
X72.426 Y38.281
X72.251 Y38.459
X72.055 Y38.628
X71.838 Y38.787
X71.603 Y38.932
X71.349 Y39.062
X71.078 Y39.174
X70.792 Y39.265
X70.494 Y39.335
X70.185 Y39.382
X69.867 Y39.405
X69.544 Y39.401
X69.217 Y39.372
X68.889 Y39.315
X68.563 Y39.231
X68.242 Y39.121
X67.927 Y38.984
X67.623 Y38.82
X67.33 Y38.631
X67.052 Y38.418
X66.79 Y38.183
X66.546 Y37.925
X66.324 Y37.648
X66.123 Y37.353
X65.946 Y37.041
X65.795 Y36.715
X65.669 Y36.378
X65.571 Y36.03
X65.501 Y35.676
X65.46 Y35.316
X65.448 Y34.953
X65.465 Y34.59
X65.51 Y34.229
X65.585 Y33.873
X65.689 Y33.524
X65.82 Y33.183
X65.978 Y32.854
X66.162 Y32.539
X66.371 Y32.239
X66.603 Y31.957
X66.857 Y31.695
X67.132 Y31.453
X67.425 Y31.235
X67.735 Y31.04
X68.06 Y30.871
X68.397 Y30.729
X68.745 Y30.614
X69.1 Y30.527
X69.462 Y30.469
X69.827 Y30.44
X70.194 Y30.441
X70.559 Y30.471
X70.92 Y30.531
X71.276 Y30.619
X71.623 Y30.735
X71.96 Y30.879
X72.285 Y31.05
X72.594 Y31.246
X72.887 Y31.466
X73.162 Y31.709
X73.415 Y31.973
X73.647 Y32.257
X73.856 Y32.559
X74.152 Y33.071
X74.495 Y33.792
X74.703 Y34.338
X74.845 Y34.825
X74.937 Y35.274
X74.99 Y35.708
X75.008 Y36.128
X74.993 Y36.535
X74.945 Y36.932
X74.867 Y37.321
X74.758 Y37.7
X74.62 Y38.07
X74.451 Y38.429
X74.252 Y38.775
X74.025 Y39.107
X73.769 Y39.423
X73.486 Y39.721
X73.176 Y39.998
X72.84 Y40.252
X72.48 Y40.482
X72.097 Y40.686
X71.694 Y40.86
X71.272 Y41.003
X70.835 Y41.114
X70.385 Y41.189
X69.925 Y41.229
X69.458 Y41.232
X68.988 Y41.197
X68.518 Y41.124
X68.052 Y41.013
X67.592 Y40.863
X67.143 Y40.675
X66.708 Y40.451
X66.289 Y40.191
X65.891 Y39.896
X65.515 Y39.569
X65.166 Y39.211
X64.844 Y38.824
X64.554 Y38.412
X64.297 Y37.975
X64.075 Y37.518
X63.89 Y37.044
X63.743 Y36.555
X63.636 Y36.054
X63.569 Y35.546
X63.543 Y35.033
X63.558 Y34.519
X63.615 Y34.007
X63.713 Y33.5
X63.851 Y33.003
X64.029 Y32.517
X64.245 Y32.047
X64.499 Y31.596
X64.788 Y31.166
X65.111 Y30.761
X65.465 Y30.383
X65.849 Y30.034
X66.26 Y29.717
X66.695 Y29.434
X67.152 Y29.186
X67.627 Y28.976
X68.117 Y28.805
X68.62 Y28.674
X69.132 Y28.583
X69.649 Y28.534
X70.169 Y28.526
X70.687 Y28.561
X71.202 Y28.636
X71.708 Y28.753
X72.204 Y28.91
X72.686 Y29.107
X73.15 Y29.341
X73.594 Y29.612
X74.015 Y29.918
X74.443 Y30.285
X74.89 Y30.735
X75.308 Y31.23
X75.697 Y31.773
X76.04 Y32.345
X76.33 Y32.93
X76.567 Y33.522
X76.75 Y34.115
X76.882 Y34.708
X76.965 Y35.299
X77. Y35.886
X76.987 Y36.467
X76.928 Y37.04
X76.825 Y37.602
X76.677 Y38.152
X76.486 Y38.688
X76.252 Y39.206
X75.977 Y39.704
X75.663 Y40.181
X75.309 Y40.632
X74.918 Y41.057
X74.491 Y41.451
X74.031 Y41.812
X73.539 Y42.138
X73.018 Y42.426
X72.471 Y42.673
X71.901 Y42.877
X71.312 Y43.036
X70.707 Y43.149
X70.091 Y43.212
X69.467 Y43.226
X68.84 Y43.19
X68.213 Y43.103
X67.591 Y42.965
X66.979 Y42.777
X66.381 Y42.538
X65.8 Y42.251
X65.241 Y41.916
X64.709 Y41.536
X64.206 Y41.113
X63.738 Y40.648
X63.306 Y40.146
X62.915 Y39.608
X62.567 Y39.04
X62.265 Y38.443
X62.011 Y37.822
X61.807 Y37.182
X61.655 Y36.526
X61.556 Y35.858
X61.511 Y35.184
X61.52 Y34.507
X61.583 Y33.832
X61.701 Y33.164
X61.872 Y32.507
X62.095 Y31.865
X62.369 Y31.242
X62.693 Y30.643
X63.064 Y30.072
X63.48 Y29.532
X63.938 Y29.027
X64.435 Y28.56
X64.968 Y28.134
X65.534 Y27.752
X66.129 Y27.417
X66.749 Y27.131
X67.39 Y26.895
X68.049 Y26.712
X68.719 Y26.582
X69.399 Y26.506
X70.082 Y26.485
X70.765 Y26.518
X71.443 Y26.607
X72.111 Y26.749
X72.766 Y26.945
X73.404 Y27.193
X74.029 Y27.496
X74.649 Y27.861
X75.257 Y28.287
X75.846 Y28.775
X76.406 Y29.321
X76.926 Y29.917
X77.399 Y30.555
X77.819 Y31.229
X78.181 Y31.93
X78.484 Y32.652
X78.725 Y33.391
X78.905 Y34.139
X79.023 Y34.894
X79.08 Y35.649
X79.077 Y36.402
X79.013 Y37.148
X78.89 Y37.883
X78.709 Y38.603
X78.471 Y39.306
X78.177 Y39.986
X77.83 Y40.642
X77.431 Y41.269
X76.981 Y41.863
X76.483 Y42.421
X75.94 Y42.94
X75.353 Y43.416
X74.727 Y43.845
X74.065 Y44.226
X73.37 Y44.553
X72.647 Y44.826
X71.9 Y45.041
X71.134 Y45.196
X70.353 Y45.29
X69.562 Y45.321
X68.768 Y45.288
X67.974 Y45.191
X67.187 Y45.03
X66.411 Y44.805
X65.652 Y44.517
X64.915 Y44.168
X64.206 Y43.759
X63.53 Y43.292
X62.89 Y42.771
X62.293 Y42.198
X61.741 Y41.577
X61.24 Y40.912
X60.792 Y40.207
X60.402 Y39.466
X60.071 Y38.695
X59.803 Y37.898
X59.6 Y37.08
X59.462 Y36.247
X59.392 Y35.405
X59.389 Y34.559
X59.455 Y33.714
X59.588 Y32.876
X59.788 Y32.051
X60.054 Y31.243
X60.384 Y30.46
X60.776 Y29.704
X61.228 Y28.982
X61.737 Y28.299
X62.299 Y27.658
X62.911 Y27.064
X63.569 Y26.521
X64.269 Y26.032
X65.005 Y25.601
X65.775 Y25.23
X66.571 Y24.922
X67.39 Y24.679
X68.226 Y24.503
X69.074 Y24.394
X69.927 Y24.354
X70.781 Y24.382
X71.631 Y24.478
X72.471 Y24.643
X73.302 Y24.877
X74.119 Y25.179
X74.92 Y25.551
X75.692 Y25.988
X76.426 Y26.484
X77.119 Y27.036
X77.769 Y27.639
X78.371 Y28.289
X78.923 Y28.982
X79.422 Y29.714
X79.866 Y30.481
X80.251 Y31.279
X80.576 Y32.103
X80.839 Y32.95
X81.037 Y33.813
X81.169 Y34.69
X81.233 Y35.573
X81.23 Y36.459
X81.158 Y37.343
X81.018 Y38.218
X80.811 Y39.079
X80.537 Y39.922
X80.199 Y40.741
X79.798 Y41.531
X79.336 Y42.288
X78.818 Y43.006
X78.245 Y43.682
X77.622 Y44.313
X76.953 Y44.893
X76.241 Y45.421
X75.491 Y45.893
X74.708 Y46.307
X73.895 Y46.661
X73.059 Y46.953
X72.202 Y47.181
X71.332 Y47.346
X70.451 Y47.446
X69.566 Y47.48
X68.68 Y47.448
X67.8 Y47.351
X66.928 Y47.188
X66.071 Y46.963
X65.233 Y46.677
X64.417 Y46.331
X63.628 Y45.929
X62.869 Y45.471
X62.145 Y44.96
X61.459 Y44.398
X60.817 Y43.789
X60.219 Y43.134
X59.669 Y42.439
X59.17 Y41.707
X58.722 Y40.942
X58.329 Y40.148
X57.992 Y39.329
X57.714 Y38.487
X57.497 Y37.628
X57.342 Y36.756
X57.247 Y35.875
X57.214 Y34.989
X57.241 Y34.104
X57.329 Y33.222
X57.478 Y32.348
X57.689 Y31.488
X57.961 Y30.644
X58.29 Y29.822
X58.675 Y29.024
X59.115 Y28.254
X59.605 Y27.516
X60.145 Y26.813
X60.733 Y26.151
X61.367 Y25.531
X62.042 Y24.957
X62.755 Y24.432
X63.503 Y23.956
X64.281 Y23.532
X65.086 Y23.162
X65.915 Y22.849
X66.765 Y22.596
X67.629 Y22.403
X68.506 Y22.27
X69.389 Y22.198
X70.275 Y22.185
X71.16 Y22.233
X72.039 Y22.342
X72.908 Y22.513
X73.764 Y22.744
X74.602 Y23.032
X75.419 Y23.376
X76.211 Y23.772
X76.976 Y24.22
X77.708 Y24.719
X78.406 Y25.265
X79.067 Y25.855
X79.69 Y26.485
X80.272 Y27.153
X80.812 Y27.856
X81.306 Y28.592
X81.75 Y29.358
X82.146 Y30.151
X82.491 Y30.968
X82.784 Y31.804
X83.025 Y32.656
X83.211 Y33.523
X83.339 Y34.4
X83.41 Y35.283
X83.425 Y36.169
X83.382 Y37.054
X83.284 Y37.935
X83.129 Y38.807
X82.916 Y39.667
X82.647 Y40.511
X82.323 Y41.336
X81.947 Y42.139
X81.52 Y42.915
X81.045 Y43.663
X80.52 Y44.377
X79.95 Y45.056
X79.337 Y45.695
X78.684 Y46.294
X77.995 Y46.851
X77.272 Y47.364
X76.517 Y47.828
X75.734 Y48.242
X74.925 Y48.605
X74.096 Y48.917
X73.248 Y49.176
X72.387 Y49.383
X71.514 Y49.536
X70.633 Y49.631
X69.748 Y49.67
X68.862 Y49.654
X67.979 Y49.583
X67.101 Y49.458
X66.233 Y49.28
X65.378 Y49.048
X64.539 Y48.763
X63.719 Y48.427
X62.921 Y48.042
X62.147 Y47.61
X61.401 Y47.132
X60.685 Y46.61
X60.003 Y46.045
X59.357 Y45.438
X58.749 Y44.793
X58.181 Y44.113
X57.654 Y43.4
X57.17 Y42.658
X56.731 Y41.889
X56.339 Y41.094
X55.998 Y40.276
X55.706 Y39.44
X55.464 Y38.587
X55.273 Y37.722
X55.132 Y36.847
X55.044 Y35.965
X55.01 Y35.08
X55.029 Y34.194
X55.1 Y33.31
X55.223 Y32.433
X55.398 Y31.564
X55.623 Y30.707
X55.899 Y29.865
X56.226 Y29.042
X56.602 Y28.239
X57.023 Y27.459
X57.489 Y26.706
X57.998 Y25.981
X58.549 Y25.286
X59.141 Y24.627
X59.772 Y24.005
X60.439 Y23.421
X61.139 Y22.878
X61.869 Y22.376
X62.627 Y21.916
X63.41 Y21.502
X64.217 Y21.136
X65.045 Y20.82
X65.89 Y20.553
X66.749 Y20.336
X67.619 Y20.17
X68.498 Y20.054
X69.382 Y19.99
X70.268 Y19.978
X71.153 Y20.021
X72.034 Y20.115
X72.908 Y20.261
X73.772 Y20.457
X74.624 Y20.702
X75.46 Y20.996
X76.277 Y21.339
X77.073 Y21.728
X77.845 Y22.163
X78.592 Y22.64
X79.31 Y23.159
X80. Y23.715
X80.657 Y24.309
X81.281 Y24.939
X81.868 Y25.603
X82.417 Y26.298
X82.928 Y27.022
X83.399 Y27.773
X83.829 Y28.548
X84.216 Y29.345
X84.559 Y30.162
X84.856 Y30.997
X85.106 Y31.847
X85.309 Y32.709
X85.464 Y33.582
X85.571 Y34.461
X85.631 Y35.346
X85.641 Y36.232
X85.601 Y37.117
X85.511 Y37.998
X85.372 Y38.873
X85.184 Y39.739
X84.948 Y40.594
X84.667 Y41.434
X84.338 Y42.257
X83.964 Y43.06
X83.544 Y43.84
X83.081 Y44.596
X82.577 Y45.325
X82.033 Y46.024
X81.452 Y46.693
X80.835 Y47.329
X80.183 Y47.929
X79.498 Y48.491
X78.783 Y49.015
X78.04 Y49.498
X77.272 Y49.94
X76.481 Y50.34
X75.67 Y50.697
X74.84 Y51.008
X73.995 Y51.272
X73.136 Y51.49
X72.266 Y51.661
X71.389 Y51.785
X70.506 Y51.861
X69.62 Y51.89
X68.735 Y51.871
X67.851 Y51.803
X66.972 Y51.688
X66.101 Y51.526
X65.24 Y51.317
X64.391 Y51.063
X63.556 Y50.766
X62.739 Y50.424
X61.94 Y50.04
X61.164 Y49.613
X60.411 Y49.145
X59.684 Y48.639
X58.985 Y48.094
X58.315 Y47.514
X57.676 Y46.9
X57.07 Y46.254
X56.5 Y45.576
X55.965 Y44.869
X55.469 Y44.135
X55.011 Y43.376
X54.593 Y42.595
X54.216 Y41.793
X53.881 Y40.972
X53.59 Y40.135
X53.343 Y39.284
X53.141 Y38.422
X52.984 Y37.55
X52.872 Y36.671
X52.805 Y35.787
X52.784 Y34.901
X52.807 Y34.015
X52.878 Y33.132
X52.995 Y32.254
X53.157 Y31.382
X53.364 Y30.521
X53.615 Y29.671
X53.909 Y28.835
X54.245 Y28.015
X54.622 Y27.213
X55.042 Y26.433
X55.501 Y25.675
X55.998 Y24.942
X56.533 Y24.235
X57.104 Y23.557
X57.708 Y22.909
X58.344 Y22.292
X59.012 Y21.709
X59.709 Y21.162
X60.433 Y20.652
X61.182 Y20.179
X61.955 Y19.745
X62.749 Y19.351
X63.562 Y18.999
X64.392 Y18.688
X65.237 Y18.422
X66.095 Y18.199
X66.963 Y18.021
X67.839 Y17.887
X68.72 Y17.798
X69.605 Y17.755
X70.491 Y17.756
X71.376 Y17.803
X72.258 Y17.896
X73.133 Y18.034
X74. Y18.217
X74.857 Y18.443
X75.701 Y18.712
X76.531 Y19.023
X77.344 Y19.375
X78.139 Y19.767
X78.912 Y20.199
X79.663 Y20.669
X80.39 Y21.176
X81.092 Y21.717
X81.766 Y22.292
X82.412 Y22.899
X83.028 Y23.535
X83.613 Y24.201
X84.164 Y24.896
X84.68 Y25.616
X85.161 Y26.36
X85.607 Y27.126
X86.015 Y27.912
X86.385 Y28.718
X86.716 Y29.539
X87.008 Y30.376
X87.258 Y31.226
X87.465 Y32.088
X87.631 Y32.958
X87.755 Y33.836
X87.836 Y34.718
X87.875 Y35.603
X87.871 Y36.489
X87.824 Y37.374
X87.733 Y38.256
X87.598 Y39.132
X87.421 Y40.
X87.201 Y40.858
X86.94 Y41.705
X86.638 Y42.538
X86.296 Y43.355
X85.915 Y44.155
X85.494 Y44.935
X85.035 Y45.693
X84.539 Y46.427
X84.008 Y47.137
X83.443 Y47.82
X82.846 Y48.475
X82.218 Y49.1
X81.561 Y49.694
X80.875 Y50.255
X80.162 Y50.781
X79.424 Y51.273
X78.664 Y51.728
X77.883 Y52.146
X77.082 Y52.526
X76.265 Y52.868
X75.432 Y53.17
X74.586 Y53.433
X73.727 Y53.653
X72.859 Y53.831
X71.984 Y53.968
X71.103 Y54.063
X70.218 Y54.117
X69.332 Y54.128
X68.447 Y54.098
X67.563 Y54.026
X66.685 Y53.912
X65.812 Y53.755
X64.949 Y53.558
X64.095 Y53.321
X63.253 Y53.044
X62.425 Y52.728
X61.613 Y52.375
X60.817 Y51.984
X60.041 Y51.556
X59.287 Y51.091
X58.555 Y50.591
X57.847 Y50.058
X57.165 Y49.493
X56.509 Y48.897
X55.881 Y48.272
X55.283 Y47.619
X54.715 Y46.938
X54.18 Y46.232
X53.678 Y45.501
X53.211 Y44.748
X52.779 Y43.975
X52.383 Y43.182
X52.023 Y42.372
X51.701 Y41.547
X51.416 Y40.708
X51.171 Y39.856
X50.966 Y38.994
X50.801 Y38.123
X50.676 Y37.246
X50.591 Y36.364
X50.546 Y35.479
X50.541 Y34.593
X50.577 Y33.708
X50.652 Y32.825
X50.769 Y31.946
X50.926 Y31.074
X51.123 Y30.21
X51.36 Y29.356
X51.635 Y28.514
X51.947 Y27.685
X52.297 Y26.87
X52.683 Y26.073
X53.104 Y25.294
X53.562 Y24.535
X54.055 Y23.798
X54.58 Y23.085
X55.138 Y22.396
X55.726 Y21.733
X56.343 Y21.097
X56.988 Y20.49
X57.66 Y19.912
X58.358 Y19.366
X59.08 Y18.852
X59.825 Y18.373
X60.591 Y17.928
X61.377 Y17.518
X62.18 Y17.144
X63. Y16.806
X63.833 Y16.506
X64.68 Y16.244
X65.537 Y16.021
X66.404 Y15.838
X67.279 Y15.695
X68.159 Y15.591
X69.043 Y15.527
X69.929 Y15.504
X70.814 Y15.52
X71.699 Y15.575
X72.58 Y15.671
X73.455 Y15.807
X74.324 Y15.984
X75.183 Y16.199
X76.033 Y16.452
X76.87 Y16.743
X77.693 Y17.07
X78.501 Y17.434
X79.293 Y17.832
X80.066 Y18.265
X80.818 Y18.733
X81.55 Y19.234
X82.258 Y19.766
X82.943 Y20.328
X83.603 Y20.919
X84.237 Y21.538
X84.845 Y22.183
X85.423 Y22.854
X85.973 Y23.549
X86.491 Y24.268
X86.978 Y25.009
X87.432 Y25.769
X87.854 Y26.549
X88.242 Y27.345
X88.596 Y28.158
X88.914 Y28.985
X89.198 Y29.824
X89.445 Y30.675
X89.654 Y31.536
X89.825 Y32.406
X89.959 Y33.282
X90.054 Y34.163
X90.112 Y35.047
X90.132 Y35.933
X90.114 Y36.819
X90.058 Y37.703
X89.963 Y38.584
X89.829 Y39.46
X89.657 Y40.329
X89.447 Y41.19
X89.2 Y42.041
X88.916 Y42.881
X88.596 Y43.707
X88.241 Y44.519
X87.851 Y45.315
X87.427 Y46.093
X86.969 Y46.851
X86.478 Y47.589
X85.955 Y48.304
X85.401 Y48.996
X84.819 Y49.664
X84.208 Y50.306
X83.57 Y50.921
X82.906 Y51.508
X82.218 Y52.066
X81.506 Y52.593
X80.771 Y53.089
X80.016 Y53.552
X79.241 Y53.982
X78.449 Y54.379
X77.641 Y54.742
X76.818 Y55.071
X75.981 Y55.364
X75.133 Y55.621
X74.275 Y55.842
X73.408 Y56.025
X72.534 Y56.17
X71.654 Y56.278
X70.771 Y56.349
X69.886 Y56.382
X69. Y56.379
X68.114 Y56.338
X67.232 Y56.26
X66.353 Y56.145
X65.48 Y55.992
X64.615 Y55.802
X63.758 Y55.576
X62.911 Y55.314
X62.076 Y55.017
X61.254 Y54.687
X60.447 Y54.322
X59.655 Y53.924
X58.88 Y53.494
X58.125 Y53.03
X57.39 Y52.536
X56.676 Y52.011
X55.985 Y51.456
X55.317 Y50.874
X54.673 Y50.265
X54.055 Y49.63
X53.463 Y48.97
X52.9 Y48.287
X52.365 Y47.58
X51.86 Y46.852
X51.387 Y46.103
X50.944 Y45.335
X50.534 Y44.55
X50.156 Y43.748
X49.81 Y42.932
X49.499 Y42.103
X49.221 Y41.261
X48.978 Y40.409
X48.772 Y39.547
X48.601 Y38.678
X48.466 Y37.802
X48.368 Y36.921
X48.305 Y36.037
X48.278 Y35.152
X48.287 Y34.266
X48.332 Y33.381
X48.413 Y32.498
X48.53 Y31.62
X48.684 Y30.747
X48.874 Y29.882
X49.1 Y29.025
X49.36 Y28.178
X49.654 Y27.342
X49.981 Y26.518
X50.342 Y25.709
X50.735 Y24.915
X51.16 Y24.137
X51.617 Y23.378
X52.105 Y22.639
X52.624 Y21.92
X53.171 Y21.223
X53.746 Y20.549
X54.348 Y19.898
X54.975 Y19.272
X55.627 Y18.672
X56.303 Y18.099
X57.002 Y17.554
X57.723 Y17.039
X58.464 Y16.554
X59.225 Y16.1
X60.004 Y15.677
X60.799 Y15.286
X61.609 Y14.928
X62.433 Y14.602
X63.27 Y14.309
X64.118 Y14.051
X64.975 Y13.828
X65.842 Y13.641
X66.715 Y13.49
X67.593 Y13.375
X68.476 Y13.295
X69.361 Y13.251
X70.247 Y13.242
X71.133 Y13.269
X72.016 Y13.332
X72.897 Y13.43
X73.773 Y13.565
X74.643 Y13.736
X75.504 Y13.941
X76.357 Y14.182
X77.2 Y14.456
X78.031 Y14.763
X78.849 Y15.103
X79.654 Y15.475
X80.443 Y15.878
X81.215 Y16.313
X81.969 Y16.778
X82.704 Y17.273
X83.419 Y17.797
X84.112 Y18.349
X84.784 Y18.927
X85.433 Y19.53
X86.058 Y20.158
X86.659 Y20.81
X87.234 Y21.484
X87.782 Y22.18
X88.302 Y22.897
X88.794 Y23.634
X89.256 Y24.39
X89.689 Y25.163
X90.092 Y25.953
X90.465 Y26.757
X90.806 Y27.574
X91.116 Y28.405
X91.394 Y29.246
X91.639 Y30.098
X91.85 Y30.958
X92.027 Y31.827
X92.169 Y32.701
X92.278 Y33.581
X92.352 Y34.464
X92.392 Y35.349
X92.398 Y36.235
X92.37 Y37.121
X92.308 Y38.005
X92.211 Y38.885
X92.079 Y39.762
X91.912 Y40.632
X91.711 Y41.495
X91.476 Y42.349
X91.208 Y43.194
X90.908 Y44.028
X90.576 Y44.849
X90.212 Y45.657
X89.817 Y46.45
X89.391 Y47.227
X88.934 Y47.987
X88.448 Y48.727
X87.932 Y49.448
X87.389 Y50.148
X86.819 Y50.827
X86.224 Y51.483
X85.603 Y52.116
X84.959 Y52.724
X84.292 Y53.307
X83.602 Y53.863
X82.891 Y54.392
X82.159 Y54.892
X81.409 Y55.363
X80.641 Y55.805
X79.856 Y56.217
X79.056 Y56.598
X78.243 Y56.949
X77.416 Y57.269
X76.578 Y57.556
X75.729 Y57.812
X74.871 Y58.033
X74.005 Y58.221
X73.133 Y58.375
X72.255 Y58.495
X71.373 Y58.582
X70.488 Y58.636
X69.603 Y58.655
X68.717 Y58.642
X67.832 Y58.595
X66.949 Y58.514
X66.071 Y58.4
X65.197 Y58.251
X64.33 Y58.069
X63.47 Y57.853
X62.619 Y57.606
X61.778 Y57.327
X60.948 Y57.017
X60.13 Y56.676
X59.326 Y56.304
X58.536 Y55.903
X57.762 Y55.472
X57.005 Y55.011
X56.266 Y54.522
X55.546 Y54.005
X54.846 Y53.462
X54.167 Y52.893
X53.509 Y52.299
X52.874 Y51.681
X52.262 Y51.04
X51.675 Y50.377
X51.112 Y49.692
X50.576 Y48.986
X50.067 Y48.261
X49.586 Y47.517
X49.134 Y46.755
X48.709 Y45.977
X48.314 Y45.184
X47.949 Y44.377
X47.613 Y43.557
X47.307 Y42.725
X47.033 Y41.882
X46.79 Y41.03
X46.58 Y40.169
X46.403 Y39.301
X46.258 Y38.427
X46.145 Y37.548
X46.066 Y36.665
X46.018 Y35.78
X46.003 Y34.894
X46.02 Y34.008
X46.07 Y33.124
X46.152 Y32.241
X46.268 Y31.363
X46.417 Y30.489
X46.599 Y29.622
X46.813 Y28.762
X47.058 Y27.911
X47.334 Y27.069
X47.641 Y26.237
X47.978 Y25.418
X48.345 Y24.611
X48.741 Y23.818
X49.166 Y23.041
X49.62 Y22.28
X50.103 Y21.537
X50.613 Y20.813
X51.15 Y20.107
X51.712 Y19.422
X52.298 Y18.758
X52.909 Y18.116
X53.542 Y17.496
X54.197 Y16.9
X54.874 Y16.328
X55.573 Y15.782
X56.291 Y15.263
X57.028 Y14.771
X57.783 Y14.307
X58.554 Y13.871
X59.341 Y13.464
X60.142 Y13.085
X60.957 Y12.736
X61.783 Y12.417
X62.621 Y12.128
X63.469 Y11.87
X64.326 Y11.644
X65.191 Y11.451
X66.062 Y11.291
X66.939 Y11.162
X67.82 Y11.066
X68.703 Y11.002
X69.589 Y10.97
X70.475
X71.361 Y11.002
X72.244 Y11.067
X73.125 Y11.165
X74.002 Y11.295
X74.873 Y11.458
X75.737 Y11.653
X76.594 Y11.88
X77.442 Y12.137
X78.28 Y12.424
X79.107 Y12.741
X79.923 Y13.088
X80.725 Y13.463
X81.514 Y13.868
X82.287 Y14.3
X83.044 Y14.761
X83.784 Y15.25
X84.505 Y15.764
X85.208 Y16.304
X85.891 Y16.868
X86.554 Y17.456
X87.196 Y18.066
X87.817 Y18.699
X88.415 Y19.353
X88.989 Y20.028
X89.539 Y20.723
X90.063 Y21.437
X90.562 Y22.17
X91.034 Y22.919
X91.48 Y23.685
X91.898 Y24.466
X92.289 Y25.262
X92.653 Y26.07
X92.988 Y26.89
X93.294 Y27.722
X93.571 Y28.563
X93.817 Y29.415
X94.033 Y30.274
X94.217 Y31.141
X94.371 Y32.013
X94.494 Y32.891
X94.585 Y33.772
X94.646 Y34.656
X94.676 Y35.542
Y36.428
X94.644 Y37.314
X94.58 Y38.198
X94.485 Y39.079
X94.358 Y39.955
X94.199 Y40.827
X94.009 Y41.693
X93.788 Y42.551
X93.538 Y43.401
X93.257 Y44.242
X92.948 Y45.072
X92.717 Y45.629
X92.693 Y45.685
X92.666 Y45.74
X92.636 Y45.794
X90.569 Y49.374
X90.088 Y50.119
X89.603 Y50.86
X89.082 Y51.577
X88.528 Y52.269
X87.946 Y52.937
X87.336 Y53.58
X86.702 Y54.199
X86.046 Y54.794
X85.367 Y55.364
X84.668 Y55.909
X83.95 Y56.428
X83.214 Y56.921
X82.461 Y57.388
X81.692 Y57.828
X80.908 Y58.241
X80.11 Y58.626
X79.298 Y58.982
X78.475 Y59.31
X77.64 Y59.608
X76.796 Y59.877
X76.539 Y59.948
X76.415 Y59.977
X76.289 Y59.994
X76.162 Y60.
X64.967
X64.082 Y59.956
X63.2 Y59.868
X62.328 Y59.712
X61.467 Y59.5
X60.619 Y59.242
X59.785 Y58.944
X58.964 Y58.609
X58.158 Y58.242
X57.367 Y57.844
X56.591 Y57.416
X55.831 Y56.959
X55.088 Y56.476
X54.364 Y55.966
X53.657 Y55.431
X52.97 Y54.872
X52.411 Y54.384
X52.301 Y54.277
X52.203 Y54.158
X52.119 Y54.029
X45.485 Y42.539
X45.081 Y41.75
X44.747 Y40.981
X44.46 Y40.142
X44.233 Y39.286
X44.054 Y38.418
X43.92 Y37.542
X43.824 Y36.661
X43.765 Y35.777
X43.74 Y34.891
X43.748 Y34.005
X43.789 Y33.12
X43.862 Y32.237
X43.967 Y31.357
X44.102 Y30.481
X44.234 Y29.786
X44.271 Y29.633
X44.326 Y29.486
X44.397 Y29.346
X51.276 Y17.431
X51.757 Y16.687
X52.245 Y16.027
X52.828 Y15.359
X53.457 Y14.735
X54.121 Y14.149
X54.815 Y13.598
X55.533 Y13.079
X56.273 Y12.591
X57.031 Y12.132
X57.805 Y11.701
X58.595 Y11.298
X59.398 Y10.924
X60.213 Y10.577
X61.04 Y10.258
X61.562 Y10.077
X61.711 Y10.034
X61.865 Y10.009
X62.02 Y10.
X75.839
X76.724 Y10.044
X77.164 Y10.091
X78.041 Y10.222
X78.904 Y10.423
X79.752 Y10.678
X80.585 Y10.98
X81.403 Y11.321
X82.206 Y11.697
X82.992 Y12.105
X83.763 Y12.543
X84.517 Y13.008
X85.255 Y13.499
X85.975 Y14.015
X86.678 Y14.555
X87.215 Y14.996
X87.338 Y15.11
X87.446 Y15.238
X87.539 Y15.377
X95.328 Y28.868
X95.732 Y29.657
X96.041 Y30.397
X96.315 Y31.24
X96.528 Y32.1
X96.69 Y32.971
X96.808 Y33.849
X96.887 Y34.732
X96.93 Y35.617
X96.939 Y36.503
X96.915 Y37.389
X96.866 Y38.175
X96.836 Y38.388
X96.774 Y38.593
X96.681 Y38.787
X92.636 Y45.794
G3 X91.535 Y45.378 I-0.509 J-0.318
G1 X94.227 Y29.088
G3 X95.328 Y28.868 I0.592 J0.098
G1 X97.985 Y33.471
X98.258 Y34.004
X98.449 Y34.464
X98.519 Y34.68
X98.58 Y34.966
X98.579 Y35.259
X98.518 Y35.544
X98.399 Y35.811
G3 X97.308 Y35.635 I-0.509 J-0.318
G1 X96.893 Y33.931
G3 X97.985 Y33.471 I0.583 J-0.142
G1 X98.694 Y34.698
X98.72 Y34.749
X98.74 Y34.799
X98.767 Y34.899
X98.775 Y35.
X98.767 Y35.101
X98.74 Y35.201
X98.72 Y35.251
X98.694 Y35.302
X96.681 Y38.787
G3 X95.997 Y39.043 I-0.509 J-0.318
G1 X95.907 Y39.016 Z-2.993
X95.82 Y38.989 Z-2.971
X95.737 Y38.963 Z-2.935
X95.66 Y38.94 Z-2.885
X95.591 Y38.919 Z-2.824
X95.533 Y38.901 Z-2.753
X95.486 Y38.887 Z-2.672
X95.451 Y38.876 Z-2.585
X95.43 Y38.87 Z-2.494
X95.423 Y38.868 Z-2.4
G0 Z5.
X74.569 Y10.528
Z-1.8
G1 Z-2.4 F1440.
X74.576 Y10.524 Z-2.494
X74.595 Y10.513 Z-2.585
X74.626 Y10.495 Z-2.672
X74.668 Y10.469 Z-2.753
X74.72 Y10.438 Z-2.824
X74.782 Y10.402 Z-2.885
X74.851 Y10.361 Z-2.935
X74.926 Y10.316 Z-2.971
X75.004 Y10.269 Z-2.993
X75.085 Y10.221 Z-3.
G3 X75.839 Y10. I0.809 J1.36
G1 X81.476
X82.043 Y10.028
X82.556 Y10.096
X83.169 Y10.227
X83.878 Y10.439
X84.464 Y10.667
X84.742 Y10.814
X84.981 Y11.019
X85.168 Y11.272
G3 X84.464 Y12.128 I-0.53 J0.282
G1 X81.323 Y11.174
G3 X81.476 Y10. I0.174 J-0.574
G1 X84.093
X84.194 Y10.012
X84.295 Y10.039
X84.345 Y10.06
X84.395 Y10.087
X84.446 Y10.12
X84.496 Y10.162
X84.506 Y10.172
X84.553 Y10.222
X84.59 Y10.272
X84.697 Y10.456
X87.539 Y15.377
G3 X87.418 Y16.098 I-0.53 J0.282
G1 X87.349 Y16.162 Z-2.993
X87.282 Y16.224 Z-2.971
X87.219 Y16.284 Z-2.935
X87.16 Y16.338 Z-2.885
X87.108 Y16.387 Z-2.824
X87.063 Y16.429 Z-2.753
X87.027 Y16.463 Z-2.672
X87.001 Y16.487 Z-2.585
X86.985 Y16.502 Z-2.494
X86.979 Y16.507 Z-2.4
G0 Z5.
X90.746 Y48.011
Z-1.8
G1 Z-2.4 F1440.
Y48.018 Z-2.494
Y48.04 Z-2.585
X90.747 Y48.076 Z-2.672
X90.748 Y48.126 Z-2.753
Y48.187 Z-2.824
X90.749 Y48.258 Z-2.885
X90.75 Y48.339 Z-2.935
X90.751 Y48.426 Z-2.971
X90.753 Y48.517 Z-2.993
X90.754 Y48.611 Z-3.
G3 X90.569 Y49.374 I-1.582 J0.02
G1 X86.738 Y56.009
X86.347 Y56.614
X85.974 Y57.101
X85.473 Y57.656
X84.829 Y58.264
X84.138 Y58.819
X83.415 Y59.33
X82.665 Y59.802
X82.636 Y59.818
X82.418 Y59.918
X82.186 Y59.979
X81.946 Y60.
G3 X81.575 Y58.947 I0.021 J-0.6
G1 X85.816 Y55.273
G3 X86.738 Y56.009 I0.393 J0.454
G1 X84.649 Y59.627
X84.59 Y59.728
X84.553 Y59.778
X84.506 Y59.828
X84.496 Y59.838
X84.446 Y59.88
X84.395 Y59.913
X84.345 Y59.94
X84.295 Y59.961
X84.194 Y59.988
X84.093 Y60.
X76.162
G3 X75.599 Y59.535 I0.021 J-0.6
G1 X75.578 Y59.444 Z-2.993
X75.557 Y59.355 Z-2.971
X75.537 Y59.27 Z-2.935
X75.519 Y59.192 Z-2.885
X75.503 Y59.122 Z-2.824
X75.489 Y59.062 Z-2.753
X75.478 Y59.014 Z-2.672
X75.47 Y58.979 Z-2.585
X75.465 Y58.958 Z-2.494
X75.464 Y58.951 Z-2.4
G0 Z5.
X46.577 Y43.374
Z-1.8
G1 Z-2.4 F1440.
X46.571 Y43.371 Z-2.494
X46.551 Y43.36 Z-2.585
X46.52 Y43.342 Z-2.672
X46.477 Y43.318 Z-2.753
X46.424 Y43.288 Z-2.824
X46.361 Y43.253 Z-2.885
X46.291 Y43.214 Z-2.935
X46.215 Y43.172 Z-2.971
X46.135 Y43.127 Z-2.993
X46.054 Y43.081 Z-3.
G3 X45.485 Y42.539 I0.774 J-1.381
G1 X42.699 Y37.714
X42.422 Y37.173
X42.223 Y36.693
X42.035 Y36.111
X41.863 Y35.386
X41.729 Y34.51
X41.725 Y34.459
X41.732 Y34.181
X41.794 Y33.909
X41.909 Y33.656
G3 X43.002 Y33.839 I0.509 J0.318
G1 X43.793 Y37.261
G3 X42.699 Y37.714 I-0.585 J0.135
G1 X41.307 Y35.302
X41.28 Y35.251
X41.26 Y35.201
X41.234 Y35.101
X41.225 Y35.
X41.234 Y34.899
X41.26 Y34.799
X41.28 Y34.749
X41.307 Y34.698
X44.397 Y29.346
G3 X45.081 Y29.091 I0.509 J0.318
G1 X45.171 Y29.118 Z-2.993
X45.258 Y29.145 Z-2.971
X45.341 Y29.17 Z-2.935
X45.418 Y29.194 Z-2.885
X45.487 Y29.215 Z-2.824
X45.545 Y29.233 Z-2.753
X45.592 Y29.247 Z-2.672
X45.627 Y29.257 Z-2.585
X45.648 Y29.264 Z-2.494
X45.655 Y29.266 Z-2.4
G0 Z5.
X66.236 Y59.472
Z-1.8
G1 Z-2.4 F1440.
X66.23 Y59.476 Z-2.494
X66.211 Y59.487 Z-2.585
X66.18 Y59.505 Z-2.672
X66.137 Y59.531 Z-2.753
X66.085 Y59.562 Z-2.824
X66.023 Y59.598 Z-2.885
X65.954 Y59.639 Z-2.935
X65.88 Y59.684 Z-2.971
X65.801 Y59.731 Z-2.993
X65.72 Y59.779 Z-3.
G3 X64.967 Y60. I-0.809 J-1.36
G1 X58.927
X58.395 Y59.973
X57.859 Y59.903
X57.22 Y59.766
X56.482 Y59.545
X55.656 Y59.224
X55.304 Y59.055
X55.065 Y58.91
X54.859 Y58.72
X54.696 Y58.492
G3 X55.41 Y57.64 I0.53 J-0.282
G1 X59.09 Y58.829
G3 X58.927 Y60. I-0.185 J0.571
G1 X55.907
X55.806 Y59.988
X55.705 Y59.961
X55.655 Y59.94
X55.605 Y59.913
X55.554 Y59.88
X55.504 Y59.838
X55.494 Y59.828
X55.447 Y59.778
X55.41 Y59.728
X55.303 Y59.543
X52.119 Y54.029
G3 X52.24 Y53.309 I0.53 J-0.282
G1 X52.308 Y53.245 Z-2.993
X52.375 Y53.182 Z-2.971
X52.439 Y53.123 Z-2.935
X52.498 Y53.068 Z-2.885
X52.55 Y53.019 Z-2.824
X52.595 Y52.978 Z-2.753
X52.631 Y52.944 Z-2.672
X52.657 Y52.92 Z-2.585
X52.673 Y52.905 Z-2.494
X52.678 Y52.9 Z-2.4
G0 Z5.
X51.099 Y18.794
Z-1.8
G1 Z-2.4 F1440.
X51.098 Y18.787 Z-2.494
Y18.765 Z-2.585
Y18.729 Z-2.672
X51.097 Y18.68 Z-2.753
X51.096 Y18.618 Z-2.824
X51.095 Y18.547 Z-2.885
X51.094 Y18.467 Z-2.935
X51.093 Y18.38 Z-2.971
X51.092 Y18.288 Z-2.993
X51.091 Y18.194 Z-3.
G3 X51.276 Y17.431 I1.582 J-0.02
G1 X54.074 Y12.584
X54.349 Y12.158
X54.659 Y11.754
X55.067 Y11.302
X55.606 Y10.794
X56.213 Y10.308
X56.479 Y10.14
X56.776 Y10.035
X57.088 Y10.
G3 X57.474 Y11.041 I-0.021 J0.6
G1 X55.01 Y13.307
G3 X54.074 Y12.584 I-0.406 J-0.442
G1 X55.351 Y10.373
X55.41 Y10.272
X55.447 Y10.222
X55.494 Y10.172
X55.504 Y10.162
X55.554 Y10.12
X55.605 Y10.087
X55.655 Y10.06
X55.705 Y10.039
X55.806 Y10.012
X55.907 Y10.
X62.02
X62.112 Y10.01
X62.201 Y10.035
X62.265 Y10.072 Z-2.995
X62.328 Y10.108 Z-2.982
X62.389 Y10.144 Z-2.959
X62.439 Y10.205 Z-2.921
X62.485 Y10.262 Z-2.871
X62.526 Y10.312 Z-2.812
X62.546 Y10.365 Z-2.741
X62.562 Y10.408 Z-2.663
X62.574 Y10.439 Z-2.579
X62.581 Y10.458 Z-2.491
X62.584 Y10.465 Z-2.4
G0 Z5.
X70.801 Y37.735
Z-0.5
G3 X69.199 Y32.265 Z-0.813 I-0.801 J-2.735 F1440.
X70.801 Y37.735 Z-1.125 I0.801 J2.735
X69.199 Y32.265 Z-1.438 I-0.801 J-2.735
X70.801 Y37.735 Z-1.751 I0.801 J2.735
X69.199 Y32.265 Z-2.063 I-0.801 J-2.735
X70.801 Y37.735 Z-2.376 I0.801 J2.735
X69.199 Y32.265 Z-2.689 I-0.801 J-2.735
X70.801 Y37.735 Z-3.001 I0.801 J2.735
X69.199 Y32.265 Z-3.314 I-0.801 J-2.735
X70.801 Y37.735 Z-3.627 I0.801 J2.735
X69.199 Y32.265 Z-3.939 I-0.801 J-2.735
X70.801 Y37.735 Z-4.252 I0.801 J2.735
X69.199 Y32.265 Z-4.565 I-0.801 J-2.735
X70.801 Y37.735 Z-4.877 I0.801 J2.735
X69.199 Y32.265 Z-5.19 I-0.801 J-2.735
X70.801 Y37.735 Z-5.503 I0.801 J2.735
X69.199 Y32.265 Z-5.815 I-0.801 J-2.735
X72.85 Y35. Z-6. I0.801 J2.735
X67.15 I-2.85 J0.
X72.85 I2.85 J0.
G1 X72.853 Y35.222
X73.006 Y36.094
X73.056 Y36.236
X73.09 Y36.382
X73.108 Y36.531
X73.113 Y36.681
X73.105 Y36.834
X73.082 Y36.998
X73.045 Y37.17
X72.99 Y37.349
X72.918 Y37.533
X72.826 Y37.72
X72.713 Y37.909
X72.58 Y38.097
X72.426 Y38.281
X72.251 Y38.459
X72.055 Y38.628
X71.838 Y38.787
X71.603 Y38.932
X71.349 Y39.062
X71.078 Y39.174
X70.792 Y39.265
X70.494 Y39.335
X70.185 Y39.382
X69.867 Y39.405
X69.544 Y39.401
X69.217 Y39.372
X68.889 Y39.315
X68.563 Y39.231
X68.242 Y39.121
X67.927 Y38.984
X67.623 Y38.82
X67.33 Y38.631
X67.052 Y38.418
X66.79 Y38.183
X66.546 Y37.925
X66.324 Y37.648
X66.123 Y37.353
X65.946 Y37.041
X65.795 Y36.715
X65.669 Y36.378
X65.571 Y36.03
X65.501 Y35.676
X65.46 Y35.316
X65.448 Y34.953
X65.465 Y34.59
X65.51 Y34.229
X65.585 Y33.873
X65.689 Y33.524
X65.82 Y33.183
X65.978 Y32.854
X66.162 Y32.539
X66.371 Y32.239
X66.603 Y31.957
X66.857 Y31.695
X67.132 Y31.453
X67.425 Y31.235
X67.735 Y31.04
X68.06 Y30.871
X68.397 Y30.729
X68.745 Y30.614
X69.1 Y30.527
X69.462 Y30.469
X69.827 Y30.44
X70.194 Y30.441
X70.559 Y30.471
X70.92 Y30.531
X71.276 Y30.619
X71.623 Y30.735
X71.96 Y30.879
X72.285 Y31.05
X72.594 Y31.246
X72.887 Y31.466
X73.162 Y31.709
X73.415 Y31.973
X73.647 Y32.257
X73.856 Y32.559
X74.152 Y33.071
X74.495 Y33.792
X74.703 Y34.338
X74.845 Y34.825
X74.937 Y35.274
X74.99 Y35.708
X75.008 Y36.128
X74.993 Y36.535
X74.945 Y36.932
X74.867 Y37.321
X74.758 Y37.7
X74.62 Y38.07
X74.451 Y38.429
X74.252 Y38.775
X74.025 Y39.107
X73.769 Y39.423
X73.486 Y39.721
X73.176 Y39.998
X72.84 Y40.252
X72.48 Y40.482
X72.097 Y40.686
X71.694 Y40.86
X71.272 Y41.003
X70.835 Y41.114
X70.385 Y41.189
X69.925 Y41.229
X69.458 Y41.232
X68.988 Y41.197
X68.518 Y41.124
X68.052 Y41.013
X67.592 Y40.863
X67.143 Y40.675
X66.708 Y40.451
X66.289 Y40.191
X65.891 Y39.896
X65.515 Y39.569
X65.166 Y39.211
X64.844 Y38.824
X64.554 Y38.412
X64.297 Y37.975
X64.075 Y37.518
X63.89 Y37.044
X63.743 Y36.555
X63.636 Y36.054
X63.569 Y35.546
X63.543 Y35.033
X63.558 Y34.519
X63.615 Y34.007
X63.713 Y33.5
X63.851 Y33.003
X64.029 Y32.517
X64.245 Y32.047
X64.499 Y31.596
X64.788 Y31.166
X65.111 Y30.761
X65.465 Y30.383
X65.849 Y30.034
X66.26 Y29.717
X66.695 Y29.434
X67.152 Y29.186
X67.627 Y28.976
X68.117 Y28.805
X68.62 Y28.674
X69.132 Y28.583
X69.649 Y28.534
X70.169 Y28.526
X70.687 Y28.561
X71.202 Y28.636
X71.708 Y28.753
X72.204 Y28.91
X72.686 Y29.107
X73.15 Y29.341
X73.594 Y29.612
X74.015 Y29.918
X74.443 Y30.285
X74.89 Y30.735
X75.308 Y31.23
X75.697 Y31.773
X76.04 Y32.345
X76.33 Y32.93
X76.567 Y33.522
X76.75 Y34.115
X76.882 Y34.708
X76.965 Y35.299
X77. Y35.886
X76.987 Y36.467
X76.928 Y37.04
X76.825 Y37.602
X76.677 Y38.152
X76.486 Y38.688
X76.252 Y39.206
X75.977 Y39.704
X75.663 Y40.181
X75.309 Y40.632
X74.918 Y41.057
X74.491 Y41.451
X74.031 Y41.812
X73.539 Y42.138
X73.018 Y42.426
X72.471 Y42.673
X71.901 Y42.877
X71.312 Y43.036
X70.707 Y43.149
X70.091 Y43.212
X69.467 Y43.226
X68.84 Y43.19
X68.213 Y43.103
X67.591 Y42.965
X66.979 Y42.777
X66.381 Y42.538
X65.8 Y42.251
X65.241 Y41.916
X64.709 Y41.536
X64.206 Y41.113
X63.738 Y40.648
X63.306 Y40.146
X62.915 Y39.608
X62.567 Y39.04
X62.265 Y38.443
X62.011 Y37.822
X61.807 Y37.182
X61.655 Y36.526
X61.556 Y35.858
X61.511 Y35.184
X61.52 Y34.507
X61.583 Y33.832
X61.701 Y33.164
X61.872 Y32.507
X62.095 Y31.865
X62.369 Y31.242
X62.693 Y30.643
X63.064 Y30.072
X63.48 Y29.532
X63.938 Y29.027
X64.435 Y28.56
X64.968 Y28.134
X65.534 Y27.752
X66.129 Y27.417
X66.749 Y27.131
X67.39 Y26.895
X68.049 Y26.712
X68.719 Y26.582
X69.399 Y26.506
X70.082 Y26.485
X70.765 Y26.518
X71.443 Y26.607
X72.111 Y26.749
X72.766 Y26.945
X73.404 Y27.193
X74.029 Y27.496
X74.649 Y27.861
X75.257 Y28.287
X75.846 Y28.775
X76.406 Y29.321
X76.926 Y29.917
X77.399 Y30.555
X77.819 Y31.229
X78.181 Y31.93
X78.484 Y32.652
X78.725 Y33.391
X78.905 Y34.139
X79.023 Y34.894
X79.08 Y35.649
X79.077 Y36.402
X79.013 Y37.148
X78.89 Y37.883
X78.709 Y38.603
X78.471 Y39.306
X78.177 Y39.986
X77.83 Y40.642
X77.431 Y41.269
X76.981 Y41.863
X76.483 Y42.421
X75.94 Y42.94
X75.353 Y43.416
X74.727 Y43.845
X74.065 Y44.226
X73.37 Y44.553
X72.647 Y44.826
X71.9 Y45.041
X71.134 Y45.196
X70.353 Y45.29
X69.562 Y45.321
X68.768 Y45.288
X67.974 Y45.191
X67.187 Y45.03
X66.411 Y44.805
X65.652 Y44.517
X64.915 Y44.168
X64.206 Y43.759
X63.53 Y43.292
X62.89 Y42.771
X62.293 Y42.198
X61.741 Y41.577
X61.24 Y40.912
X60.792 Y40.207
X60.402 Y39.466
X60.071 Y38.695
X59.803 Y37.898
X59.6 Y37.08
X59.462 Y36.247
X59.392 Y35.405
X59.389 Y34.559
X59.455 Y33.714
X59.588 Y32.876
X59.788 Y32.051
X60.054 Y31.243
X60.384 Y30.46
X60.776 Y29.704
X61.228 Y28.982
X61.737 Y28.299
X62.299 Y27.658
X62.911 Y27.064
X63.569 Y26.521
X64.269 Y26.032
X65.005 Y25.601
X65.775 Y25.23
X66.571 Y24.922
X67.39 Y24.679
X68.226 Y24.503
X69.074 Y24.394
X69.927 Y24.354
X70.781 Y24.382
X71.631 Y24.478
X72.471 Y24.643
X73.302 Y24.877
X74.119 Y25.179
X74.92 Y25.551
X75.692 Y25.988
X76.426 Y26.484
X77.119 Y27.036
X77.769 Y27.639
X78.371 Y28.289
X78.923 Y28.982
X79.422 Y29.714
X79.866 Y30.481
X80.251 Y31.279
X80.576 Y32.103
X80.839 Y32.95
X81.037 Y33.813
X81.169 Y34.69
X81.233 Y35.573
X81.23 Y36.459
X81.158 Y37.343
X81.018 Y38.218
X80.811 Y39.079
X80.537 Y39.922
X80.199 Y40.741
X79.798 Y41.531
X79.336 Y42.288
X78.818 Y43.006
X78.245 Y43.682
X77.622 Y44.313
X76.953 Y44.893
X76.241 Y45.421
X75.491 Y45.893
X74.708 Y46.307
X73.895 Y46.661
X73.059 Y46.953
X72.202 Y47.181
X71.332 Y47.346
X70.451 Y47.446
X69.566 Y47.48
X68.68 Y47.448
X67.8 Y47.351
X66.928 Y47.188
X66.071 Y46.963
X65.233 Y46.677
X64.417 Y46.331
X63.628 Y45.929
X62.869 Y45.471
X62.145 Y44.96
X61.459 Y44.398
X60.817 Y43.789
X60.219 Y43.134
X59.669 Y42.439
X59.17 Y41.707
X58.722 Y40.942
X58.329 Y40.148
X57.992 Y39.329
X57.714 Y38.487
X57.497 Y37.628
X57.342 Y36.756
X57.247 Y35.875
X57.214 Y34.989
X57.241 Y34.104
X57.329 Y33.222
X57.478 Y32.348
X57.689 Y31.488
X57.961 Y30.644
X58.29 Y29.822
X58.675 Y29.024
X59.115 Y28.254
X59.605 Y27.516
X60.145 Y26.813
X60.733 Y26.151
X61.367 Y25.531
X62.042 Y24.957
X62.755 Y24.432
X63.503 Y23.956
X64.281 Y23.532
X65.086 Y23.162
X65.915 Y22.849
X66.765 Y22.596
X67.629 Y22.403
X68.506 Y22.27
X69.389 Y22.198
X70.275 Y22.185
X71.16 Y22.233
X72.039 Y22.342
X72.908 Y22.513
X73.764 Y22.744
X74.602 Y23.032
X75.419 Y23.376
X76.211 Y23.772
X76.976 Y24.22
X77.708 Y24.719
X78.406 Y25.265
X79.067 Y25.855
X79.69 Y26.485
X80.272 Y27.153
X80.812 Y27.856
X81.306 Y28.592
X81.75 Y29.358
X82.146 Y30.151
X82.491 Y30.968
X82.784 Y31.804
X83.025 Y32.656
X83.211 Y33.523
X83.339 Y34.4
X83.41 Y35.283
X83.425 Y36.169
X83.382 Y37.054
X83.284 Y37.935
X83.129 Y38.807
X82.916 Y39.667
X82.647 Y40.511
X82.323 Y41.336
X81.947 Y42.139
X81.52 Y42.915
X81.045 Y43.663
X80.52 Y44.377
X79.95 Y45.056
X79.337 Y45.695
X78.684 Y46.294
X77.995 Y46.851
X77.272 Y47.364
X76.517 Y47.828
X75.734 Y48.242
X74.925 Y48.605
X74.096 Y48.917
X73.248 Y49.176
X72.387 Y49.383
X71.514 Y49.536
X70.633 Y49.631
X69.748 Y49.67
X68.862 Y49.654
X67.979 Y49.583
X67.101 Y49.458
X66.233 Y49.28
X65.378 Y49.048
X64.539 Y48.763
X63.719 Y48.427
X62.921 Y48.042
X62.147 Y47.61
X61.401 Y47.132
X60.685 Y46.61
X60.003 Y46.045
X59.357 Y45.438
X58.749 Y44.793
X58.181 Y44.113
X57.654 Y43.4
X57.17 Y42.658
X56.731 Y41.889
X56.339 Y41.094
X55.998 Y40.276
X55.706 Y39.44
X55.464 Y38.587
X55.273 Y37.722
X55.132 Y36.847
X55.044 Y35.965
X55.01 Y35.08
X55.029 Y34.194
X55.1 Y33.31
X55.223 Y32.433
X55.398 Y31.564
X55.623 Y30.707
X55.899 Y29.865
X56.226 Y29.042
X56.602 Y28.239
X57.023 Y27.459
X57.489 Y26.706
X57.998 Y25.981
X58.549 Y25.286
X59.141 Y24.627
X59.772 Y24.005
X60.439 Y23.421
X61.139 Y22.878
X61.869 Y22.376
X62.627 Y21.916
X63.41 Y21.502
X64.217 Y21.136
X65.045 Y20.82
X65.89 Y20.553
X66.749 Y20.336
X67.619 Y20.17
X68.498 Y20.054
X69.382 Y19.99
X70.268 Y19.978
X71.153 Y20.021
X72.034 Y20.115
X72.908 Y20.261
X73.772 Y20.457
X74.624 Y20.702
X75.46 Y20.996
X76.277 Y21.339
X77.073 Y21.728
X77.845 Y22.163
X78.592 Y22.64
X79.31 Y23.159
X80. Y23.715
X80.657 Y24.309
X81.281 Y24.939
X81.868 Y25.603
X82.417 Y26.298
X82.928 Y27.022
X83.399 Y27.773
X83.829 Y28.548
X84.216 Y29.345
X84.559 Y30.162
X84.856 Y30.997
X85.106 Y31.847
X85.309 Y32.709
X85.464 Y33.582
X85.571 Y34.461
X85.631 Y35.346
X85.641 Y36.232
X85.601 Y37.117
X85.511 Y37.998
X85.372 Y38.873
X85.184 Y39.739
X84.948 Y40.594
X84.667 Y41.434
X84.338 Y42.257
X83.964 Y43.06
X83.544 Y43.84
X83.081 Y44.596
X82.577 Y45.325
X82.033 Y46.024
X81.452 Y46.693
X80.835 Y47.329
X80.183 Y47.929
X79.498 Y48.491
X78.783 Y49.015
X78.04 Y49.498
X77.272 Y49.94
X76.481 Y50.34
X75.67 Y50.697
X74.84 Y51.008
X73.995 Y51.272
X73.136 Y51.49
X72.266 Y51.661
X71.389 Y51.785
X70.506 Y51.861
X69.62 Y51.89
X68.735 Y51.871
X67.851 Y51.803
X66.972 Y51.688
X66.101 Y51.526
X65.24 Y51.317
X64.391 Y51.063
X63.556 Y50.766
X62.739 Y50.424
X61.94 Y50.04
X61.164 Y49.613
X60.411 Y49.145
X59.684 Y48.639
X58.985 Y48.094
X58.315 Y47.514
X57.676 Y46.9
X57.07 Y46.254
X56.5 Y45.576
X55.965 Y44.869
X55.469 Y44.135
X55.011 Y43.376
X54.593 Y42.595
X54.216 Y41.793
X53.881 Y40.972
X53.59 Y40.135
X53.343 Y39.284
X53.141 Y38.422
X52.984 Y37.55
X52.872 Y36.671
X52.805 Y35.787
X52.784 Y34.901
X52.807 Y34.015
X52.878 Y33.132
X52.995 Y32.254
X53.157 Y31.382
X53.364 Y30.521
X53.615 Y29.671
X53.909 Y28.835
X54.245 Y28.015
X54.622 Y27.213
X55.042 Y26.433
X55.501 Y25.675
X55.998 Y24.942
X56.533 Y24.235
X57.104 Y23.557
X57.708 Y22.909
X58.344 Y22.292
X59.012 Y21.709
X59.709 Y21.162
X60.433 Y20.652
X61.182 Y20.179
X61.955 Y19.745
X62.749 Y19.351
X63.562 Y18.999
X64.392 Y18.688
X65.237 Y18.422
X66.095 Y18.199
X66.963 Y18.021
X67.839 Y17.887
X68.72 Y17.798
X69.605 Y17.755
X70.491 Y17.756
X71.376 Y17.803
X72.258 Y17.896
X73.133 Y18.034
X74. Y18.217
X74.857 Y18.443
X75.701 Y18.712
X76.531 Y19.023
X77.344 Y19.375
X78.139 Y19.767
X78.912 Y20.199
X79.663 Y20.669
X80.39 Y21.176
X81.092 Y21.717
X81.766 Y22.292
X82.412 Y22.899
X83.028 Y23.535
X83.613 Y24.201
X84.164 Y24.896
X84.68 Y25.616
X85.161 Y26.36
X85.607 Y27.126
X86.015 Y27.912
X86.385 Y28.718
X86.716 Y29.539
X87.008 Y30.376
X87.258 Y31.226
X87.465 Y32.088
X87.631 Y32.958
X87.755 Y33.836
X87.836 Y34.718
X87.875 Y35.603
X87.871 Y36.489
X87.824 Y37.374
X87.733 Y38.256
X87.598 Y39.132
X87.421 Y40.
X87.201 Y40.858
X86.94 Y41.705
X86.638 Y42.538
X86.296 Y43.355
X85.915 Y44.155
X85.494 Y44.935
X85.035 Y45.693
X84.539 Y46.427
X84.008 Y47.137
X83.443 Y47.82
X82.846 Y48.475
X82.218 Y49.1
X81.561 Y49.694
X80.875 Y50.255
X80.162 Y50.781
X79.424 Y51.273
X78.664 Y51.728
X77.883 Y52.146
X77.082 Y52.526
X76.265 Y52.868
X75.432 Y53.17
X74.586 Y53.433
X73.727 Y53.653
X72.859 Y53.831
X71.984 Y53.968
X71.103 Y54.063
X70.218 Y54.117
X69.332 Y54.128
X68.447 Y54.098
X67.563 Y54.026
X66.685 Y53.912
X65.812 Y53.755
X64.949 Y53.558
X64.095 Y53.321
X63.253 Y53.044
X62.425 Y52.728
X61.613 Y52.375
X60.817 Y51.984
X60.041 Y51.556
X59.287 Y51.091
X58.555 Y50.591
X57.847 Y50.058
X57.165 Y49.493
X56.509 Y48.897
X55.881 Y48.272
X55.283 Y47.619
X54.715 Y46.938
X54.18 Y46.232
X53.678 Y45.501
X53.211 Y44.748
X52.779 Y43.975
X52.383 Y43.182
X52.023 Y42.372
X51.701 Y41.547
X51.416 Y40.708
X51.171 Y39.856
X50.966 Y38.994
X50.801 Y38.123
X50.676 Y37.246
X50.591 Y36.364
X50.546 Y35.479
X50.541 Y34.593
X50.577 Y33.708
X50.652 Y32.825
X50.769 Y31.946
X50.926 Y31.074
X51.123 Y30.21
X51.36 Y29.356
X51.635 Y28.514
X51.947 Y27.685
X52.297 Y26.87
X52.683 Y26.073
X53.104 Y25.294
X53.562 Y24.535
X54.055 Y23.798
X54.58 Y23.085
X55.138 Y22.396
X55.726 Y21.733
X56.343 Y21.097
X56.988 Y20.49
X57.66 Y19.912
X58.358 Y19.366
X59.08 Y18.852
X59.825 Y18.373
X60.591 Y17.928
X61.377 Y17.518
X62.18 Y17.144
X63. Y16.806
X63.833 Y16.506
X64.68 Y16.244
X65.537 Y16.021
X66.404 Y15.838
X67.279 Y15.695
X68.159 Y15.591
X69.043 Y15.527
X69.929 Y15.504
X70.814 Y15.52
X71.699 Y15.575
X72.58 Y15.671
X73.455 Y15.807
X74.324 Y15.984
X75.183 Y16.199
X76.033 Y16.452
X76.87 Y16.743
X77.693 Y17.07
X78.501 Y17.434
X79.293 Y17.832
X80.066 Y18.265
X80.818 Y18.733
X81.55 Y19.234
X82.258 Y19.766
X82.943 Y20.328
X83.603 Y20.919
X84.237 Y21.538
X84.845 Y22.183
X85.423 Y22.854
X85.973 Y23.549
X86.491 Y24.268
X86.978 Y25.009
X87.432 Y25.769
X87.854 Y26.549
X88.242 Y27.345
X88.596 Y28.158
X88.914 Y28.985
X89.198 Y29.824
X89.445 Y30.675
X89.654 Y31.536
X89.825 Y32.406
X89.959 Y33.282
X90.054 Y34.163
X90.112 Y35.047
X90.132 Y35.933
X90.114 Y36.819
X90.058 Y37.703
X89.963 Y38.584
X89.829 Y39.46
X89.657 Y40.329
X89.447 Y41.19
X89.2 Y42.041
X88.916 Y42.881
X88.596 Y43.707
X88.241 Y44.519
X87.851 Y45.315
X87.427 Y46.093
X86.969 Y46.851
X86.478 Y47.589
X85.955 Y48.304
X85.401 Y48.996
X84.819 Y49.664
X84.208 Y50.306
X83.57 Y50.921
X82.906 Y51.508
X82.218 Y52.066
X81.506 Y52.593
X80.771 Y53.089
X80.016 Y53.552
X79.241 Y53.982
X78.449 Y54.379
X77.641 Y54.742
X76.818 Y55.071
X75.981 Y55.364
X75.133 Y55.621
X74.275 Y55.842
X73.408 Y56.025
X72.534 Y56.17
X71.654 Y56.278
X70.771 Y56.349
X69.886 Y56.382
X69. Y56.379
X68.114 Y56.338
X67.232 Y56.26
X66.353 Y56.145
X65.48 Y55.992
X64.615 Y55.802
X63.758 Y55.576
X62.911 Y55.314
X62.076 Y55.017
X61.254 Y54.687
X60.447 Y54.322
X59.655 Y53.924
X58.88 Y53.494
X58.125 Y53.03
X57.39 Y52.536
X56.676 Y52.011
X55.985 Y51.456
X55.317 Y50.874
X54.673 Y50.265
X54.055 Y49.63
X53.463 Y48.97
X52.9 Y48.287
X52.365 Y47.58
X51.86 Y46.852
X51.387 Y46.103
X50.944 Y45.335
X50.534 Y44.55
X50.156 Y43.748
X49.81 Y42.932
X49.499 Y42.103
X49.221 Y41.261
X48.978 Y40.409
X48.772 Y39.547
X48.601 Y38.678
X48.466 Y37.802
X48.368 Y36.921
X48.305 Y36.037
X48.278 Y35.152
X48.287 Y34.266
X48.332 Y33.381
X48.413 Y32.498
X48.53 Y31.62
X48.684 Y30.747
X48.874 Y29.882
X49.1 Y29.025
X49.36 Y28.178
X49.654 Y27.342
X49.981 Y26.518
X50.342 Y25.709
X50.735 Y24.915
X51.16 Y24.137
X51.617 Y23.378
X52.105 Y22.639
X52.624 Y21.92
X53.171 Y21.223
X53.746 Y20.549
X54.348 Y19.898
X54.975 Y19.272
X55.627 Y18.672
X56.303 Y18.099
X57.002 Y17.554
X57.723 Y17.039
X58.464 Y16.554
X59.225 Y16.1
X60.004 Y15.677
X60.799 Y15.286
X61.609 Y14.928
X62.433 Y14.602
X63.27 Y14.309
X64.118 Y14.051
X64.975 Y13.828
X65.842 Y13.641
X66.715 Y13.49
X67.593 Y13.375
X68.476 Y13.295
X69.361 Y13.251
X70.247 Y13.242
X71.133 Y13.269
X72.016 Y13.332
X72.897 Y13.43
X73.773 Y13.565
X74.643 Y13.736
X75.504 Y13.941
X76.357 Y14.182
X77.2 Y14.456
X78.031 Y14.763
X78.849 Y15.103
X79.654 Y15.475
X80.443 Y15.878
X81.215 Y16.313
X81.969 Y16.778
X82.704 Y17.273
X83.419 Y17.797
X84.112 Y18.349
X84.784 Y18.927
X85.433 Y19.53
X86.058 Y20.158
X86.659 Y20.81
X87.234 Y21.484
X87.782 Y22.18
X88.302 Y22.897
X88.794 Y23.634
X89.256 Y24.39
X89.689 Y25.163
X90.092 Y25.953
X90.465 Y26.757
X90.806 Y27.574
X91.116 Y28.405
X91.394 Y29.246
X91.639 Y30.098
X91.85 Y30.958
X92.027 Y31.827
X92.169 Y32.701
X92.278 Y33.581
X92.352 Y34.464
X92.392 Y35.349
X92.398 Y36.235
X92.37 Y37.121
X92.308 Y38.005
X92.211 Y38.885
X92.079 Y39.762
X91.912 Y40.632
X91.711 Y41.495
X91.476 Y42.349
X91.208 Y43.194
X90.908 Y44.028
X90.576 Y44.849
X90.212 Y45.657
X89.817 Y46.45
X89.391 Y47.227
X88.934 Y47.987
X88.448 Y48.727
X87.932 Y49.448
X87.389 Y50.148
X86.819 Y50.827
X86.224 Y51.483
X85.603 Y52.116
X84.959 Y52.724
X84.292 Y53.307
X83.602 Y53.863
X82.891 Y54.392
X82.159 Y54.892
X81.409 Y55.363
X80.641 Y55.805
X79.856 Y56.217
X79.056 Y56.598
X78.243 Y56.949
X77.416 Y57.269
X76.578 Y57.556
X75.729 Y57.812
X74.871 Y58.033
X74.005 Y58.221
X73.133 Y58.375
X72.255 Y58.495
X71.373 Y58.582
X70.488 Y58.636
X69.603 Y58.655
X68.717 Y58.642
X67.832 Y58.595
X66.949 Y58.514
X66.071 Y58.4
X65.197 Y58.251
X64.33 Y58.069
X63.47 Y57.853
X62.619 Y57.606
X61.778 Y57.327
X60.948 Y57.017
X60.13 Y56.676
X59.326 Y56.304
X58.536 Y55.903
X57.762 Y55.472
X57.005 Y55.011
X56.266 Y54.522
X55.546 Y54.005
X54.846 Y53.462
X54.167 Y52.893
X53.509 Y52.299
X52.874 Y51.681
X52.262 Y51.04
X51.675 Y50.377
X51.112 Y49.692
X50.576 Y48.986
X50.067 Y48.261
X49.586 Y47.517
X49.134 Y46.755
X48.709 Y45.977
X48.314 Y45.184
X47.949 Y44.377
X47.613 Y43.557
X47.307 Y42.725
X47.033 Y41.882
X46.79 Y41.03
X46.58 Y40.169
X46.403 Y39.301
X46.258 Y38.427
X46.145 Y37.548
X46.066 Y36.665
X46.018 Y35.78
X46.003 Y34.894
X46.02 Y34.008
X46.07 Y33.124
X46.152 Y32.241
X46.268 Y31.363
X46.417 Y30.489
X46.599 Y29.622
X46.813 Y28.762
X47.058 Y27.911
X47.334 Y27.069
X47.641 Y26.237
X47.978 Y25.418
X48.345 Y24.611
X48.741 Y23.818
X49.166 Y23.041
X49.62 Y22.28
X50.103 Y21.537
X50.613 Y20.813
X51.15 Y20.107
X51.712 Y19.422
X52.298 Y18.758
X52.909 Y18.116
X53.542 Y17.496
X54.197 Y16.9
X54.874 Y16.328
X55.573 Y15.782
X56.291 Y15.263
X57.028 Y14.771
X57.783 Y14.307
X58.554 Y13.871
X59.341 Y13.464
X60.142 Y13.085
X60.957 Y12.736
X61.783 Y12.417
X62.621 Y12.128
X63.469 Y11.87
X64.326 Y11.644
X65.191 Y11.451
X66.062 Y11.291
X66.939 Y11.162
X67.82 Y11.066
X68.703 Y11.002
X69.589 Y10.97
X70.475
X71.361 Y11.002
X72.244 Y11.067
X73.125 Y11.165
X74.002 Y11.295
X74.873 Y11.458
X75.737 Y11.653
X76.594 Y11.88
X77.442 Y12.137
X78.28 Y12.424
X79.107 Y12.741
X79.923 Y13.088
X80.725 Y13.463
X81.514 Y13.868
X82.287 Y14.3
X83.044 Y14.761
X83.784 Y15.25
X84.505 Y15.764
X85.208 Y16.304
X85.891 Y16.868
X86.554 Y17.456
X87.196 Y18.066
X87.817 Y18.699
X88.415 Y19.353
X88.989 Y20.028
X89.539 Y20.723
X90.063 Y21.437
X90.562 Y22.17
X91.034 Y22.919
X91.48 Y23.685
X91.898 Y24.466
X92.289 Y25.262
X92.653 Y26.07
X92.988 Y26.89
X93.294 Y27.722
X93.571 Y28.563
X93.817 Y29.415
X94.033 Y30.274
X94.217 Y31.141
X94.371 Y32.013
X94.494 Y32.891
X94.585 Y33.772
X94.646 Y34.656
X94.676 Y35.542
Y36.428
X94.644 Y37.314
X94.58 Y38.198
X94.485 Y39.079
X94.358 Y39.955
X94.199 Y40.827
X94.009 Y41.693
X93.788 Y42.551
X93.538 Y43.401
X93.257 Y44.242
X92.948 Y45.072
X92.717 Y45.629
X92.693 Y45.685
X92.666 Y45.74
X92.636 Y45.794
X90.569 Y49.374
X90.088 Y50.119
X89.603 Y50.86
X89.082 Y51.577
X88.528 Y52.269
X87.946 Y52.937
X87.336 Y53.58
X86.702 Y54.199
X86.046 Y54.794
X85.367 Y55.364
X84.668 Y55.909
X83.95 Y56.428
X83.214 Y56.921
X82.461 Y57.388
X81.692 Y57.828
X80.908 Y58.241
X80.11 Y58.626
X79.298 Y58.982
X78.475 Y59.31
X77.64 Y59.608
X76.796 Y59.877
X76.539 Y59.948
X76.415 Y59.977
X76.289 Y59.994
X76.162 Y60.
X64.967
X64.082 Y59.956
X63.2 Y59.868
X62.328 Y59.712
X61.467 Y59.5
X60.619 Y59.242
X59.785 Y58.944
X58.964 Y58.609
X58.158 Y58.242
X57.367 Y57.844
X56.591 Y57.416
X55.831 Y56.959
X55.088 Y56.476
X54.364 Y55.966
X53.657 Y55.431
X52.97 Y54.872
X52.411 Y54.384
X52.301 Y54.277
X52.203 Y54.158
X52.119 Y54.029
X45.485 Y42.539
X45.081 Y41.75
X44.747 Y40.981
X44.46 Y40.142
X44.233 Y39.286
X44.054 Y38.418
X43.92 Y37.542
X43.824 Y36.661
X43.765 Y35.777
X43.74 Y34.891
X43.748 Y34.005
X43.789 Y33.12
X43.862 Y32.237
X43.967 Y31.357
X44.102 Y30.481
X44.234 Y29.786
X44.271 Y29.633
X44.326 Y29.486
X44.397 Y29.346
X51.276 Y17.431
X51.757 Y16.687
X52.245 Y16.027
X52.828 Y15.359
X53.457 Y14.735
X54.121 Y14.149
X54.815 Y13.598
X55.533 Y13.079
X56.273 Y12.591
X57.031 Y12.132
X57.805 Y11.701
X58.595 Y11.298
X59.398 Y10.924
X60.213 Y10.577
X61.04 Y10.258
X61.562 Y10.077
X61.711 Y10.034
X61.865 Y10.009
X62.02 Y10.
X75.839
X76.724 Y10.044
X77.164 Y10.091
X78.041 Y10.222
X78.904 Y10.423
X79.752 Y10.678
X80.585 Y10.98
X81.403 Y11.321
X82.206 Y11.697
X82.992 Y12.105
X83.763 Y12.543
X84.517 Y13.008
X85.255 Y13.499
X85.975 Y14.015
X86.678 Y14.555
X87.215 Y14.996
X87.338 Y15.11
X87.446 Y15.238
X87.539 Y15.377
X95.328 Y28.868
X95.732 Y29.657
X96.041 Y30.397
X96.315 Y31.24
X96.528 Y32.1
X96.69 Y32.971
X96.808 Y33.849
X96.887 Y34.732
X96.93 Y35.617
X96.939 Y36.503
X96.915 Y37.389
X96.866 Y38.175
X96.836 Y38.388
X96.774 Y38.593
X96.681 Y38.787
X92.636 Y45.794
G3 X91.535 Y45.378 I-0.509 J-0.318
G1 X94.227 Y29.088
G3 X95.328 Y28.868 I0.592 J0.098
G1 X97.985 Y33.471
X98.258 Y34.004
X98.449 Y34.464
X98.519 Y34.68
X98.58 Y34.966
X98.579 Y35.259
X98.518 Y35.544
X98.399 Y35.811
G3 X97.308 Y35.635 I-0.509 J-0.318
G1 X96.893 Y33.931
G3 X97.985 Y33.471 I0.583 J-0.142
G1 X98.694 Y34.698
X98.72 Y34.749
X98.74 Y34.799
X98.767 Y34.899
X98.775 Y35.
X98.767 Y35.101
X98.74 Y35.201
X98.72 Y35.251
X98.694 Y35.302
X96.681 Y38.787
G3 X95.997 Y39.043 I-0.509 J-0.318
G1 X95.907 Y39.016 Z-5.993
X95.82 Y38.989 Z-5.971
X95.737 Y38.963 Z-5.935
X95.66 Y38.94 Z-5.885
X95.591 Y38.919 Z-5.824
X95.533 Y38.901 Z-5.753
X95.486 Y38.887 Z-5.672
X95.451 Y38.876 Z-5.585
X95.43 Y38.87 Z-5.494
X95.423 Y38.868 Z-5.4
G0 Z5.
X74.569 Y10.528
Z-4.8
G1 Z-5.4 F1440.
X74.576 Y10.524 Z-5.494
X74.595 Y10.513 Z-5.585
X74.626 Y10.495 Z-5.672
X74.668 Y10.469 Z-5.753
X74.72 Y10.438 Z-5.824
X74.782 Y10.402 Z-5.885
X74.851 Y10.361 Z-5.935
X74.926 Y10.316 Z-5.971
X75.004 Y10.269 Z-5.993
X75.085 Y10.221 Z-6.
G3 X75.839 Y10. I0.809 J1.36
G1 X81.476
X82.043 Y10.028
X82.556 Y10.096
X83.169 Y10.227
X83.878 Y10.439
X84.464 Y10.667
X84.742 Y10.814
X84.981 Y11.019
X85.168 Y11.272
G3 X84.464 Y12.128 I-0.53 J0.282
G1 X81.323 Y11.174
G3 X81.476 Y10. I0.174 J-0.574
G1 X84.093
X84.194 Y10.012
X84.295 Y10.039
X84.345 Y10.06
X84.395 Y10.087
X84.446 Y10.12
X84.496 Y10.162
X84.506 Y10.172
X84.553 Y10.222
X84.59 Y10.272
X84.697 Y10.456
X87.539 Y15.377
G3 X87.418 Y16.098 I-0.53 J0.282
G1 X87.349 Y16.162 Z-5.993
X87.282 Y16.224 Z-5.971
X87.219 Y16.284 Z-5.935
X87.16 Y16.338 Z-5.885
X87.108 Y16.387 Z-5.824
X87.063 Y16.429 Z-5.753
X87.027 Y16.463 Z-5.672
X87.001 Y16.487 Z-5.585
X86.985 Y16.502 Z-5.494
X86.979 Y16.507 Z-5.4
G0 Z5.
X90.746 Y48.011
Z-4.8
G1 Z-5.4 F1440.
Y48.018 Z-5.494
Y48.04 Z-5.585
X90.747 Y48.076 Z-5.672
X90.748 Y48.126 Z-5.753
Y48.187 Z-5.824
X90.749 Y48.258 Z-5.885
X90.75 Y48.339 Z-5.935
X90.751 Y48.426 Z-5.971
X90.753 Y48.517 Z-5.993
X90.754 Y48.611 Z-6.
G3 X90.569 Y49.374 I-1.582 J0.02
G1 X86.738 Y56.009
X86.347 Y56.614
X85.974 Y57.101
X85.473 Y57.656
X84.829 Y58.264
X84.138 Y58.819
X83.415 Y59.33
X82.665 Y59.802
X82.636 Y59.818
X82.418 Y59.918
X82.186 Y59.979
X81.946 Y60.
G3 X81.575 Y58.947 I0.021 J-0.6
G1 X85.816 Y55.273
G3 X86.738 Y56.009 I0.393 J0.454
G1 X84.649 Y59.627
X84.59 Y59.728
X84.553 Y59.778
X84.506 Y59.828
X84.496 Y59.838
X84.446 Y59.88
X84.395 Y59.913
X84.345 Y59.94
X84.295 Y59.961
X84.194 Y59.988
X84.093 Y60.
X76.162
G3 X75.599 Y59.535 I0.021 J-0.6
G1 X75.578 Y59.444 Z-5.993
X75.557 Y59.355 Z-5.971
X75.537 Y59.27 Z-5.935
X75.519 Y59.192 Z-5.885
X75.503 Y59.122 Z-5.824
X75.489 Y59.062 Z-5.753
X75.478 Y59.014 Z-5.672
X75.47 Y58.979 Z-5.585
X75.465 Y58.958 Z-5.494
X75.464 Y58.951 Z-5.4
G0 Z5.
X46.577 Y43.374
Z-4.8
G1 Z-5.4 F1440.
X46.571 Y43.371 Z-5.494
X46.551 Y43.36 Z-5.585
X46.52 Y43.342 Z-5.672
X46.477 Y43.318 Z-5.753
X46.424 Y43.288 Z-5.824
X46.361 Y43.253 Z-5.885
X46.291 Y43.214 Z-5.935
X46.215 Y43.172 Z-5.971
X46.135 Y43.127 Z-5.993
X46.054 Y43.081 Z-6.
G3 X45.485 Y42.539 I0.774 J-1.381
G1 X42.699 Y37.714
X42.422 Y37.173
X42.223 Y36.693
X42.035 Y36.111
X41.863 Y35.386
X41.729 Y34.51
X41.725 Y34.459
X41.732 Y34.181
X41.794 Y33.909
X41.909 Y33.656
G3 X43.002 Y33.839 I0.509 J0.318
G1 X43.793 Y37.261
G3 X42.699 Y37.714 I-0.585 J0.135
G1 X41.307 Y35.302
X41.28 Y35.251
X41.26 Y35.201
X41.234 Y35.101
X41.225 Y35.
X41.234 Y34.899
X41.26 Y34.799
X41.28 Y34.749
X41.307 Y34.698
X44.397 Y29.346
G3 X45.081 Y29.091 I0.509 J0.318
G1 X45.171 Y29.118 Z-5.993
X45.258 Y29.145 Z-5.971
X45.341 Y29.17 Z-5.935
X45.418 Y29.194 Z-5.885
X45.487 Y29.215 Z-5.824
X45.545 Y29.233 Z-5.753
X45.592 Y29.247 Z-5.672
X45.627 Y29.257 Z-5.585
X45.648 Y29.264 Z-5.494
X45.655 Y29.266 Z-5.4
G0 Z5.
X66.236 Y59.472
Z-4.8
G1 Z-5.4 F1440.
X66.23 Y59.476 Z-5.494
X66.211 Y59.487 Z-5.585
X66.18 Y59.505 Z-5.672
X66.137 Y59.531 Z-5.753
X66.085 Y59.562 Z-5.824
X66.023 Y59.598 Z-5.885
X65.954 Y59.639 Z-5.935
X65.88 Y59.684 Z-5.971
X65.801 Y59.731 Z-5.993
X65.72 Y59.779 Z-6.
G3 X64.967 Y60. I-0.809 J-1.36
G1 X58.927
X58.395 Y59.973
X57.859 Y59.903
X57.22 Y59.766
X56.482 Y59.545
X55.656 Y59.224
X55.304 Y59.055
X55.065 Y58.91
X54.859 Y58.72
X54.696 Y58.492
G3 X55.41 Y57.64 I0.53 J-0.282
G1 X59.09 Y58.829
G3 X58.927 Y60. I-0.185 J0.571
G1 X55.907
X55.806 Y59.988
X55.705 Y59.961
X55.655 Y59.94
X55.605 Y59.913
X55.554 Y59.88
X55.504 Y59.838
X55.494 Y59.828
X55.447 Y59.778
X55.41 Y59.728
X55.303 Y59.543
X52.119 Y54.029
G3 X52.24 Y53.309 I0.53 J-0.282
G1 X52.308 Y53.245 Z-5.993
X52.375 Y53.182 Z-5.971
X52.439 Y53.123 Z-5.935
X52.498 Y53.068 Z-5.885
X52.55 Y53.019 Z-5.824
X52.595 Y52.978 Z-5.753
X52.631 Y52.944 Z-5.672
X52.657 Y52.92 Z-5.585
X52.673 Y52.905 Z-5.494
X52.678 Y52.9 Z-5.4
G0 Z5.
X51.099 Y18.794
Z-4.8
G1 Z-5.4 F1440.
X51.098 Y18.787 Z-5.494
Y18.765 Z-5.585
Y18.729 Z-5.672
X51.097 Y18.68 Z-5.753
X51.096 Y18.618 Z-5.824
X51.095 Y18.547 Z-5.885
X51.094 Y18.467 Z-5.935
X51.093 Y18.38 Z-5.971
X51.092 Y18.288 Z-5.993
X51.091 Y18.194 Z-6.
G3 X51.276 Y17.431 I1.582 J-0.02
G1 X54.074 Y12.584
X54.349 Y12.158
X54.659 Y11.754
X55.067 Y11.302
X55.606 Y10.794
X56.213 Y10.308
X56.479 Y10.14
X56.776 Y10.035
X57.088 Y10.
G3 X57.474 Y11.041 I-0.021 J0.6
G1 X55.01 Y13.307
G3 X54.074 Y12.584 I-0.406 J-0.442
G1 X55.351 Y10.373
X55.41 Y10.272
X55.447 Y10.222
X55.494 Y10.172
X55.504 Y10.162
X55.554 Y10.12
X55.605 Y10.087
X55.655 Y10.06
X55.705 Y10.039
X55.806 Y10.012
X55.907 Y10.
X62.02
X62.112 Y10.01
X62.201 Y10.035
X62.265 Y10.072 Z-5.995
X62.328 Y10.108 Z-5.982
X62.389 Y10.144 Z-5.959
X62.439 Y10.205 Z-5.921
X62.485 Y10.262 Z-5.871
X62.526 Y10.312 Z-5.812
X62.546 Y10.365 Z-5.741
X62.562 Y10.408 Z-5.663
X62.574 Y10.439 Z-5.579
X62.581 Y10.458 Z-5.491
X62.584 Y10.465 Z-5.4
G0 Z5.
X70.945 Y32.311
Z-3.5
G3 X69.055 Y37.689 Z-3.813 I-0.945 J2.689 F1440.
X70.945 Y32.311 Z-4.125 I0.945 J-2.689
X69.055 Y37.689 Z-4.438 I-0.945 J2.689
X70.945 Y32.311 Z-4.751 I0.945 J-2.689
X69.055 Y37.689 Z-5.063 I-0.945 J2.689
X70.945 Y32.311 Z-5.376 I0.945 J-2.689
X69.055 Y37.689 Z-5.689 I-0.945 J2.689
X70.945 Y32.311 Z-6.001 I0.945 J-2.689
X69.055 Y37.689 Z-6.314 I-0.945 J2.689
X70.945 Y32.311 Z-6.627 I0.945 J-2.689
X69.055 Y37.689 Z-6.939 I-0.945 J2.689
X70.945 Y32.311 Z-7.252 I0.945 J-2.689
X69.055 Y37.689 Z-7.565 I-0.945 J2.689
X70.945 Y32.311 Z-7.877 I0.945 J-2.689
X72.85 Y35. Z-8. I-0.945 J2.689
X67.15 I-2.85 J0.
X72.85 I2.85 J0.
G1 X72.853 Y35.222
X73.006 Y36.094
X73.056 Y36.236
X73.09 Y36.382
X73.108 Y36.531
X73.113 Y36.681
X73.105 Y36.834
X73.082 Y36.998
X73.045 Y37.17
X72.99 Y37.349
X72.918 Y37.533
X72.826 Y37.72
X72.713 Y37.909
X72.58 Y38.097
X72.426 Y38.281
X72.251 Y38.459
X72.055 Y38.628
X71.838 Y38.787
X71.603 Y38.932
X71.349 Y39.062
X71.078 Y39.174
X70.792 Y39.265
X70.494 Y39.335
X70.185 Y39.382
X69.867 Y39.405
X69.544 Y39.401
X69.217 Y39.372
X68.889 Y39.315
X68.563 Y39.231
X68.242 Y39.121
X67.927 Y38.984
X67.623 Y38.82
X67.33 Y38.631
X67.052 Y38.418
X66.79 Y38.183
X66.546 Y37.925
X66.324 Y37.648
X66.123 Y37.353
X65.946 Y37.041
X65.795 Y36.715
X65.669 Y36.378
X65.571 Y36.03
X65.501 Y35.676
X65.46 Y35.316
X65.448 Y34.953
X65.465 Y34.59
X65.51 Y34.229
X65.585 Y33.873
X65.689 Y33.524
X65.82 Y33.183
X65.978 Y32.854
X66.162 Y32.539
X66.371 Y32.239
X66.603 Y31.957
X66.857 Y31.695
X67.132 Y31.453
X67.425 Y31.235
X67.735 Y31.04
X68.06 Y30.871
X68.397 Y30.729
X68.745 Y30.614
X69.1 Y30.527
X69.462 Y30.469
X69.827 Y30.44
X70.194 Y30.441
X70.559 Y30.471
X70.92 Y30.531
X71.276 Y30.619
X71.623 Y30.735
X71.96 Y30.879
X72.285 Y31.05
X72.594 Y31.246
X72.887 Y31.466
X73.162 Y31.709
X73.415 Y31.973
X73.647 Y32.257
X73.856 Y32.559
X74.152 Y33.071
X74.495 Y33.792
X74.703 Y34.338
X74.845 Y34.825
X74.937 Y35.274
X74.99 Y35.708
X75.008 Y36.128
X74.993 Y36.535
X74.945 Y36.932
X74.867 Y37.321
X74.758 Y37.7
X74.62 Y38.07
X74.451 Y38.429
X74.252 Y38.775
X74.025 Y39.107
X73.769 Y39.423
X73.486 Y39.721
X73.176 Y39.998
X72.84 Y40.252
X72.48 Y40.482
X72.097 Y40.686
X71.694 Y40.86
X71.272 Y41.003
X70.835 Y41.114
X70.385 Y41.189
X69.925 Y41.229
X69.458 Y41.232
X68.988 Y41.197
X68.518 Y41.124
X68.052 Y41.013
X67.592 Y40.863
X67.143 Y40.675
X66.708 Y40.451
X66.289 Y40.191
X65.891 Y39.896
X65.515 Y39.569
X65.166 Y39.211
X64.844 Y38.824
X64.554 Y38.412
X64.297 Y37.975
X64.075 Y37.518
X63.89 Y37.044
X63.743 Y36.555
X63.636 Y36.054
X63.569 Y35.546
X63.543 Y35.033
X63.558 Y34.519
X63.615 Y34.007
X63.713 Y33.5
X63.851 Y33.003
X64.029 Y32.517
X64.245 Y32.047
X64.499 Y31.596
X64.788 Y31.166
X65.111 Y30.761
X65.465 Y30.383
X65.849 Y30.034
X66.26 Y29.717
X66.695 Y29.434
X67.152 Y29.186
X67.627 Y28.976
X68.117 Y28.805
X68.62 Y28.674
X69.132 Y28.583
X69.649 Y28.534
X70.169 Y28.526
X70.687 Y28.561
X71.202 Y28.636
X71.708 Y28.753
X72.204 Y28.91
X72.686 Y29.107
X73.15 Y29.341
X73.594 Y29.612
X74.015 Y29.918
X74.443 Y30.285
X74.89 Y30.735
X75.308 Y31.23
X75.697 Y31.773
X76.04 Y32.345
X76.33 Y32.93
X76.567 Y33.522
X76.75 Y34.115
X76.882 Y34.708
X76.965 Y35.299
X77. Y35.886
X76.987 Y36.467
X76.928 Y37.04
X76.825 Y37.602
X76.677 Y38.152
X76.486 Y38.688
X76.252 Y39.206
X75.977 Y39.704
X75.663 Y40.181
X75.309 Y40.632
X74.918 Y41.057
X74.491 Y41.451
X74.031 Y41.812
X73.539 Y42.138
X73.018 Y42.426
X72.471 Y42.673
X71.901 Y42.877
X71.312 Y43.036
X70.707 Y43.149
X70.091 Y43.212
X69.467 Y43.226
X68.84 Y43.19
X68.213 Y43.103
X67.591 Y42.965
X66.979 Y42.777
X66.381 Y42.538
X65.8 Y42.251
X65.241 Y41.916
X64.709 Y41.536
X64.206 Y41.113
X63.738 Y40.648
X63.306 Y40.146
X62.915 Y39.608
X62.567 Y39.04
X62.265 Y38.443
X62.011 Y37.822
X61.807 Y37.182
X61.655 Y36.526
X61.556 Y35.858
X61.511 Y35.184
X61.52 Y34.507
X61.583 Y33.832
X61.701 Y33.164
X61.872 Y32.507
X62.095 Y31.865
X62.369 Y31.242
X62.693 Y30.643
X63.064 Y30.072
X63.48 Y29.532
X63.938 Y29.027
X64.435 Y28.56
X64.968 Y28.134
X65.534 Y27.752
X66.129 Y27.417
X66.749 Y27.131
X67.39 Y26.895
X68.049 Y26.712
X68.719 Y26.582
X69.399 Y26.506
X70.082 Y26.485
X70.765 Y26.518
X71.443 Y26.607
X72.111 Y26.749
X72.766 Y26.945
X73.404 Y27.193
X74.029 Y27.496
X74.649 Y27.861
X75.257 Y28.287
X75.846 Y28.775
X76.406 Y29.321
X76.926 Y29.917
X77.399 Y30.555
X77.819 Y31.229
X78.181 Y31.93
X78.484 Y32.652
X78.725 Y33.391
X78.905 Y34.139
X79.023 Y34.894
X79.08 Y35.649
X79.077 Y36.402
X79.013 Y37.148
X78.89 Y37.883
X78.709 Y38.603
X78.471 Y39.306
X78.177 Y39.986
X77.83 Y40.642
X77.431 Y41.269
X76.981 Y41.863
X76.483 Y42.421
X75.94 Y42.94
X75.353 Y43.416
X74.727 Y43.845
X74.065 Y44.226
X73.37 Y44.553
X72.647 Y44.826
X71.9 Y45.041
X71.134 Y45.196
X70.353 Y45.29
X69.562 Y45.321
X68.768 Y45.288
X67.974 Y45.191
X67.187 Y45.03
X66.411 Y44.805
X65.652 Y44.517
X64.915 Y44.168
X64.206 Y43.759
X63.53 Y43.292
X62.89 Y42.771
X62.293 Y42.198
X61.741 Y41.577
X61.24 Y40.912
X60.792 Y40.207
X60.402 Y39.466
X60.071 Y38.695
X59.803 Y37.898
X59.6 Y37.08
X59.462 Y36.247
X59.392 Y35.405
X59.389 Y34.559
X59.455 Y33.714
X59.588 Y32.876
X59.788 Y32.051
X60.054 Y31.243
X60.384 Y30.46
X60.776 Y29.704
X61.228 Y28.982
X61.737 Y28.299
X62.299 Y27.658
X62.911 Y27.064
X63.569 Y26.521
X64.269 Y26.032
X65.005 Y25.601
X65.775 Y25.23
X66.571 Y24.922
X67.39 Y24.679
X68.226 Y24.503
X69.074 Y24.394
X69.927 Y24.354
X70.781 Y24.382
X71.631 Y24.478
X72.471 Y24.643
X73.302 Y24.877
X74.119 Y25.179
X74.92 Y25.551
X75.692 Y25.988
X76.426 Y26.484
X77.119 Y27.036
X77.769 Y27.639
X78.371 Y28.289
X78.923 Y28.982
X79.422 Y29.714
X79.866 Y30.481
X80.251 Y31.279
X80.576 Y32.103
X80.839 Y32.95
X81.037 Y33.813
X81.169 Y34.69
X81.233 Y35.573
X81.23 Y36.459
X81.158 Y37.343
X81.018 Y38.218
X80.811 Y39.079
X80.537 Y39.922
X80.199 Y40.741
X79.798 Y41.531
X79.336 Y42.288
X78.818 Y43.006
X78.245 Y43.682
X77.622 Y44.313
X76.953 Y44.893
X76.241 Y45.421
X75.491 Y45.893
X74.708 Y46.307
X73.895 Y46.661
X73.059 Y46.953
X72.202 Y47.181
X71.332 Y47.346
X70.451 Y47.446
X69.566 Y47.48
X68.68 Y47.448
X67.8 Y47.351
X66.928 Y47.188
X66.071 Y46.963
X65.233 Y46.677
X64.417 Y46.331
X63.628 Y45.929
X62.869 Y45.471
X62.145 Y44.96
X61.459 Y44.398
X60.817 Y43.789
X60.219 Y43.134
X59.669 Y42.439
X59.17 Y41.707
X58.722 Y40.942
X58.329 Y40.148
X57.992 Y39.329
X57.714 Y38.487
X57.497 Y37.628
X57.342 Y36.756
X57.247 Y35.875
X57.214 Y34.989
X57.241 Y34.104
X57.329 Y33.222
X57.478 Y32.348
X57.689 Y31.488
X57.961 Y30.644
X58.29 Y29.822
X58.675 Y29.024
X59.115 Y28.254
X59.605 Y27.516
X60.145 Y26.813
X60.733 Y26.151
X61.367 Y25.531
X62.042 Y24.957
X62.755 Y24.432
X63.503 Y23.956
X64.281 Y23.532
X65.086 Y23.162
X65.915 Y22.849
X66.765 Y22.596
X67.629 Y22.403
X68.506 Y22.27
X69.389 Y22.198
X70.275 Y22.185
X71.16 Y22.233
X72.039 Y22.342
X72.908 Y22.513
X73.764 Y22.744
X74.602 Y23.032
X75.419 Y23.376
X76.211 Y23.772
X76.976 Y24.22
X77.708 Y24.719
X78.406 Y25.265
X79.067 Y25.855
X79.69 Y26.485
X80.272 Y27.153
X80.812 Y27.856
X81.306 Y28.592
X81.75 Y29.358
X82.146 Y30.151
X82.491 Y30.968
X82.784 Y31.804
X83.025 Y32.656
X83.211 Y33.523
X83.339 Y34.4
X83.41 Y35.283
X83.425 Y36.169
X83.382 Y37.054
X83.284 Y37.935
X83.129 Y38.807
X82.916 Y39.667
X82.647 Y40.511
X82.323 Y41.336
X81.947 Y42.139
X81.52 Y42.915
X81.045 Y43.663
X80.52 Y44.377
X79.95 Y45.056
X79.337 Y45.695
X78.684 Y46.294
X77.995 Y46.851
X77.272 Y47.364
X76.517 Y47.828
X75.734 Y48.242
X74.925 Y48.605
X74.096 Y48.917
X73.248 Y49.176
X72.387 Y49.383
X71.514 Y49.536
X70.633 Y49.631
X69.748 Y49.67
X68.862 Y49.654
X67.979 Y49.583
X67.101 Y49.458
X66.233 Y49.28
X65.378 Y49.048
X64.539 Y48.763
X63.719 Y48.427
X62.921 Y48.042
X62.147 Y47.61
X61.401 Y47.132
X60.685 Y46.61
X60.003 Y46.045
X59.357 Y45.438
X58.749 Y44.793
X58.181 Y44.113
X57.654 Y43.4
X57.17 Y42.658
X56.731 Y41.889
X56.339 Y41.094
X55.998 Y40.276
X55.706 Y39.44
X55.464 Y38.587
X55.273 Y37.722
X55.132 Y36.847
X55.044 Y35.965
X55.01 Y35.08
X55.029 Y34.194
X55.1 Y33.31
X55.223 Y32.433
X55.398 Y31.564
X55.623 Y30.707
X55.899 Y29.865
X56.226 Y29.042
X56.602 Y28.239
X57.023 Y27.459
X57.489 Y26.706
X57.998 Y25.981
X58.549 Y25.286
X59.141 Y24.627
X59.772 Y24.005
X60.439 Y23.421
X61.139 Y22.878
X61.869 Y22.376
X62.627 Y21.916
X63.41 Y21.502
X64.217 Y21.136
X65.045 Y20.82
X65.89 Y20.553
X66.749 Y20.336
X67.619 Y20.17
X68.498 Y20.054
X69.382 Y19.99
X70.268 Y19.978
X71.153 Y20.021
X72.034 Y20.115
X72.908 Y20.261
X73.772 Y20.457
X74.624 Y20.702
X75.46 Y20.996
X76.277 Y21.339
X77.073 Y21.728
X77.845 Y22.163
X78.592 Y22.64
X79.31 Y23.159
X80. Y23.715
X80.657 Y24.309
X81.281 Y24.939
X81.868 Y25.603
X82.417 Y26.298
X82.928 Y27.022
X83.399 Y27.773
X83.829 Y28.548
X84.216 Y29.345
X84.559 Y30.162
X84.856 Y30.997
X85.106 Y31.847
X85.309 Y32.709
X85.464 Y33.582
X85.571 Y34.461
X85.631 Y35.346
X85.641 Y36.232
X85.601 Y37.117
X85.511 Y37.998
X85.372 Y38.873
X85.184 Y39.739
X84.948 Y40.594
X84.667 Y41.434
X84.338 Y42.257
X83.964 Y43.06
X83.544 Y43.84
X83.081 Y44.596
X82.577 Y45.325
X82.033 Y46.024
X81.452 Y46.693
X80.835 Y47.329
X80.183 Y47.929
X79.498 Y48.491
X78.783 Y49.015
X78.04 Y49.498
X77.272 Y49.94
X76.481 Y50.34
X75.67 Y50.697
X74.84 Y51.008
X73.995 Y51.272
X73.136 Y51.49
X72.266 Y51.661
X71.389 Y51.785
X70.506 Y51.861
X69.62 Y51.89
X68.735 Y51.871
X67.851 Y51.803
X66.972 Y51.688
X66.101 Y51.526
X65.24 Y51.317
X64.391 Y51.063
X63.556 Y50.766
X62.739 Y50.424
X61.94 Y50.04
X61.164 Y49.613
X60.411 Y49.145
X59.684 Y48.639
X58.985 Y48.094
X58.315 Y47.514
X57.676 Y46.9
X57.07 Y46.254
X56.5 Y45.576
X55.965 Y44.869
X55.469 Y44.135
X55.011 Y43.376
X54.593 Y42.595
X54.216 Y41.793
X53.881 Y40.972
X53.59 Y40.135
X53.343 Y39.284
X53.141 Y38.422
X52.984 Y37.55
X52.872 Y36.671
X52.805 Y35.787
X52.784 Y34.901
X52.807 Y34.015
X52.878 Y33.132
X52.995 Y32.254
X53.157 Y31.382
X53.364 Y30.521
X53.615 Y29.671
X53.909 Y28.835
X54.245 Y28.015
X54.622 Y27.213
X55.042 Y26.433
X55.501 Y25.675
X55.998 Y24.942
X56.533 Y24.235
X57.104 Y23.557
X57.708 Y22.909
X58.344 Y22.292
X59.012 Y21.709
X59.709 Y21.162
X60.433 Y20.652
X61.182 Y20.179
X61.955 Y19.745
X62.749 Y19.351
X63.562 Y18.999
X64.392 Y18.688
X65.237 Y18.422
X66.095 Y18.199
X66.963 Y18.021
X67.839 Y17.887
X68.72 Y17.798
X69.605 Y17.755
X70.491 Y17.756
X71.376 Y17.803
X72.258 Y17.896
X73.133 Y18.034
X74. Y18.217
X74.857 Y18.443
X75.701 Y18.712
X76.531 Y19.023
X77.344 Y19.375
X78.139 Y19.767
X78.912 Y20.199
X79.663 Y20.669
X80.39 Y21.176
X81.092 Y21.717
X81.766 Y22.292
X82.412 Y22.899
X83.028 Y23.535
X83.613 Y24.201
X84.164 Y24.896
X84.68 Y25.616
X85.161 Y26.36
X85.607 Y27.126
X86.015 Y27.912
X86.385 Y28.718
X86.716 Y29.539
X87.008 Y30.376
X87.258 Y31.226
X87.465 Y32.088
X87.631 Y32.958
X87.755 Y33.836
X87.836 Y34.718
X87.875 Y35.603
X87.871 Y36.489
X87.824 Y37.374
X87.733 Y38.256
X87.598 Y39.132
X87.421 Y40.
X87.201 Y40.858
X86.94 Y41.705
X86.638 Y42.538
X86.296 Y43.355
X85.915 Y44.155
X85.494 Y44.935
X85.035 Y45.693
X84.539 Y46.427
X84.008 Y47.137
X83.443 Y47.82
X82.846 Y48.475
X82.218 Y49.1
X81.561 Y49.694
X80.875 Y50.255
X80.162 Y50.781
X79.424 Y51.273
X78.664 Y51.728
X77.883 Y52.146
X77.082 Y52.526
X76.265 Y52.868
X75.432 Y53.17
X74.586 Y53.433
X73.727 Y53.653
X72.859 Y53.831
X71.984 Y53.968
X71.103 Y54.063
X70.218 Y54.117
X69.332 Y54.128
X68.447 Y54.098
X67.563 Y54.026
X66.685 Y53.912
X65.812 Y53.755
X64.949 Y53.558
X64.095 Y53.321
X63.253 Y53.044
X62.425 Y52.728
X61.613 Y52.375
X60.817 Y51.984
X60.041 Y51.556
X59.287 Y51.091
X58.555 Y50.591
X57.847 Y50.058
X57.165 Y49.493
X56.509 Y48.897
X55.881 Y48.272
X55.283 Y47.619
X54.715 Y46.938
X54.18 Y46.232
X53.678 Y45.501
X53.211 Y44.748
X52.779 Y43.975
X52.383 Y43.182
X52.023 Y42.372
X51.701 Y41.547
X51.416 Y40.708
X51.171 Y39.856
X50.966 Y38.994
X50.801 Y38.123
X50.676 Y37.246
X50.591 Y36.364
X50.546 Y35.479
X50.541 Y34.593
X50.577 Y33.708
X50.652 Y32.825
X50.769 Y31.946
X50.926 Y31.074
X51.123 Y30.21
X51.36 Y29.356
X51.635 Y28.514
X51.947 Y27.685
X52.297 Y26.87
X52.683 Y26.073
X53.104 Y25.294
X53.562 Y24.535
X54.055 Y23.798
X54.58 Y23.085
X55.138 Y22.396
X55.726 Y21.733
X56.343 Y21.097
X56.988 Y20.49
X57.66 Y19.912
X58.358 Y19.366
X59.08 Y18.852
X59.825 Y18.373
X60.591 Y17.928
X61.377 Y17.518
X62.18 Y17.144
X63. Y16.806
X63.833 Y16.506
X64.68 Y16.244
X65.537 Y16.021
X66.404 Y15.838
X67.279 Y15.695
X68.159 Y15.591
X69.043 Y15.527
X69.929 Y15.504
X70.814 Y15.52
X71.699 Y15.575
X72.58 Y15.671
X73.455 Y15.807
X74.324 Y15.984
X75.183 Y16.199
X76.033 Y16.452
X76.87 Y16.743
X77.693 Y17.07
X78.501 Y17.434
X79.293 Y17.832
X80.066 Y18.265
X80.818 Y18.733
X81.55 Y19.234
X82.258 Y19.766
X82.943 Y20.328
X83.603 Y20.919
X84.237 Y21.538
X84.845 Y22.183
X85.423 Y22.854
X85.973 Y23.549
X86.491 Y24.268
X86.978 Y25.009
X87.432 Y25.769
X87.854 Y26.549
X88.242 Y27.345
X88.596 Y28.158
X88.914 Y28.985
X89.198 Y29.824
X89.445 Y30.675
X89.654 Y31.536
X89.825 Y32.406
X89.959 Y33.282
X90.054 Y34.163
X90.112 Y35.047
X90.132 Y35.933
X90.114 Y36.819
X90.058 Y37.703
X89.963 Y38.584
X89.829 Y39.46
X89.657 Y40.329
X89.447 Y41.19
X89.2 Y42.041
X88.916 Y42.881
X88.596 Y43.707
X88.241 Y44.519
X87.851 Y45.315
X87.427 Y46.093
X86.969 Y46.851
X86.478 Y47.589
X85.955 Y48.304
X85.401 Y48.996
X84.819 Y49.664
X84.208 Y50.306
X83.57 Y50.921
X82.906 Y51.508
X82.218 Y52.066
X81.506 Y52.593
X80.771 Y53.089
X80.016 Y53.552
X79.241 Y53.982
X78.449 Y54.379
X77.641 Y54.742
X76.818 Y55.071
X75.981 Y55.364
X75.133 Y55.621
X74.275 Y55.842
X73.408 Y56.025
X72.534 Y56.17
X71.654 Y56.278
X70.771 Y56.349
X69.886 Y56.382
X69. Y56.379
X68.114 Y56.338
X67.232 Y56.26
X66.353 Y56.145
X65.48 Y55.992
X64.615 Y55.802
X63.758 Y55.576
X62.911 Y55.314
X62.076 Y55.017
X61.254 Y54.687
X60.447 Y54.322
X59.655 Y53.924
X58.88 Y53.494
X58.125 Y53.03
X57.39 Y52.536
X56.676 Y52.011
X55.985 Y51.456
X55.317 Y50.874
X54.673 Y50.265
X54.055 Y49.63
X53.463 Y48.97
X52.9 Y48.287
X52.365 Y47.58
X51.86 Y46.852
X51.387 Y46.103
X50.944 Y45.335
X50.534 Y44.55
X50.156 Y43.748
X49.81 Y42.932
X49.499 Y42.103
X49.221 Y41.261
X48.978 Y40.409
X48.772 Y39.547
X48.601 Y38.678
X48.466 Y37.802
X48.368 Y36.921
X48.305 Y36.037
X48.278 Y35.152
X48.287 Y34.266
X48.332 Y33.381
X48.413 Y32.498
X48.53 Y31.62
X48.684 Y30.747
X48.874 Y29.882
X49.1 Y29.025
X49.36 Y28.178
X49.654 Y27.342
X49.981 Y26.518
X50.342 Y25.709
X50.735 Y24.915
X51.16 Y24.137
X51.617 Y23.378
X52.105 Y22.639
X52.624 Y21.92
X53.171 Y21.223
X53.746 Y20.549
X54.348 Y19.898
X54.975 Y19.272
X55.627 Y18.672
X56.303 Y18.099
X57.002 Y17.554
X57.723 Y17.039
X58.464 Y16.554
X59.225 Y16.1
X60.004 Y15.677
X60.799 Y15.286
X61.609 Y14.928
X62.433 Y14.602
X63.27 Y14.309
X64.118 Y14.051
X64.975 Y13.828
X65.842 Y13.641
X66.715 Y13.49
X67.593 Y13.375
X68.476 Y13.295
X69.361 Y13.251
X70.247 Y13.242
X71.133 Y13.269
X72.016 Y13.332
X72.897 Y13.43
X73.773 Y13.565
X74.643 Y13.736
X75.504 Y13.941
X76.357 Y14.182
X77.2 Y14.456
X78.031 Y14.763
X78.849 Y15.103
X79.654 Y15.475
X80.443 Y15.878
X81.215 Y16.313
X81.969 Y16.778
X82.704 Y17.273
X83.419 Y17.797
X84.112 Y18.349
X84.784 Y18.927
X85.433 Y19.53
X86.058 Y20.158
X86.659 Y20.81
X87.234 Y21.484
X87.782 Y22.18
X88.302 Y22.897
X88.794 Y23.634
X89.256 Y24.39
X89.689 Y25.163
X90.092 Y25.953
X90.465 Y26.757
X90.806 Y27.574
X91.116 Y28.405
X91.394 Y29.246
X91.639 Y30.098
X91.85 Y30.958
X92.027 Y31.827
X92.169 Y32.701
X92.278 Y33.581
X92.352 Y34.464
X92.392 Y35.349
X92.398 Y36.235
X92.37 Y37.121
X92.308 Y38.005
X92.211 Y38.885
X92.079 Y39.762
X91.912 Y40.632
X91.711 Y41.495
X91.476 Y42.349
X91.208 Y43.194
X90.908 Y44.028
X90.576 Y44.849
X90.212 Y45.657
X89.817 Y46.45
X89.391 Y47.227
X88.934 Y47.987
X88.448 Y48.727
X87.932 Y49.448
X87.389 Y50.148
X86.819 Y50.827
X86.224 Y51.483
X85.603 Y52.116
X84.959 Y52.724
X84.292 Y53.307
X83.602 Y53.863
X82.891 Y54.392
X82.159 Y54.892
X81.409 Y55.363
X80.641 Y55.805
X79.856 Y56.217
X79.056 Y56.598
X78.243 Y56.949
X77.416 Y57.269
X76.578 Y57.556
X75.729 Y57.812
X74.871 Y58.033
X74.005 Y58.221
X73.133 Y58.375
X72.255 Y58.495
X71.373 Y58.582
X70.488 Y58.636
X69.603 Y58.655
X68.717 Y58.642
X67.832 Y58.595
X66.949 Y58.514
X66.071 Y58.4
X65.197 Y58.251
X64.33 Y58.069
X63.47 Y57.853
X62.619 Y57.606
X61.778 Y57.327
X60.948 Y57.017
X60.13 Y56.676
X59.326 Y56.304
X58.536 Y55.903
X57.762 Y55.472
X57.005 Y55.011
X56.266 Y54.522
X55.546 Y54.005
X54.846 Y53.462
X54.167 Y52.893
X53.509 Y52.299
X52.874 Y51.681
X52.262 Y51.04
X51.675 Y50.377
X51.112 Y49.692
X50.576 Y48.986
X50.067 Y48.261
X49.586 Y47.517
X49.134 Y46.755
X48.709 Y45.977
X48.314 Y45.184
X47.949 Y44.377
X47.613 Y43.557
X47.307 Y42.725
X47.033 Y41.882
X46.79 Y41.03
X46.58 Y40.169
X46.403 Y39.301
X46.258 Y38.427
X46.145 Y37.548
X46.066 Y36.665
X46.018 Y35.78
X46.003 Y34.894
X46.02 Y34.008
X46.07 Y33.124
X46.152 Y32.241
X46.268 Y31.363
X46.417 Y30.489
X46.599 Y29.622
X46.813 Y28.762
X47.058 Y27.911
X47.334 Y27.069
X47.641 Y26.237
X47.978 Y25.418
X48.345 Y24.611
X48.741 Y23.818
X49.166 Y23.041
X49.62 Y22.28
X50.103 Y21.537
X50.613 Y20.813
X51.15 Y20.107
X51.712 Y19.422
X52.298 Y18.758
X52.909 Y18.116
X53.542 Y17.496
X54.197 Y16.9
X54.874 Y16.328
X55.573 Y15.782
X56.291 Y15.263
X57.028 Y14.771
X57.783 Y14.307
X58.554 Y13.871
X59.341 Y13.464
X60.142 Y13.085
X60.957 Y12.736
X61.783 Y12.417
X62.621 Y12.128
X63.469 Y11.87
X64.326 Y11.644
X65.191 Y11.451
X66.062 Y11.291
X66.939 Y11.162
X67.82 Y11.066
X68.703 Y11.002
X69.589 Y10.97
X70.475
X71.361 Y11.002
X72.244 Y11.067
X73.125 Y11.165
X74.002 Y11.295
X74.873 Y11.458
X75.737 Y11.653
X76.594 Y11.88
X77.442 Y12.137
X78.28 Y12.424
X79.107 Y12.741
X79.923 Y13.088
X80.725 Y13.463
X81.514 Y13.868
X82.287 Y14.3
X83.044 Y14.761
X83.784 Y15.25
X84.505 Y15.764
X85.208 Y16.304
X85.891 Y16.868
X86.554 Y17.456
X87.196 Y18.066
X87.817 Y18.699
X88.415 Y19.353
X88.989 Y20.028
X89.539 Y20.723
X90.063 Y21.437
X90.562 Y22.17
X91.034 Y22.919
X91.48 Y23.685
X91.898 Y24.466
X92.289 Y25.262
X92.653 Y26.07
X92.988 Y26.89
X93.294 Y27.722
X93.571 Y28.563
X93.817 Y29.415
X94.033 Y30.274
X94.217 Y31.141
X94.371 Y32.013
X94.494 Y32.891
X94.585 Y33.772
X94.646 Y34.656
X94.676 Y35.542
Y36.428
X94.644 Y37.314
X94.58 Y38.198
X94.485 Y39.079
X94.358 Y39.955
X94.199 Y40.827
X94.009 Y41.693
X93.788 Y42.551
X93.538 Y43.401
X93.257 Y44.242
X92.948 Y45.072
X92.717 Y45.629
X92.693 Y45.685
X92.666 Y45.74
X92.636 Y45.794
X90.569 Y49.374
X90.088 Y50.119
X89.603 Y50.86
X89.082 Y51.577
X88.528 Y52.269
X87.946 Y52.937
X87.336 Y53.58
X86.702 Y54.199
X86.046 Y54.794
X85.367 Y55.364
X84.668 Y55.909
X83.95 Y56.428
X83.214 Y56.921
X82.461 Y57.388
X81.692 Y57.828
X80.908 Y58.241
X80.11 Y58.626
X79.298 Y58.982
X78.475 Y59.31
X77.64 Y59.608
X76.796 Y59.877
X76.539 Y59.948
X76.415 Y59.977
X76.289 Y59.994
X76.162 Y60.
X64.967
X64.082 Y59.956
X63.2 Y59.868
X62.328 Y59.712
X61.467 Y59.5
X60.619 Y59.242
X59.785 Y58.944
X58.964 Y58.609
X58.158 Y58.242
X57.367 Y57.844
X56.591 Y57.416
X55.831 Y56.959
X55.088 Y56.476
X54.364 Y55.966
X53.657 Y55.431
X52.97 Y54.872
X52.411 Y54.384
X52.301 Y54.277
X52.203 Y54.158
X52.119 Y54.029
X45.485 Y42.539
X45.081 Y41.75
X44.747 Y40.981
X44.46 Y40.142
X44.233 Y39.286
X44.054 Y38.418
X43.92 Y37.542
X43.824 Y36.661
X43.765 Y35.777
X43.74 Y34.891
X43.748 Y34.005
X43.789 Y33.12
X43.862 Y32.237
X43.967 Y31.357
X44.102 Y30.481
X44.234 Y29.786
X44.271 Y29.633
X44.326 Y29.486
X44.397 Y29.346
X51.276 Y17.431
X51.757 Y16.687
X52.245 Y16.027
X52.828 Y15.359
X53.457 Y14.735
X54.121 Y14.149
X54.815 Y13.598
X55.533 Y13.079
X56.273 Y12.591
X57.031 Y12.132
X57.805 Y11.701
X58.595 Y11.298
X59.398 Y10.924
X60.213 Y10.577
X61.04 Y10.258
X61.562 Y10.077
X61.711 Y10.034
X61.865 Y10.009
X62.02 Y10.
X75.839
X76.724 Y10.044
X77.164 Y10.091
X78.041 Y10.222
X78.904 Y10.423
X79.752 Y10.678
X80.585 Y10.98
X81.403 Y11.321
X82.206 Y11.697
X82.992 Y12.105
X83.763 Y12.543
X84.517 Y13.008
X85.255 Y13.499
X85.975 Y14.015
X86.678 Y14.555
X87.215 Y14.996
X87.338 Y15.11
X87.446 Y15.238
X87.539 Y15.377
X95.328 Y28.868
X95.732 Y29.657
X96.041 Y30.397
X96.315 Y31.24
X96.528 Y32.1
X96.69 Y32.971
X96.808 Y33.849
X96.887 Y34.732
X96.93 Y35.617
X96.939 Y36.503
X96.915 Y37.389
X96.866 Y38.175
X96.836 Y38.388
X96.774 Y38.593
X96.681 Y38.787
X92.636 Y45.794
G3 X91.535 Y45.378 I-0.509 J-0.318
G1 X94.227 Y29.088
G3 X95.328 Y28.868 I0.592 J0.098
G1 X97.985 Y33.471
X98.258 Y34.004
X98.449 Y34.464
X98.519 Y34.68
X98.58 Y34.966
X98.579 Y35.259
X98.518 Y35.544
X98.399 Y35.811
G3 X97.308 Y35.635 I-0.509 J-0.318
G1 X96.893 Y33.931
G3 X97.985 Y33.471 I0.583 J-0.142
G1 X98.694 Y34.698
X98.72 Y34.749
X98.74 Y34.799
X98.767 Y34.899
X98.775 Y35.
X98.767 Y35.101
X98.74 Y35.201
X98.72 Y35.251
X98.694 Y35.302
X96.681 Y38.787
G3 X95.997 Y39.043 I-0.509 J-0.318
G1 X95.907 Y39.016 Z-7.993
X95.82 Y38.989 Z-7.971
X95.737 Y38.963 Z-7.935
X95.66 Y38.94 Z-7.885
X95.591 Y38.919 Z-7.824
X95.533 Y38.901 Z-7.753
X95.486 Y38.887 Z-7.672
X95.451 Y38.876 Z-7.585
X95.43 Y38.87 Z-7.494
X95.423 Y38.868 Z-7.4
G0 Z5.
X74.569 Y10.528
Z-6.8
G1 Z-7.4 F1440.
X74.576 Y10.524 Z-7.494
X74.595 Y10.513 Z-7.585
X74.626 Y10.495 Z-7.672
X74.668 Y10.469 Z-7.753
X74.72 Y10.438 Z-7.824
X74.782 Y10.402 Z-7.885
X74.851 Y10.361 Z-7.935
X74.926 Y10.316 Z-7.971
X75.004 Y10.269 Z-7.993
X75.085 Y10.221 Z-8.
G3 X75.839 Y10. I0.809 J1.36
G1 X81.476
X82.043 Y10.028
X82.556 Y10.096
X83.169 Y10.227
X83.878 Y10.439
X84.464 Y10.667
X84.742 Y10.814
X84.981 Y11.019
X85.168 Y11.272
G3 X84.464 Y12.128 I-0.53 J0.282
G1 X81.323 Y11.174
G3 X81.476 Y10. I0.174 J-0.574
G1 X84.093
X84.194 Y10.012
X84.295 Y10.039
X84.345 Y10.06
X84.395 Y10.087
X84.446 Y10.12
X84.496 Y10.162
X84.506 Y10.172
X84.553 Y10.222
X84.59 Y10.272
X84.697 Y10.456
X87.539 Y15.377
G3 X87.418 Y16.098 I-0.53 J0.282
G1 X87.349 Y16.162 Z-7.993
X87.282 Y16.224 Z-7.971
X87.219 Y16.284 Z-7.935
X87.16 Y16.338 Z-7.885
X87.108 Y16.387 Z-7.824
X87.063 Y16.429 Z-7.753
X87.027 Y16.463 Z-7.672
X87.001 Y16.487 Z-7.585
X86.985 Y16.502 Z-7.494
X86.979 Y16.507 Z-7.4
G0 Z5.
X90.746 Y48.011
Z-6.8
G1 Z-7.4 F1440.
Y48.018 Z-7.494
Y48.04 Z-7.585
X90.747 Y48.076 Z-7.672
X90.748 Y48.126 Z-7.753
Y48.187 Z-7.824
X90.749 Y48.258 Z-7.885
X90.75 Y48.339 Z-7.935
X90.751 Y48.426 Z-7.971
X90.753 Y48.517 Z-7.993
X90.754 Y48.611 Z-8.
G3 X90.569 Y49.374 I-1.582 J0.02
G1 X86.738 Y56.009
X86.347 Y56.614
X85.974 Y57.101
X85.473 Y57.656
X84.829 Y58.264
X84.138 Y58.819
X83.415 Y59.33
X82.665 Y59.802
X82.636 Y59.818
X82.418 Y59.918
X82.186 Y59.979
X81.946 Y60.
G3 X81.575 Y58.947 I0.021 J-0.6
G1 X85.816 Y55.273
G3 X86.738 Y56.009 I0.393 J0.454
G1 X84.649 Y59.627
X84.59 Y59.728
X84.553 Y59.778
X84.506 Y59.828
X84.496 Y59.838
X84.446 Y59.88
X84.395 Y59.913
X84.345 Y59.94
X84.295 Y59.961
X84.194 Y59.988
X84.093 Y60.
X76.162
G3 X75.599 Y59.535 I0.021 J-0.6
G1 X75.578 Y59.444 Z-7.993
X75.557 Y59.355 Z-7.971
X75.537 Y59.27 Z-7.935
X75.519 Y59.192 Z-7.885
X75.503 Y59.122 Z-7.824
X75.489 Y59.062 Z-7.753
X75.478 Y59.014 Z-7.672
X75.47 Y58.979 Z-7.585
X75.465 Y58.958 Z-7.494
X75.464 Y58.951 Z-7.4
G0 Z5.
X46.577 Y43.374
Z-6.8
G1 Z-7.4 F1440.
X46.571 Y43.371 Z-7.494
X46.551 Y43.36 Z-7.585
X46.52 Y43.342 Z-7.672
X46.477 Y43.318 Z-7.753
X46.424 Y43.288 Z-7.824
X46.361 Y43.253 Z-7.885
X46.291 Y43.214 Z-7.935
X46.215 Y43.172 Z-7.971
X46.135 Y43.127 Z-7.993
X46.054 Y43.081 Z-8.
G3 X45.485 Y42.539 I0.774 J-1.381
G1 X42.699 Y37.714
X42.422 Y37.173
X42.223 Y36.693
X42.035 Y36.111
X41.863 Y35.386
X41.729 Y34.51
X41.725 Y34.459
X41.732 Y34.181
X41.794 Y33.909
X41.909 Y33.656
G3 X43.002 Y33.839 I0.509 J0.318
G1 X43.793 Y37.261
G3 X42.699 Y37.714 I-0.585 J0.135
G1 X41.307 Y35.302
X41.28 Y35.251
X41.26 Y35.201
X41.234 Y35.101
X41.225 Y35.
X41.234 Y34.899
X41.26 Y34.799
X41.28 Y34.749
X41.307 Y34.698
X44.397 Y29.346
G3 X45.081 Y29.091 I0.509 J0.318
G1 X45.171 Y29.118 Z-7.993
X45.258 Y29.145 Z-7.971
X45.341 Y29.17 Z-7.935
X45.418 Y29.194 Z-7.885
X45.487 Y29.215 Z-7.824
X45.545 Y29.233 Z-7.753
X45.592 Y29.247 Z-7.672
X45.627 Y29.257 Z-7.585
X45.648 Y29.264 Z-7.494
X45.655 Y29.266 Z-7.4
G0 Z5.
X66.236 Y59.472
Z-6.8
G1 Z-7.4 F1440.
X66.23 Y59.476 Z-7.494
X66.211 Y59.487 Z-7.585
X66.18 Y59.505 Z-7.672
X66.137 Y59.531 Z-7.753
X66.085 Y59.562 Z-7.824
X66.023 Y59.598 Z-7.885
X65.954 Y59.639 Z-7.935
X65.88 Y59.684 Z-7.971
X65.801 Y59.731 Z-7.993
X65.72 Y59.779 Z-8.
G3 X64.967 Y60. I-0.809 J-1.36
G1 X58.927
X58.395 Y59.973
X57.859 Y59.903
X57.22 Y59.766
X56.482 Y59.545
X55.656 Y59.224
X55.304 Y59.055
X55.065 Y58.91
X54.859 Y58.72
X54.696 Y58.492
G3 X55.41 Y57.64 I0.53 J-0.282
G1 X59.09 Y58.829
G3 X58.927 Y60. I-0.185 J0.571
G1 X55.907
X55.806 Y59.988
X55.705 Y59.961
X55.655 Y59.94
X55.605 Y59.913
X55.554 Y59.88
X55.504 Y59.838
X55.494 Y59.828
X55.447 Y59.778
X55.41 Y59.728
X55.303 Y59.543
X52.119 Y54.029
G3 X52.24 Y53.309 I0.53 J-0.282
G1 X52.308 Y53.245 Z-7.993
X52.375 Y53.182 Z-7.971
X52.439 Y53.123 Z-7.935
X52.498 Y53.068 Z-7.885
X52.55 Y53.019 Z-7.824
X52.595 Y52.978 Z-7.753
X52.631 Y52.944 Z-7.672
X52.657 Y52.92 Z-7.585
X52.673 Y52.905 Z-7.494
X52.678 Y52.9 Z-7.4
G0 Z5.
X51.099 Y18.794
Z-6.8
G1 Z-7.4 F1440.
X51.098 Y18.787 Z-7.494
Y18.765 Z-7.585
Y18.729 Z-7.672
X51.097 Y18.68 Z-7.753
X51.096 Y18.618 Z-7.824
X51.095 Y18.547 Z-7.885
X51.094 Y18.467 Z-7.935
X51.093 Y18.38 Z-7.971
X51.092 Y18.288 Z-7.993
X51.091 Y18.194 Z-8.
G3 X51.276 Y17.431 I1.582 J-0.02
G1 X54.074 Y12.584
X54.349 Y12.158
X54.659 Y11.754
X55.067 Y11.302
X55.606 Y10.794
X56.213 Y10.308
X56.479 Y10.14
X56.776 Y10.035
X57.088 Y10.
G3 X57.474 Y11.041 I-0.021 J0.6
G1 X55.01 Y13.307
G3 X54.074 Y12.584 I-0.406 J-0.442
G1 X55.351 Y10.373
X55.41 Y10.272
X55.447 Y10.222
X55.494 Y10.172
X55.504 Y10.162
X55.554 Y10.12
X55.605 Y10.087
X55.655 Y10.06
X55.705 Y10.039
X55.806 Y10.012
X55.907 Y10.
X62.02
G3 X62.584 Y10.465 I-0.021 J0.6
G1 X62.605 Y10.556 Z-7.993
X62.625 Y10.645 Z-7.971
X62.645 Y10.73 Z-7.935
X62.663 Y10.808 Z-7.885
X62.679 Y10.878 Z-7.824
X62.693 Y10.938 Z-7.753
X62.704 Y10.986 Z-7.672
X62.712 Y11.021 Z-7.585
X62.717 Y11.042 Z-7.494
X62.719 Y11.049 Z-7.4
G0 Z15.
X-0.619 Y-6.9
Z5.
Z-0.8
G1 Z-1.4 F1440.
X-0.617 Y-6.893 Z-1.494
X-0.611 Y-6.871 Z-1.585
X-0.602 Y-6.836 Z-1.672
X-0.59 Y-6.789 Z-1.753
X-0.575 Y-6.73 Z-1.824
X-0.557 Y-6.66 Z-1.885
X-0.537 Y-6.582 Z-1.935
X-0.516 Y-6.498 Z-1.971
X-0.493 Y-6.41 Z-1.993
X-0.47 Y-6.319 Z-2.
G3 X0. Y-3.052 I-14.839 J3.801
G1 Y-2.902
X-0.177 Y-2.034
X-0.303 Y-1.157
X-0.392 Y-0.275
X-0.454 Y0.609
X-0.498 Y1.494
X-0.528 Y2.379
X-0.55 Y3.265
X-0.565 Y4.151
X-0.576 Y5.037
X-0.583 Y5.923
X-0.588 Y6.81
X-0.592 Y7.696
X-0.596 Y9.468
X-0.599 Y12.126
X-0.6 Y20.101
Y47.571
Y67.066
X-0.598 Y67.287
X-0.561 Y67.506
X-0.42 Y67.926
X0.085 Y68.654
X0.781 Y69.202
X1.571 Y69.604
X2.408 Y69.894
X3.27 Y70.102
X4.144 Y70.25
X5.024 Y70.354
X5.907 Y70.427
X6.791 Y70.479
X7.677 Y70.515
X8.562 Y70.541
X9.448 Y70.559
X10.334 Y70.571
X11.22 Y70.58
X12.107 Y70.586
X12.993 Y70.59
X14.765 Y70.595
X17.423 Y70.598
X23.626 Y70.6
X28.943
X79.452
X129.961
X137.271
X137.49 Y70.565
X137.911 Y70.427
X138.643 Y69.927
X139.194 Y69.233
X139.598 Y68.444
X139.89 Y67.608
X140.099 Y66.747
X140.247 Y65.873
X140.352 Y64.993
X140.426 Y64.11
X140.478 Y63.226
X140.515 Y62.34
X140.54 Y61.454
X140.558 Y60.569
X140.571 Y59.683
X140.58 Y58.796
X140.586 Y57.91
X140.59 Y57.024
X140.595 Y55.252
X140.598 Y52.594
X140.6 Y46.391
Y28.668
Y2.749
X140.565 Y2.53
X140.427 Y2.109
X139.934 Y1.373
X139.243 Y0.818
X138.456 Y0.411
X137.621 Y0.116
X136.76 Y-0.094
X135.887 Y-0.244
X135.007 Y-0.35
X134.124 Y-0.425
X133.239 Y-0.477
X132.354 Y-0.514
X131.468 Y-0.54
X130.582 Y-0.558
X129.696 Y-0.571
X128.81 Y-0.579
X127.924 Y-0.586
X127.038 Y-0.59
X125.266 Y-0.595
X122.607 Y-0.598
X117.291 Y-0.6
X66.782
X16.273
X5.196
X4.771 Y-0.476
X3.999 Y-0.041
X3.404 Y0.616
X2.959 Y1.382
X2.632 Y2.206
X2.395 Y3.06
X2.224 Y3.929
X2.101 Y4.807
X2.014 Y5.688
X1.951 Y6.572
X1.907 Y7.457
X1.876 Y8.343
X1.854 Y9.229
X1.838 Y10.115
X1.827 Y11.001
X1.819 Y11.887
X1.813 Y12.773
X1.809 Y13.659
X1.805 Y15.431
X1.802 Y18.09
X1.8 Y25.179
Y37.584
Y64.168
X1.891 Y64.602
X2.23 Y65.42
X2.801 Y66.098
X3.51 Y66.63
X4.296 Y67.038
X5.127 Y67.346
X5.983 Y67.575
X6.853 Y67.745
X7.73 Y67.869
X8.612 Y67.96
X9.495 Y68.027
X10.38 Y68.075
X11.266 Y68.11
X12.151 Y68.135
X13.037 Y68.153
X13.923 Y68.167
X14.809 Y68.176
X15.695 Y68.183
X16.582 Y68.188
X18.354 Y68.194
X21.012 Y68.198
X23.671 Y68.199
X42.279 Y68.2
X74.18
X124.689
X134.436
X135.275 Y67.915
X135.978 Y67.376
X136.536 Y66.688
X136.966 Y65.913
X137.292 Y65.089
X137.535 Y64.236
X137.715 Y63.369
X137.847 Y62.493
X137.944 Y61.612
X138.015 Y60.728
X138.066 Y59.844
X138.104 Y58.958
X138.131 Y58.073
X138.15 Y57.187
X138.164 Y56.301
X138.174 Y55.415
X138.182 Y54.529
X138.187 Y53.643
X138.191 Y52.756
X138.195 Y50.984
X138.198 Y48.326
X138.2 Y42.123
Y28.831
Y5.792
X138.1 Y5.36
X137.748 Y4.547
X137.169 Y3.877
X136.456 Y3.35
X135.667 Y2.947
X134.834 Y2.643
X133.978 Y2.417
X133.108 Y2.249
X132.23 Y2.126
X131.349 Y2.036
X130.465 Y1.971
X129.58 Y1.923
X128.695 Y1.889
X127.809 Y1.864
X126.923 Y1.846
X126.037 Y1.833
X125.151 Y1.824
X124.265 Y1.817
X123.379 Y1.812
X121.606 Y1.806
X118.948 Y1.802
X113.631 Y1.8
X112.745
X62.236
X11.727
X8.183
X7.326 Y2.026
X6.593 Y2.524
X6.004 Y3.186
X5.546 Y3.945
X5.197 Y4.759
X4.934 Y5.606
X4.739 Y6.47
X4.594 Y7.344
X4.487 Y8.224
X4.409 Y9.106
X4.352 Y9.991
X4.31 Y10.876
X4.28 Y11.761
X4.258 Y12.647
X4.242 Y13.533
X4.23 Y14.419
X4.222 Y15.305
X4.216 Y16.191
X4.211 Y17.078
X4.206 Y18.85
X4.202 Y21.508
X4.2 Y26.825
Y47.206
Y61.384
X4.352 Y62.257
X4.776 Y63.035
X5.384 Y63.679
X6.106 Y64.193
X6.897 Y64.592
X7.729 Y64.898
X8.584 Y65.129
X9.453 Y65.303
X10.33 Y65.433
X11.211 Y65.53
X12.094 Y65.601
X12.978 Y65.654
X13.864 Y65.693
X14.749 Y65.722
X15.635 Y65.743
X16.521 Y65.758
X17.407 Y65.77
X18.293 Y65.778
X19.179 Y65.784
X20.066 Y65.788
X21.838 Y65.794
X24.496 Y65.798
X29.813 Y65.8
X38.674
X48.873
X49.156 Y65.829
X49.428 Y65.915
X49.677 Y66.054
X49.893 Y66.241
X50.066 Y66.467
X50.134 Y66.579
X50.167 Y66.629
X50.268 Y66.78
X50.433 Y66.981
X50.569 Y67.129
X50.622 Y67.182
X50.863 Y67.383
X50.972 Y67.462
X51.173 Y67.593
X51.375 Y67.696
X51.577 Y67.786
X51.777 Y67.859
X51.979 Y67.914
X52.18 Y67.954
X52.382 Y67.978
X52.784 Y67.995
X52.986 Y68.
X87.014
X87.216 Y67.995
X87.618 Y67.978
X87.82 Y67.954
X88.021 Y67.914
X88.223 Y67.859
X88.424 Y67.785
X88.625 Y67.696
X88.827 Y67.593
X89.028 Y67.462
X89.137 Y67.383
X89.342 Y67.235
X89.645 Y67.052
X90.035 Y66.857
X90.546 Y66.651
X91.234 Y66.435
X92.098 Y66.239
X92.974 Y66.105
X93.855 Y66.012
X94.739 Y65.947
X95.624 Y65.903
X96.51 Y65.872
X97.395 Y65.85
X98.281 Y65.835
X99.167 Y65.824
X100.054 Y65.817
X100.94 Y65.812
X101.826 Y65.808
X103.598 Y65.804
X106.256 Y65.801
X114.232 Y65.8
X131.068
X131.953 Y65.763
X132.775 Y65.43
X133.468 Y64.878
X134.026 Y64.19
X134.464 Y63.42
X134.8 Y62.6
X135.056 Y61.752
X135.248 Y60.887
X135.392 Y60.012
X135.499 Y59.133
X135.579 Y58.25
X135.638 Y57.366
X135.681 Y56.481
X135.713 Y55.595
X135.736 Y54.71
X135.754 Y53.824
X135.766 Y52.938
X135.775 Y52.052
X135.782 Y51.165
X135.787 Y50.279
X135.793 Y48.507
X135.797 Y45.849
X135.799 Y41.418
X135.8 Y9.518
Y8.632
X135.653 Y7.758
X135.233 Y6.978
X134.627 Y6.331
X133.906 Y5.815
X133.116 Y5.414
X132.285 Y5.107
X131.43 Y4.874
X130.561 Y4.7
X129.685 Y4.569
X128.804 Y4.472
X127.921 Y4.4
X127.036 Y4.347
X126.151 Y4.307
X125.265 Y4.279
X124.379 Y4.257
X123.494 Y4.242
X122.607 Y4.231
X121.721 Y4.222
X120.835 Y4.216
X119.949 Y4.212
X118.177 Y4.206
X115.519 Y4.202
X110.202 Y4.2
X91.127
X90.844 Y4.171
X90.572 Y4.085
X90.323 Y3.946
X90.107 Y3.759
X89.934 Y3.533
X89.866 Y3.421
X89.833 Y3.371
X89.732 Y3.22
X89.567 Y3.019
X89.431 Y2.871
X89.378 Y2.818
X89.137 Y2.617
X89.028 Y2.538
X88.827 Y2.407
X88.625 Y2.304
X88.423 Y2.214
X88.223 Y2.141
X88.021 Y2.086
X87.82 Y2.046
X87.618 Y2.022
X87.216 Y2.005
X87.014 Y2.
X52.986
X52.784 Y2.005
X52.382 Y2.022
X52.18 Y2.046
X51.979 Y2.086
X51.777 Y2.141
X51.576 Y2.215
X51.375 Y2.304
X51.173 Y2.407
X50.972 Y2.538
X50.863 Y2.617
X50.658 Y2.765
X50.355 Y2.948
X49.965 Y3.143
X49.454 Y3.349
X48.766 Y3.565
X47.902 Y3.761
X47.026 Y3.895
X46.145 Y3.988
X45.261 Y4.053
X44.376 Y4.097
X43.49 Y4.128
X42.605 Y4.15
X41.719 Y4.165
X40.833 Y4.176
X39.946 Y4.183
X39.06 Y4.188
X38.174 Y4.192
X36.402 Y4.196
X33.744 Y4.199
X25.768 Y4.2
X10.704
X9.859 Y4.465
X9.129 Y4.968
X8.534 Y5.624
X8.064 Y6.376
X7.7 Y7.183
X7.422 Y8.025
X7.211 Y8.886
X7.053 Y9.757
X6.935 Y10.636
X6.847 Y11.517
X6.782 Y12.401
X6.734 Y13.286
X6.698 Y14.171
X6.672 Y15.057
X6.653 Y15.943
X6.639 Y16.829
X6.628 Y17.715
X6.621 Y18.601
X6.615 Y19.487
X6.611 Y20.373
X6.606 Y22.146
X6.602 Y24.804
X6.6 Y30.121
Y58.477
X6.643 Y59.362
X6.959 Y60.19
X7.489 Y60.9
X8.16 Y61.479
X8.918 Y61.938
X9.729 Y62.294
X10.572 Y62.568
X11.433 Y62.777
X12.305 Y62.935
X13.183 Y63.054
X14.065 Y63.142
X14.948 Y63.209
X15.833 Y63.258
X16.718 Y63.295
X17.604 Y63.323
X18.49 Y63.343
X19.376 Y63.358
X20.262 Y63.369
X21.148 Y63.377
X22.034 Y63.383
X22.92 Y63.388
X24.693 Y63.393
X27.351 Y63.397
X32.668 Y63.4
X46.846
X47.64 Y63.427
X47.654 Y63.428
X47.971 Y63.503
X48.263 Y63.649
X48.512 Y63.858
X48.707 Y64.119
X50.011 Y66.378
X50.066 Y66.467
G3 X49.965 Y67.191 I-0.522 J0.296
G1 X49.898 Y67.257 Z-1.993
X49.833 Y67.321 Z-1.971
X49.771 Y67.382 Z-1.935
X49.714 Y67.438 Z-1.885
X49.663 Y67.488 Z-1.824
X49.619 Y67.531 Z-1.753
X49.584 Y67.566 Z-1.672
X49.558 Y67.591 Z-1.585
X49.543 Y67.607 Z-1.494
X49.537 Y67.612 Z-1.4
G0 Z5.
X88.497 Y68.6
Z-0.8
G1 Z-1.4 F1440.
X88.5 Y68.593 Z-1.494
X88.507 Y68.573 Z-1.585
X88.519 Y68.539 Z-1.672
X88.535 Y68.492 Z-1.753
X88.556 Y68.435 Z-1.824
X88.58 Y68.367 Z-1.885
X88.607 Y68.292 Z-1.935
X88.636 Y68.21 Z-1.971
X88.667 Y68.123 Z-1.993
X88.698 Y68.035 Z-2.
G3 X89.137 Y67.383 I1.491 J0.53
G1 X89.378 Y67.182
X89.431 Y67.129
X89.567 Y66.981
X89.732 Y66.78
X89.833 Y66.629
X89.866 Y66.579
X89.989 Y66.378
X90.105 Y66.176
X90.226 Y65.99
X90.355 Y65.822
X90.524 Y65.634
X90.743 Y65.428
X91.002 Y65.22
X91.337 Y64.993
X91.741 Y64.764
X92.261 Y64.523
X92.931 Y64.275
X93.784 Y64.035
X94.653 Y63.861
X95.53 Y63.735
X96.411 Y63.643
X97.295 Y63.576
X98.179 Y63.528
X99.065 Y63.492
X99.951 Y63.467
X100.837 Y63.448
X101.723 Y63.435
X102.609 Y63.425
X103.495 Y63.418
X104.381 Y63.413
X105.267 Y63.409
X107.039 Y63.405
X109.698 Y63.402
X115.9 Y63.4
X128.306
X129.192 Y63.397
X130.039 Y63.135
X130.775 Y62.642
X131.379 Y61.994
X131.86 Y61.249
X132.235 Y60.446
X132.523 Y59.609
X132.743 Y58.75
X132.909 Y57.88
X133.035 Y57.003
X133.128 Y56.121
X133.199 Y55.238
X133.251 Y54.353
X133.29 Y53.468
X133.318 Y52.583
X133.34 Y51.697
X133.356 Y50.811
X133.367 Y49.925
X133.376 Y49.039
X133.382 Y48.152
X133.387 Y47.266
X133.393 Y45.494
X133.397 Y42.836
X133.399 Y38.405
X133.4 Y10.935
X133.174 Y10.079
X132.706 Y9.326
X132.076 Y8.703
X131.343 Y8.204
X130.547 Y7.815
X129.714 Y7.515
X128.858 Y7.286
X127.989 Y7.113
X127.112 Y6.982
X126.231 Y6.884
X125.348 Y6.811
X124.464 Y6.756
X123.579 Y6.716
X122.693 Y6.685
X121.807 Y6.663
X120.921 Y6.647
X120.035 Y6.634
X119.149 Y6.625
X118.263 Y6.619
X117.377 Y6.614
X115.605 Y6.607
X112.946 Y6.603
X108.516 Y6.601
X93.452 Y6.6
X92.566 Y6.585
X92.375 Y6.568
X92.112 Y6.519
X91.864 Y6.42
X91.638 Y6.276
X91.444 Y6.092
X91.289 Y5.874
X89.989 Y3.622
X89.934 Y3.533
G3 X90.035 Y2.809 I0.522 J-0.296
G1 X90.102 Y2.743 Z-1.993
X90.167 Y2.679 Z-1.971
X90.229 Y2.618 Z-1.935
X90.286 Y2.562 Z-1.885
X90.337 Y2.512 Z-1.824
X90.381 Y2.469 Z-1.753
X90.416 Y2.434 Z-1.672
X90.442 Y2.409 Z-1.585
X90.457 Y2.393 Z-1.494
X90.463 Y2.388 Z-1.4
G0 Z5.
X51.503 Y1.4
Z-0.8
G1 Z-1.4 F1440.
X51.5 Y1.407 Z-1.494
X51.493 Y1.427 Z-1.585
X51.481 Y1.461 Z-1.672
X51.465 Y1.508 Z-1.753
X51.444 Y1.565 Z-1.824
X51.42 Y1.633 Z-1.885
X51.393 Y1.708 Z-1.935
X51.364 Y1.79 Z-1.971
X51.333 Y1.877 Z-1.993
X51.302 Y1.965 Z-2.
G3 X50.863 Y2.617 I-1.491 J-0.53
G1 X50.622 Y2.818
X50.569 Y2.871
X50.433 Y3.019
X50.268 Y3.22
X50.167 Y3.371
X50.134 Y3.421
X50.011 Y3.622
X49.895 Y3.824
X49.774 Y4.01
X49.645 Y4.178
X49.476 Y4.366
X49.257 Y4.572
X48.998 Y4.78
X48.663 Y5.007
X48.259 Y5.236
X47.739 Y5.477
X47.069 Y5.725
X46.216 Y5.965
X45.347 Y6.139
X44.47 Y6.265
X43.589 Y6.357
X42.705 Y6.424
X41.821 Y6.472
X40.935 Y6.508
X40.049 Y6.533
X39.163 Y6.552
X38.277 Y6.565
X37.391 Y6.575
X36.505 Y6.582
X35.619 Y6.587
X34.733 Y6.591
X32.961 Y6.595
X30.302 Y6.598
X24.1 Y6.6
X13.466
X12.599 Y6.784
X11.829 Y7.221
X11.187 Y7.833
X10.673 Y8.554
X10.27 Y9.343
X9.958 Y10.173
X9.72 Y11.026
X9.539 Y11.894
X9.402 Y12.769
X9.299 Y13.649
X9.223 Y14.532
X9.165 Y15.416
X9.122 Y16.301
X9.091 Y17.187
X9.067 Y18.073
X9.049 Y18.959
X9.037 Y19.845
X9.027 Y20.731
X9.02 Y21.617
X9.015 Y22.503
X9.011 Y23.389
X9.006 Y25.161
X9.002 Y27.82
X9. Y33.137
Y56.176
X9.096 Y57.057
X9.456 Y57.867
X10.014 Y58.555
X10.7 Y59.116
X11.466 Y59.561
X12.281 Y59.908
X13.126 Y60.175
X13.988 Y60.379
X14.861 Y60.534
X15.739 Y60.651
X16.621 Y60.739
X17.505 Y60.805
X18.389 Y60.855
X19.275 Y60.892
X20.16 Y60.92
X21.046 Y60.94
X21.932 Y60.956
X22.818 Y60.967
X23.704 Y60.976
X24.59 Y60.982
X25.477 Y60.987
X27.249 Y60.993
X29.907 Y60.997
X34.338 Y60.999
X44.085 Y61.
X44.971 Y61.001
X45.857 Y61.013
X46.221 Y61.04
X46.489 Y61.086
X46.743 Y61.183
X46.974 Y61.328
X47.172 Y61.514
X47.331 Y61.736
X48.707 Y64.119
G3 X48.586 Y64.84 I-0.53 J0.282
G1 X48.518 Y64.904 Z-1.993
X48.451 Y64.966 Z-1.971
X48.387 Y65.026 Z-1.935
X48.328 Y65.08 Z-1.885
X48.276 Y65.129 Z-1.824
X48.231 Y65.171 Z-1.753
X48.195 Y65.204 Z-1.672
X48.169 Y65.229 Z-1.585
X48.153 Y65.244 Z-1.494
X48.148 Y65.249 Z-1.4
G0 Z5.
X89.928 Y67.54
Z-0.8
G1 Z-1.4 F1440.
Y67.532 Z-1.494
Y67.51 Z-1.585
X89.927 Y67.474 Z-1.672
X89.926 Y67.425 Z-1.753
Y67.364 Z-1.824
X89.925 Y67.292 Z-1.885
X89.924 Y67.212 Z-1.935
X89.923 Y67.125 Z-1.971
X89.921 Y67.034 Z-1.993
X89.92 Y66.94 Z-2.
G3 X90.105 Y66.176 I1.582 J-0.02
G1 X91.243 Y64.206
X91.435 Y63.908
X91.601 Y63.692
X91.79 Y63.482
X92.039 Y63.248
X92.34 Y63.007
X92.713 Y62.754
X93.17 Y62.495
X93.75 Y62.226
X94.489 Y61.953
X95.342 Y61.713
X96.209 Y61.533
X97.085 Y61.398
X97.965 Y61.297
X98.848 Y61.221
X99.733 Y61.165
X100.618 Y61.122
X101.503 Y61.091
X102.389 Y61.067
X103.275 Y61.05
X104.161 Y61.037
X105.047 Y61.027
X105.933 Y61.02
X106.819 Y61.015
X107.705 Y61.011
X109.478 Y61.006
X112.136 Y61.002
X117.453 Y61.
X126.314
X127.19 Y60.863
X127.983 Y60.469
X128.653 Y59.889
X129.195 Y59.188
X129.623 Y58.412
X129.956 Y57.591
X130.212 Y56.743
X130.407 Y55.878
X130.556 Y55.005
X130.667 Y54.126
X130.752 Y53.243
X130.815 Y52.36
X130.862 Y51.475
X130.897 Y50.589
X130.924 Y49.704
X130.943 Y48.818
X130.958 Y47.932
X130.969 Y47.046
X130.977 Y46.159
X130.983 Y45.273
X130.987 Y44.387
X130.993 Y42.615
X130.997 Y39.957
X131. Y34.64
Y13.373
X130.76 Y12.52
X130.29 Y11.769
X129.66 Y11.146
X128.928 Y10.646
X128.134 Y10.253
X127.302 Y9.948
X126.447 Y9.715
X125.579 Y9.537
X124.703 Y9.402
X123.823 Y9.301
X122.94 Y9.225
X122.055 Y9.168
X121.17 Y9.125
X120.285 Y9.093
X119.399 Y9.069
X118.513 Y9.051
X117.627 Y9.038
X116.741 Y9.028
X115.855 Y9.021
X114.969 Y9.015
X114.083 Y9.011
X112.31 Y9.006
X109.652 Y9.002
X104.335 Y9.
X95.474
X94.588 Y8.996
X93.745 Y8.963
X93.718 Y8.959
X93.403 Y8.884
X93.113 Y8.738
X92.865 Y8.529
X92.672 Y8.269
X91.289 Y5.874
G3 X91.41 Y5.153 I0.53 J-0.282
G1 X91.478 Y5.089 Z-1.993
X91.545 Y5.027 Z-1.971
X91.609 Y4.968 Z-1.935
X91.668 Y4.913 Z-1.885
X91.72 Y4.864 Z-1.824
X91.765 Y4.822 Z-1.753
X91.801 Y4.789 Z-1.672
X91.827 Y4.764 Z-1.585
X91.843 Y4.749 Z-1.494
X91.849 Y4.744 Z-1.4
G0 Z5.
X50.072 Y2.46
Z-0.8
G1 Z-1.4 F1440.
Y2.468 Z-1.494
Y2.49 Z-1.585
X50.073 Y2.526 Z-1.672
Y2.575 Z-1.753
X50.074 Y2.636 Z-1.824
X50.075 Y2.708 Z-1.885
X50.076 Y2.788 Z-1.935
X50.077 Y2.875 Z-1.971
X50.079 Y2.966 Z-1.993
X50.08 Y3.06 Z-2.
G3 X49.895 Y3.824 I-1.582 J0.02
G1 X48.757 Y5.794
X48.565 Y6.092
X48.399 Y6.308
X48.21 Y6.518
X47.961 Y6.752
X47.66 Y6.993
X47.287 Y7.246
X46.83 Y7.505
X46.25 Y7.774
X45.511 Y8.047
X44.658 Y8.287
X43.791 Y8.467
X42.915 Y8.602
X42.035 Y8.703
X41.152 Y8.779
X40.267 Y8.835
X39.382 Y8.878
X38.497 Y8.909
X37.611 Y8.933
X36.725 Y8.95
X35.839 Y8.963
X34.953 Y8.973
X34.067 Y8.98
X33.181 Y8.985
X32.295 Y8.989
X30.522 Y8.994
X27.864 Y8.998
X22.547 Y9.
X16.344
X15.461 Y9.066
X14.639 Y9.396
X13.933 Y9.932
X13.355 Y10.604
X12.896 Y11.362
X12.537 Y12.172
X12.26 Y13.014
X12.048 Y13.874
X11.887 Y14.746
X11.765 Y15.623
X11.673 Y16.505
X11.604 Y17.388
X11.552 Y18.273
X11.514 Y19.158
X11.484 Y20.044
X11.463 Y20.93
X11.447 Y21.816
X11.435 Y22.702
X11.426 Y23.588
X11.419 Y24.474
X11.414 Y25.36
X11.408 Y27.132
X11.403 Y29.791
X11.401 Y34.221
X11.4 Y53.716
X11.499 Y54.596
X11.854 Y55.408
X12.405 Y56.102
X13.087 Y56.669
X13.849 Y57.12
X14.662 Y57.473
X15.505 Y57.746
X16.366 Y57.955
X17.238 Y58.114
X18.116 Y58.235
X18.997 Y58.326
X19.88 Y58.395
X20.765 Y58.447
X21.65 Y58.485
X22.536 Y58.514
X23.422 Y58.536
X24.308 Y58.552
X25.194 Y58.565
X26.08 Y58.574
X26.966 Y58.58
X27.852 Y58.585
X29.624 Y58.592
X32.283 Y58.597
X36.713 Y58.599
X42.916 Y58.6
X43.802 Y58.604
X44.688 Y58.629
X44.876 Y58.648
X45.136 Y58.699
X45.381 Y58.799
X45.603 Y58.942
X45.795 Y59.125
X45.948 Y59.341
X47.331 Y61.736
G3 X47.21 Y62.456 I-0.53 J0.282
G1 X47.142 Y62.52 Z-1.993
X47.075 Y62.583 Z-1.971
X47.011 Y62.642 Z-1.935
X46.952 Y62.697 Z-1.885
X46.9 Y62.746 Z-1.824
X46.855 Y62.787 Z-1.753
X46.819 Y62.821 Z-1.672
X46.793 Y62.845 Z-1.585
X46.777 Y62.86 Z-1.494
X46.771 Y62.865 Z-1.4
G0 Z5.
X91.065 Y65.569
Z-0.8
G1 Z-1.4 F1440.
Y65.562 Z-1.494
Y65.54 Z-1.585
Y65.504 Z-1.672
X91.064 Y65.455 Z-1.753
X91.063 Y65.394 Z-1.824
X91.062 Y65.322 Z-1.885
X91.061 Y65.242 Z-1.935
X91.06 Y65.155 Z-1.971
X91.059 Y65.063 Z-1.993
X91.058 Y64.97 Z-2.
G3 X91.243 Y64.206 I1.582 J-0.02
G1 X92.544 Y61.953
X92.734 Y61.659
X92.904 Y61.437
X93.112 Y61.206
X93.365 Y60.968
X93.689 Y60.708
X94.072 Y60.448
X94.558 Y60.174
X95.168 Y59.89
X95.941 Y59.604
X96.794 Y59.364
X97.661 Y59.181
X98.537 Y59.042
X99.416 Y58.935
X100.299 Y58.854
X101.183 Y58.792
X102.067 Y58.745
X102.953 Y58.71
X103.839 Y58.683
X104.724 Y58.662
X105.61 Y58.647
X106.497 Y58.635
X107.383 Y58.626
X108.269 Y58.62
X109.155 Y58.615
X110.927 Y58.608
X113.585 Y58.603
X118.016 Y58.601
X123.333 Y58.6
X124.219 Y58.591
X125.069 Y58.342
X125.816 Y57.866
X126.438 Y57.235
X126.938 Y56.503
X127.331 Y55.709
X127.636 Y54.877
X127.871 Y54.022
X128.05 Y53.154
X128.186 Y52.279
X128.289 Y51.399
X128.367 Y50.516
X128.425 Y49.632
X128.469 Y48.747
X128.502 Y47.861
X128.527 Y46.975
X128.546 Y46.09
X128.56 Y45.203
X128.57 Y44.317
X128.578 Y43.431
X128.583 Y42.545
X128.588 Y41.659
X128.593 Y39.887
X128.597 Y37.229
X128.6 Y31.912
Y15.962
X128.407 Y15.097
X127.972 Y14.324
X127.367 Y13.677
X126.651 Y13.155
X125.867 Y12.742
X125.042 Y12.42
X124.191 Y12.172
X123.325 Y11.982
X122.451 Y11.838
X121.572 Y11.729
X120.689 Y11.647
X119.805 Y11.585
X118.921 Y11.538
X118.035 Y11.503
X117.149 Y11.477
X116.263 Y11.457
X115.377 Y11.443
X114.491 Y11.432
X113.605 Y11.424
X112.719 Y11.418
X111.833 Y11.413
X110.061 Y11.407
X107.402 Y11.403
X106.516 Y11.402
X100.313 Y11.4
X97.655
X96.769 Y11.399
X95.883 Y11.39
X95.2 Y11.358
X94.923 Y11.317
X94.66 Y11.222
X94.421 Y11.077
X94.215 Y10.886
X94.052 Y10.659
X92.672 Y8.269
G3 X92.793 Y7.549 I0.53 J-0.282
G1 X92.861 Y7.485 Z-1.993
X92.928 Y7.422 Z-1.971
X92.992 Y7.363 Z-1.935
X93.051 Y7.308 Z-1.885
X93.103 Y7.259 Z-1.824
X93.148 Y7.218 Z-1.753
X93.184 Y7.184 Z-1.672
X93.21 Y7.16 Z-1.585
X93.226 Y7.145 Z-1.494
X93.231 Y7.14 Z-1.4
G0 Z5.
X48.935 Y4.431
Z-0.8
G1 Z-1.4 F1440.
Y4.438 Z-1.494
Y4.46 Z-1.585
Y4.496 Z-1.672
X48.936 Y4.545 Z-1.753
X48.937 Y4.606 Z-1.824
X48.938 Y4.678 Z-1.885
X48.939 Y4.758 Z-1.935
X48.94 Y4.845 Z-1.971
X48.941 Y4.937 Z-1.993
X48.942 Y5.03 Z-2.
G3 X48.757 Y5.794 I-1.582 J0.02
G1 X47.456 Y8.047
X47.266 Y8.341
X47.096 Y8.563
X46.888 Y8.794
X46.635 Y9.032
X46.311 Y9.292
X45.928 Y9.552
X45.442 Y9.826
X44.832 Y10.11
X44.059 Y10.396
X43.206 Y10.636
X42.339 Y10.819
X41.463 Y10.958
X40.584 Y11.065
X39.701 Y11.146
X38.817 Y11.208
X37.933 Y11.255
X37.047 Y11.29
X36.161 Y11.317
X35.276 Y11.338
X34.39 Y11.353
X33.503 Y11.365
X32.617 Y11.374
X31.731 Y11.38
X30.845 Y11.385
X29.073 Y11.392
X26.415 Y11.397
X21.984 Y11.399
X19.326 Y11.4
X18.439 Y11.401
X17.571 Y11.575
X16.789 Y11.993
X16.131 Y12.586
X15.597 Y13.294
X15.175 Y14.073
X14.847 Y14.896
X14.593 Y15.745
X14.399 Y16.609
X14.251 Y17.483
X14.139 Y18.362
X14.055 Y19.244
X13.991 Y20.128
X13.943 Y21.013
X13.907 Y21.898
X13.88 Y22.784
X13.86 Y23.67
X13.844 Y24.556
X13.833 Y25.442
X13.825 Y26.328
X13.818 Y27.214
X13.814 Y28.1
X13.808 Y29.872
X13.803 Y32.531
X13.801 Y36.961
X13.8 Y51.139
X13.862 Y52.023
X14.179 Y52.851
X14.7 Y53.567
X15.362 Y54.157
X16.112 Y54.629
X16.917 Y55.
X17.755 Y55.287
X18.613 Y55.509
X19.482 Y55.678
X20.359 Y55.807
X21.24 Y55.904
X22.123 Y55.978
X23.007 Y56.033
X23.893 Y56.075
X24.778 Y56.106
X25.664 Y56.13
X26.55 Y56.148
X27.436 Y56.161
X28.322 Y56.171
X29.208 Y56.178
X30.094 Y56.184
X30.98 Y56.188
X32.752 Y56.193
X35.411 Y56.197
X40.728 Y56.2
X41.614 Y56.201
X42.5 Y56.208
X43.385 Y56.237
X43.504 Y56.25
X43.761 Y56.303
X44.003 Y56.403
X44.222 Y56.546
X44.411 Y56.728
X44.563 Y56.942
X45.948 Y59.341
G3 X45.828 Y60.062 I-0.53 J0.282
G1 X45.759 Y60.126 Z-1.993
X45.692 Y60.188 Z-1.971
X45.628 Y60.247 Z-1.935
X45.57 Y60.302 Z-1.885
X45.517 Y60.351 Z-1.824
X45.473 Y60.393 Z-1.753
X45.437 Y60.426 Z-1.672
X45.41 Y60.451 Z-1.585
X45.394 Y60.466 Z-1.494
X45.389 Y60.471 Z-1.4
G0 Z5.
X92.367 Y63.316
Z-0.8
G1 Z-1.4 F1440.
Y63.308 Z-1.494
X92.366 Y63.286 Z-1.585
Y63.25 Z-1.672
X92.365 Y63.201 Z-1.753
X92.364 Y63.14 Z-1.824
X92.363 Y63.068 Z-1.885
X92.362 Y62.988 Z-1.935
X92.361 Y62.901 Z-1.971
X92.36 Y62.81 Z-1.993
X92.359 Y62.716 Z-2.
G3 X92.544 Y61.953 I1.582 J-0.02
G1 X93.938 Y59.539
X94.063 Y59.345
X94.233 Y59.123
X94.451 Y58.881
X94.706 Y58.641
X95.041 Y58.373
X95.431 Y58.108
X95.931 Y57.825
X96.558 Y57.534
X97.351 Y57.24
X98.205 Y57.001
X99.071 Y56.816
X99.946 Y56.673
X100.825 Y56.564
X101.707 Y56.479
X102.591 Y56.414
X103.476 Y56.364
X104.361 Y56.325
X105.246 Y56.295
X106.132 Y56.273
X107.018 Y56.255
X107.904 Y56.242
X108.79 Y56.232
X109.676 Y56.224
X110.563 Y56.218
X111.449 Y56.214
X113.221 Y56.208
X115.879 Y56.203
X120.31 Y56.201
X121.196
X122.079 Y56.127
X122.902 Y55.798
X123.61 Y55.265
X124.192 Y54.597
X124.657 Y53.843
X125.022 Y53.035
X125.304 Y52.196
X125.522 Y51.336
X125.688 Y50.466
X125.814 Y49.589
X125.909 Y48.708
X125.982 Y47.825
X126.036 Y46.94
X126.077 Y46.055
X126.108 Y45.17
X126.131 Y44.284
X126.148 Y43.398
X126.161 Y42.512
X126.171 Y41.626
X126.178 Y40.74
X126.184 Y39.853
X126.188 Y38.967
X126.193 Y37.195
X126.195 Y36.309
X126.198 Y32.765
X126.2 Y23.903
Y18.587
X126.063 Y17.711
X125.677 Y16.914
X125.105 Y16.236
X124.412 Y15.684
X123.642 Y15.246
X122.825 Y14.903
X121.98 Y14.637
X121.117 Y14.434
X120.245 Y14.278
X119.367 Y14.16
X118.485 Y14.071
X117.601 Y14.003
X116.717 Y13.953
X115.831 Y13.914
X114.946 Y13.886
X114.06 Y13.864
X113.174 Y13.848
X112.288 Y13.836
X111.402 Y13.827
X110.516 Y13.82
X109.63 Y13.815
X107.857 Y13.808
X105.199 Y13.803
X100.768 Y13.801
X98.996 Y13.8
X98.11 Y13.798
X97.224 Y13.786
X96.437 Y13.748
X95.882 Y13.676
X95.822 Y13.654
X95.769 Y13.616
X95.73 Y13.565
X94.052 Y10.659
G3 X94.173 Y9.939 I0.53 J-0.282
G1 X94.241 Y9.875 Z-1.993
X94.308 Y9.812 Z-1.971
X94.372 Y9.753 Z-1.935
X94.431 Y9.698 Z-1.885
X94.483 Y9.65 Z-1.824
X94.528 Y9.608 Z-1.753
X94.564 Y9.574 Z-1.672
X94.59 Y9.55 Z-1.585
X94.606 Y9.535 Z-1.494
X94.611 Y9.53 Z-1.4
G0 Z5.
X47.633 Y6.684
Z-0.8
G1 Z-1.4 F1440.
Y6.692 Z-1.494
X47.634 Y6.714 Z-1.585
Y6.75 Z-1.672
X47.635 Y6.799 Z-1.753
X47.636 Y6.86 Z-1.824
X47.637 Y6.932 Z-1.885
X47.638 Y7.012 Z-1.935
X47.639 Y7.099 Z-1.971
X47.64 Y7.19 Z-1.993
X47.641 Y7.284 Z-2.
G3 X47.456 Y8.047 I-1.582 J0.02
G1 X46.062 Y10.461
X45.937 Y10.655
X45.767 Y10.877
X45.549 Y11.119
X45.294 Y11.359
X44.959 Y11.627
X44.569 Y11.892
X44.069 Y12.175
X43.442 Y12.466
X42.649 Y12.76
X41.795 Y12.999
X40.929 Y13.184
X40.054 Y13.327
X39.175 Y13.436
X38.293 Y13.521
X37.409 Y13.586
X36.524 Y13.636
X35.639 Y13.675
X34.754 Y13.705
X33.868 Y13.727
X32.982 Y13.745
X32.096 Y13.758
X31.21 Y13.768
X30.324 Y13.776
X29.437 Y13.782
X28.551 Y13.786
X26.779 Y13.792
X24.121 Y13.797
X21.462 Y13.799
X20.576 Y13.817
X19.73 Y14.079
X18.987 Y14.562
X18.369 Y15.197
X17.871 Y15.93
X17.479 Y16.724
X17.174 Y17.556
X16.939 Y18.411
X16.759 Y19.278
X16.622 Y20.154
X16.518 Y21.034
X16.439 Y21.917
X16.379 Y22.801
X16.335 Y23.686
X16.301 Y24.571
X16.276 Y25.457
X16.257 Y26.343
X16.242 Y27.229
X16.232 Y28.115
X16.224 Y29.001
X16.218 Y29.887
X16.213 Y30.773
X16.207 Y32.545
X16.203 Y35.204
X16.202 Y36.09
X16.2 Y42.293
Y48.496
X16.215 Y49.382
X16.469 Y50.231
X16.945 Y50.978
X17.575 Y51.601
X18.305 Y52.103
X19.098 Y52.499
X19.928 Y52.808
X20.782 Y53.047
X21.649 Y53.23
X22.524 Y53.369
X23.404 Y53.475
X24.286 Y53.555
X25.17 Y53.616
X26.055 Y53.662
X26.941 Y53.696
X27.826 Y53.722
X28.712 Y53.742
X29.598 Y53.756
X30.484 Y53.767
