(1001)
(T1  D=6. CR=0. - ZMIN=-8. - FLAT END MILL)
G90 G94 G91.1 G40 G49 G17
G21

(2D CONTOUR1)
M5
T1 M6
S10000 M3
G54
M8
G0 X89.792 Y22.88
G43 Z15. H1
Z5.
G1 Z1. F330.
Z-7.4
X89.798 Y22.876 Z-7.494
X89.817 Y22.865 Z-7.585
X89.848 Y22.847 Z-7.672
X89.891 Y22.823 Z-7.753
X89.944 Y22.792 Z-7.824
X90.006 Y22.757 Z-7.885
X90.076 Y22.716 Z-7.935
X90.151 Y22.673 Z-7.971
X90.23 Y22.627 Z-7.993
X90.311 Y22.58 Z-8.
X90.831 Y22.28 F1440.
G3 X91.651 Y22.5 I0.3 J0.52
G1 X98.868 Y35.
X84.434 Y60.
X55.566
X41.132 Y35.
X55.566 Y10.
X84.434
X91.651 Y22.5
G3 X91.431 Y23.319 I-0.52 J0.3
G1 X90.911 Y23.619
X90.83 Y23.666 Z-7.993
X90.751 Y23.712 Z-7.971
X90.676 Y23.756 Z-7.935
X90.606 Y23.796 Z-7.885
X90.544 Y23.832 Z-7.824
X90.491 Y23.862 Z-7.753
X90.448 Y23.887 Z-7.672
X90.417 Y23.905 Z-7.585
X90.398 Y23.916 Z-7.494
X90.392 Y23.919 Z-7.4
G0 Z15.

M9
M30
