(1001)
(T1  D=6. CR=0. - ZMIN=-11.2 - FLAT END MILL)
G90 G94 G91.1 G40 G49 G17
G21

(2D ADAPTIVE1)
M5
T1 M6
S10000 M3
G54
M8
G0 X72.842 Y35.207
G43 Z15. H1
Z5.
Z2.55
G3 X67.158 Y34.793 Z2.237 I-2.842 J-0.207 F1440.
X72.842 Y35.207 Z1.925 I2.842 J0.207
X67.158 Y34.793 Z1.612 I-2.842 J-0.207
X72.842 Y35.207 Z1.299 I2.842 J0.207
X67.158 Y34.793 Z0.987 I-2.842 J-0.207
X72.842 Y35.207 Z0.674 I2.842 J0.207
X67.158 Y34.793 Z0.361 I-2.842 J-0.207
X72.842 Y35.207 Z0.049 I2.842 J0.207
X67.158 Y34.793 Z-0.264 I-2.842 J-0.207
X72.842 Y35.207 Z-0.577 I2.842 J0.207
X67.158 Y34.793 Z-0.889 I-2.842 J-0.207
X72.842 Y35.207 Z-1.202 I2.842 J0.207
X67.158 Y34.793 Z-1.515 I-2.842 J-0.207
X72.842 Y35.207 Z-1.827 I2.842 J0.207
X67.158 Y34.793 Z-2.14 I-2.842 J-0.207
X72.842 Y35.207 Z-2.453 I2.842 J0.207
X67.158 Y34.793 Z-2.765 I-2.842 J-0.207
X72.842 Y35.207 Z-3.078 I2.842 J0.207
X67.158 Y34.793 Z-3.391 I-2.842 J-0.207
X72.842 Y35.207 Z-3.703 I2.842 J0.207
X67.158 Y34.793 Z-4.016 I-2.842 J-0.207
X72.842 Y35.207 Z-4.329 I2.842 J0.207
X67.158 Y34.793 Z-4.641 I-2.842 J-0.207
X72.842 Y35.207 Z-4.954 I2.842 J0.207
X67.158 Y34.793 Z-5.267 I-2.842 J-0.207
X72.842 Y35.207 Z-5.579 I2.842 J0.207
X67.158 Y34.793 Z-5.892 I-2.842 J-0.207
X72.842 Y35.207 Z-6.205 I2.842 J0.207
X67.158 Y34.793 Z-6.517 I-2.842 J-0.207
X72.842 Y35.207 Z-6.83 I2.842 J0.207
X67.158 Y34.793 Z-7.143 I-2.842 J-0.207
X72.842 Y35.207 Z-7.455 I2.842 J0.207
X67.158 Y34.793 Z-7.768 I-2.842 J-0.207
X72.842 Y35.207 Z-8.081 I2.842 J0.207
X67.158 Y34.793 Z-8.393 I-2.842 J-0.207
X72.842 Y35.207 Z-8.706 I2.842 J0.207
X67.158 Y34.793 Z-9.019 I-2.842 J-0.207
X72.842 Y35.207 Z-9.331 I2.842 J0.207
X67.158 Y34.793 Z-9.644 I-2.842 J-0.207
X72.842 Y35.207 Z-9.957 I2.842 J0.207
X67.158 Y34.793 Z-10.269 I-2.842 J-0.207
X72.842 Y35.207 Z-10.582 I2.842 J0.207
X67.158 Y34.793 Z-10.895 I-2.842 J-0.207
X72.85 Y35. Z-11.2 I2.842 J0.207
X67.15 I-2.85 J0.
X72.85 I2.85 J0.
G1 X72.853 Y35.222
X73.006 Y36.094
X73.056 Y36.236
X73.09 Y36.382
X73.108 Y36.531
X73.113 Y36.681
X73.105 Y36.834
X73.082 Y36.998
X73.045 Y37.17
X72.99 Y37.349
X72.918 Y37.533
X72.826 Y37.72
X72.713 Y37.909
X72.58 Y38.097
X72.426 Y38.281
X72.251 Y38.459
X72.055 Y38.628
X71.838 Y38.787
X71.603 Y38.932
X71.349 Y39.062
X71.078 Y39.174
X70.792 Y39.265
X70.494 Y39.335
X70.185 Y39.382
X69.867 Y39.405
X69.544 Y39.401
X69.217 Y39.372
X68.889 Y39.315
X68.563 Y39.231
X68.242 Y39.121
X67.927 Y38.984
X67.623 Y38.82
X67.33 Y38.631
X67.052 Y38.418
X66.79 Y38.183
X66.546 Y37.925
X66.324 Y37.648
X66.123 Y37.353
X65.946 Y37.041
X65.795 Y36.715
X65.669 Y36.378
X65.571 Y36.03
X65.501 Y35.676
X65.46 Y35.316
X65.448 Y34.953
X65.465 Y34.59
X65.51 Y34.229
X65.585 Y33.873
X65.689 Y33.524
X65.82 Y33.183
X65.978 Y32.854
X66.162 Y32.539
X66.371 Y32.239
X66.603 Y31.957
X66.857 Y31.695
X67.132 Y31.453
X67.425 Y31.235
X67.735 Y31.04
X68.06 Y30.871
X68.397 Y30.729
X68.745 Y30.614
X69.1 Y30.527
X69.462 Y30.469
X69.827 Y30.44
X70.194 Y30.441
X70.559 Y30.471
X70.92 Y30.531
X71.276 Y30.619
X71.623 Y30.735
X71.96 Y30.879
X72.285 Y31.05
X72.594 Y31.246
X72.887 Y31.466
X73.162 Y31.709
X73.415 Y31.973
X73.647 Y32.257
X73.856 Y32.559
X74.152 Y33.071
X74.495 Y33.792
X74.703 Y34.338
X74.845 Y34.825
X74.937 Y35.274
X74.99 Y35.708
X75.008 Y36.128
X74.993 Y36.535
X74.945 Y36.932
X74.867 Y37.321
X74.758 Y37.7
X74.62 Y38.07
X74.451 Y38.429
X74.252 Y38.775
X74.025 Y39.107
X73.769 Y39.423
X73.486 Y39.721
X73.176 Y39.998
X72.84 Y40.252
X72.48 Y40.482
X72.097 Y40.686
X71.694 Y40.86
X71.272 Y41.003
X70.835 Y41.114
X70.385 Y41.189
X69.925 Y41.229
X69.458 Y41.232
X68.988 Y41.197
X68.518 Y41.124
X68.052 Y41.013
X67.592 Y40.863
X67.143 Y40.675
X66.708 Y40.451
X66.289 Y40.191
X65.891 Y39.896
X65.515 Y39.569
X65.166 Y39.211
X64.844 Y38.824
X64.554 Y38.412
X64.297 Y37.975
X64.075 Y37.518
X63.89 Y37.044
X63.743 Y36.555
X63.636 Y36.054
X63.569 Y35.546
X63.543 Y35.033
X63.558 Y34.519
X63.615 Y34.007
X63.713 Y33.5
X63.851 Y33.003
X64.029 Y32.517
X64.245 Y32.047
X64.499 Y31.596
X64.788 Y31.166
X65.111 Y30.761
X65.465 Y30.383
X65.849 Y30.034
X66.26 Y29.717
X66.695 Y29.434
X67.152 Y29.186
X67.627 Y28.976
X68.117 Y28.805
X68.62 Y28.674
X69.132 Y28.583
X69.649 Y28.534
X70.169 Y28.526
X70.687 Y28.561
X71.202 Y28.636
X71.708 Y28.753
X72.204 Y28.91
X72.686 Y29.107
X73.15 Y29.341
X73.594 Y29.612
X74.015 Y29.918
X74.443 Y30.285
X74.89 Y30.735
X75.308 Y31.23
X75.697 Y31.773
X76.04 Y32.345
X76.33 Y32.93
X76.567 Y33.522
X76.75 Y34.115
X76.882 Y34.708
X76.965 Y35.299
X77. Y35.886
X76.987 Y36.467
X76.928 Y37.04
X76.825 Y37.602
X76.677 Y38.152
X76.486 Y38.688
X76.252 Y39.206
X75.977 Y39.704
X75.663 Y40.181
X75.309 Y40.632
X74.918 Y41.057
X74.491 Y41.451
X74.031 Y41.812
X73.539 Y42.138
X73.018 Y42.426
X72.471 Y42.673
X71.901 Y42.877
X71.312 Y43.036
X70.707 Y43.149
X70.091 Y43.212
X69.467 Y43.226
X68.84 Y43.19
X68.213 Y43.103
X67.591 Y42.965
X66.979 Y42.777
X66.381 Y42.538
X65.8 Y42.251
X65.241 Y41.916
X64.709 Y41.536
X64.206 Y41.113
X63.738 Y40.648
X63.306 Y40.146
X62.915 Y39.608
X62.567 Y39.04
X62.265 Y38.443
X62.011 Y37.822
X61.807 Y37.182
X61.655 Y36.526
X61.556 Y35.858
X61.511 Y35.184
X61.52 Y34.507
X61.583 Y33.832
X61.701 Y33.164
X61.872 Y32.507
X62.095 Y31.865
X62.369 Y31.242
X62.693 Y30.643
X63.064 Y30.072
X63.48 Y29.532
X63.938 Y29.027
X64.435 Y28.56
X64.968 Y28.134
X65.534 Y27.752
X66.129 Y27.417
X66.749 Y27.131
X67.39 Y26.895
X68.049 Y26.712
X68.719 Y26.582
X69.399 Y26.506
X70.082 Y26.485
X70.765 Y26.518
X71.443 Y26.607
X72.111 Y26.749
X72.766 Y26.945
X73.404 Y27.193
X74.029 Y27.496
X74.649 Y27.861
X75.257 Y28.287
X75.846 Y28.775
X76.406 Y29.321
X76.926 Y29.917
X77.399 Y30.555
X77.819 Y31.229
X78.181 Y31.93
X78.484 Y32.652
X78.725 Y33.391
X78.905 Y34.139
X79.023 Y34.894
X79.08 Y35.649
X79.077 Y36.402
X79.013 Y37.148
X78.89 Y37.883
X78.709 Y38.603
X78.471 Y39.306
X78.177 Y39.986
X77.83 Y40.642
X77.431 Y41.269
X76.981 Y41.863
X76.483 Y42.421
X75.94 Y42.94
X75.353 Y43.416
X74.727 Y43.845
X74.065 Y44.226
X73.37 Y44.553
X72.647 Y44.826
X71.9 Y45.041
X71.134 Y45.196
X70.353 Y45.29
X69.562 Y45.321
X68.768 Y45.288
X67.974 Y45.191
X67.187 Y45.03
X66.411 Y44.805
X65.652 Y44.517
X64.915 Y44.168
X64.206 Y43.759
X63.53 Y43.292
X62.89 Y42.771
X62.293 Y42.198
X61.741 Y41.577
X61.24 Y40.912
X60.792 Y40.207
X60.402 Y39.466
X60.071 Y38.695
X59.803 Y37.898
X59.6 Y37.08
X59.462 Y36.247
X59.392 Y35.405
X59.389 Y34.559
X59.455 Y33.714
X59.588 Y32.876
X59.788 Y32.051
X60.054 Y31.243
X60.384 Y30.46
X60.776 Y29.704
X61.228 Y28.982
X61.737 Y28.299
X62.299 Y27.658
X62.911 Y27.064
X63.569 Y26.521
X64.269 Y26.032
X65.005 Y25.601
X65.775 Y25.23
X66.571 Y24.922
X67.39 Y24.679
X68.226 Y24.503
X69.074 Y24.394
X69.927 Y24.354
X70.781 Y24.382
X71.631 Y24.478
X72.471 Y24.643
X73.302 Y24.877
X74.119 Y25.179
X74.92 Y25.551
X75.692 Y25.988
X76.426 Y26.484
X77.119 Y27.036
X77.769 Y27.639
X78.371 Y28.289
X78.923 Y28.982
X79.422 Y29.714
X79.866 Y30.481
X80.251 Y31.279
X80.576 Y32.103
X80.839 Y32.95
X81.037 Y33.813
X81.169 Y34.69
X81.233 Y35.573
X81.23 Y36.459
X81.158 Y37.343
X81.018 Y38.218
X80.811 Y39.079
X80.537 Y39.922
X80.199 Y40.741
X79.798 Y41.531
X79.336 Y42.288
X78.818 Y43.006
X78.245 Y43.682
X77.622 Y44.313
X76.953 Y44.893
X76.241 Y45.421
X75.491 Y45.893
X74.708 Y46.307
X73.895 Y46.661
X73.059 Y46.953
X72.202 Y47.181
X71.332 Y47.346
X70.451 Y47.446
X69.566 Y47.48
X68.68 Y47.448
X67.8 Y47.351
X66.928 Y47.188
X66.071 Y46.963
X65.233 Y46.677
X64.417 Y46.331
X63.628 Y45.929
X62.869 Y45.471
X62.145 Y44.96
X61.459 Y44.398
X60.817 Y43.789
X60.219 Y43.134
X59.669 Y42.439
X59.17 Y41.707
X58.722 Y40.942
X58.329 Y40.148
X57.992 Y39.329
X57.714 Y38.487
X57.497 Y37.628
X57.342 Y36.756
X57.247 Y35.875
X57.214 Y34.989
X57.241 Y34.104
X57.329 Y33.222
X57.478 Y32.348
X57.689 Y31.488
X57.961 Y30.644
X58.29 Y29.822
X58.675 Y29.024
X59.115 Y28.254
X59.605 Y27.516
X60.145 Y26.813
X60.733 Y26.151
X61.367 Y25.531
X62.042 Y24.957
X62.755 Y24.432
X63.503 Y23.956
X64.281 Y23.532
X65.086 Y23.162
X65.915 Y22.849
X66.765 Y22.596
X67.629 Y22.403
X68.506 Y22.27
X69.389 Y22.198
X70.275 Y22.185
X71.16 Y22.233
X72.039 Y22.342
X72.908 Y22.513
X73.764 Y22.744
X74.602 Y23.032
X75.419 Y23.376
X76.211 Y23.772
X76.976 Y24.22
X77.708 Y24.719
X78.406 Y25.265
X79.067 Y25.855
X79.69 Y26.485
X80.272 Y27.153
X80.812 Y27.856
X81.306 Y28.592
X81.75 Y29.358
X82.146 Y30.151
X82.491 Y30.968
X82.784 Y31.804
X83.025 Y32.656
X83.211 Y33.523
X83.339 Y34.4
X83.41 Y35.283
X83.425 Y36.169
X83.382 Y37.054
X83.284 Y37.935
X83.129 Y38.807
X82.916 Y39.667
X82.647 Y40.511
X82.323 Y41.336
X81.947 Y42.139
X81.52 Y42.915
X81.045 Y43.663
X80.52 Y44.377
X79.95 Y45.056
X79.337 Y45.695
X78.684 Y46.294
X77.995 Y46.851
X77.272 Y47.364
X76.517 Y47.828
X75.734 Y48.242
X74.925 Y48.605
X74.096 Y48.917
X73.248 Y49.176
X72.387 Y49.383
X71.514 Y49.536
X70.633 Y49.631
X69.748 Y49.67
X68.862 Y49.654
X67.979 Y49.583
X67.101 Y49.458
X66.233 Y49.28
X65.378 Y49.048
X64.539 Y48.763
X63.719 Y48.427
X62.921 Y48.042
X62.147 Y47.61
X61.401 Y47.132
X60.685 Y46.61
X60.003 Y46.045
X59.357 Y45.438
X58.749 Y44.793
X58.181 Y44.113
X57.654 Y43.4
X57.17 Y42.658
X56.731 Y41.889
X56.339 Y41.094
X55.998 Y40.276
X55.706 Y39.44
X55.464 Y38.587
X55.273 Y37.722
X55.132 Y36.847
X55.044 Y35.965
X55.01 Y35.08
X55.029 Y34.194
X55.1 Y33.31
X55.223 Y32.433
X55.398 Y31.564
X55.623 Y30.707
X55.899 Y29.865
X56.226 Y29.042
X56.602 Y28.239
X57.023 Y27.459
X57.489 Y26.706
X57.998 Y25.981
X58.549 Y25.286
X59.141 Y24.627
X59.772 Y24.005
X60.439 Y23.421
X61.139 Y22.878
X61.869 Y22.376
X62.627 Y21.916
X63.41 Y21.502
X64.217 Y21.136
X65.045 Y20.82
X65.89 Y20.553
X66.749 Y20.336
X67.619 Y20.17
X68.498 Y20.054
X69.382 Y19.99
X70.268 Y19.978
X71.153 Y20.021
X72.034 Y20.115
X72.908 Y20.261
X73.772 Y20.457
X74.624 Y20.702
X75.46 Y20.996
X76.277 Y21.339
X77.073 Y21.728
X77.845 Y22.163
X78.592 Y22.64
X79.31 Y23.159
X80. Y23.715
X80.657 Y24.309
X81.281 Y24.939
X81.868 Y25.603
X82.417 Y26.298
X82.928 Y27.022
X83.399 Y27.773
X83.829 Y28.548
X84.216 Y29.345
X84.559 Y30.162
X84.856 Y30.997
X85.106 Y31.847
X85.309 Y32.709
X85.464 Y33.582
X85.571 Y34.461
X85.631 Y35.346
X85.641 Y36.232
X85.601 Y37.117
X85.511 Y37.998
X85.372 Y38.873
X85.184 Y39.739
X84.948 Y40.594
X84.667 Y41.434
X84.338 Y42.257
X83.964 Y43.06
X83.544 Y43.84
X83.081 Y44.596
X82.577 Y45.325
X82.033 Y46.024
X81.452 Y46.693
X80.835 Y47.329
X80.183 Y47.929
X79.498 Y48.491
X78.783 Y49.015
X78.04 Y49.498
X77.272 Y49.94
X76.481 Y50.34
X75.67 Y50.697
X74.84 Y51.008
X73.995 Y51.272
X73.136 Y51.49
X72.266 Y51.661
X71.389 Y51.785
X70.506 Y51.861
X69.62 Y51.89
X68.735 Y51.871
X67.851 Y51.803
X66.972 Y51.688
X66.101 Y51.526
X65.24 Y51.317
X64.391 Y51.063
X63.556 Y50.766
X62.739 Y50.424
X61.94 Y50.04
X61.164 Y49.613
X60.411 Y49.145
X59.684 Y48.639
X58.985 Y48.094
X58.315 Y47.514
X57.676 Y46.9
X57.07 Y46.254
X56.5 Y45.576
X55.965 Y44.869
X55.469 Y44.135
X55.011 Y43.376
X54.593 Y42.595
X54.216 Y41.793
X53.881 Y40.972
X53.59 Y40.135
X53.343 Y39.284
X53.141 Y38.422
X52.984 Y37.55
X52.872 Y36.671
X52.805 Y35.787
X52.784 Y34.901
X52.807 Y34.015
X52.878 Y33.132
X52.995 Y32.254
X53.157 Y31.382
X53.364 Y30.521
X53.615 Y29.671
X53.909 Y28.835
X54.245 Y28.015
X54.622 Y27.213
X55.042 Y26.433
X55.501 Y25.675
X55.998 Y24.942
X56.533 Y24.235
X57.104 Y23.557
X57.708 Y22.909
X58.344 Y22.292
X59.012 Y21.709
X59.709 Y21.162
X60.433 Y20.652
X61.182 Y20.179
X61.955 Y19.745
X62.749 Y19.351
X63.562 Y18.999
X64.392 Y18.688
X65.237 Y18.422
X66.095 Y18.199
X66.963 Y18.021
X67.839 Y17.887
X68.72 Y17.798
X69.605 Y17.755
X70.491 Y17.756
X71.376 Y17.803
X72.258 Y17.896
X73.133 Y18.034
X74. Y18.217
X74.857 Y18.443
X75.701 Y18.712
X76.531 Y19.023
X77.344 Y19.375
X78.139 Y19.767
X78.912 Y20.199
X79.663 Y20.669
X80.39 Y21.176
X81.092 Y21.717
X81.766 Y22.292
X82.412 Y22.899
X83.028 Y23.535
X83.613 Y24.201
X84.164 Y24.896
X84.68 Y25.616
X85.161 Y26.36
X85.607 Y27.126
X86.015 Y27.912
X86.385 Y28.718
X86.716 Y29.539
X87.008 Y30.376
X87.258 Y31.226
X87.465 Y32.088
X87.631 Y32.958
X87.755 Y33.836
X87.836 Y34.718
X87.875 Y35.603
X87.871 Y36.489
X87.824 Y37.374
X87.733 Y38.256
X87.598 Y39.132
X87.421 Y40.
X87.201 Y40.858
X86.94 Y41.705
X86.638 Y42.538
X86.296 Y43.355
X85.915 Y44.155
X85.494 Y44.935
X85.035 Y45.693
X84.539 Y46.427
X84.008 Y47.137
X83.443 Y47.82
X82.846 Y48.475
X82.218 Y49.1
X81.561 Y49.694
X80.875 Y50.255
X80.162 Y50.781
X79.424 Y51.273
X78.664 Y51.728
X77.883 Y52.146
X77.082 Y52.526
X76.265 Y52.868
X75.432 Y53.17
X74.586 Y53.433
X73.727 Y53.653
X72.859 Y53.831
X71.984 Y53.968
X71.103 Y54.063
X70.218 Y54.117
X69.332 Y54.128
X68.447 Y54.098
X67.563 Y54.026
X66.685 Y53.912
X65.812 Y53.755
X64.949 Y53.558
X64.095 Y53.321
X63.253 Y53.044
X62.425 Y52.728
X61.613 Y52.375
X60.817 Y51.984
X60.041 Y51.556
X59.287 Y51.091
X58.555 Y50.591
X57.847 Y50.058
X57.165 Y49.493
X56.509 Y48.897
X55.881 Y48.272
X55.283 Y47.619
X54.715 Y46.938
X54.18 Y46.232
X53.678 Y45.501
X53.211 Y44.748
X52.779 Y43.975
X52.383 Y43.182
X52.023 Y42.372
X51.701 Y41.547
X51.416 Y40.708
X51.171 Y39.856
X50.966 Y38.994
X50.801 Y38.123
X50.676 Y37.246
X50.591 Y36.364
X50.546 Y35.479
X50.541 Y34.593
X50.577 Y33.708
X50.652 Y32.825
X50.769 Y31.946
X50.926 Y31.074
X51.123 Y30.21
X51.36 Y29.356
X51.635 Y28.514
X51.947 Y27.685
X52.297 Y26.87
X52.683 Y26.073
X53.104 Y25.294
X53.562 Y24.535
X54.055 Y23.798
X54.58 Y23.085
X55.138 Y22.396
X55.726 Y21.733
X56.343 Y21.097
X56.988 Y20.49
X57.66 Y19.912
X58.358 Y19.366
X59.08 Y18.852
X59.825 Y18.373
X60.591 Y17.928
X61.377 Y17.518
X62.18 Y17.144
X63. Y16.806
X63.833 Y16.506
X64.68 Y16.244
X65.537 Y16.021
X66.404 Y15.838
X67.279 Y15.695
X68.159 Y15.591
X69.043 Y15.527
X69.929 Y15.504
X70.814 Y15.52
X71.699 Y15.575
X72.58 Y15.671
X73.455 Y15.807
X74.324 Y15.984
X75.183 Y16.199
X76.033 Y16.452
X76.87 Y16.743
X77.693 Y17.07
X78.501 Y17.434
X79.293 Y17.832
X80.066 Y18.265
X80.818 Y18.733
X81.55 Y19.234
X82.258 Y19.766
X82.943 Y20.328
X83.603 Y20.919
X84.237 Y21.538
X84.845 Y22.183
X85.423 Y22.854
X85.973 Y23.549
X86.491 Y24.268
X86.978 Y25.009
X87.432 Y25.769
X87.854 Y26.549
X88.242 Y27.345
X88.596 Y28.158
X88.914 Y28.985
X89.198 Y29.824
X89.445 Y30.675
X89.654 Y31.536
X89.825 Y32.406
X89.959 Y33.282
X90.054 Y34.163
X90.112 Y35.047
X90.132 Y35.933
X90.114 Y36.819
X90.058 Y37.703
X89.963 Y38.584
X89.829 Y39.46
X89.657 Y40.329
X89.447 Y41.19
X89.2 Y42.041
X88.916 Y42.881
X88.596 Y43.707
X88.241 Y44.519
X87.851 Y45.315
X87.427 Y46.093
X86.969 Y46.851
X86.478 Y47.589
X85.955 Y48.304
X85.401 Y48.996
X84.819 Y49.664
X84.208 Y50.306
X83.57 Y50.921
X82.906 Y51.508
X82.218 Y52.066
X81.506 Y52.593
X80.771 Y53.089
X80.016 Y53.552
X79.241 Y53.982
X78.449 Y54.379
X77.641 Y54.742
X76.818 Y55.071
X75.981 Y55.364
X75.133 Y55.621
X74.275 Y55.842
X73.408 Y56.025
X72.534 Y56.17
X71.654 Y56.278
X70.771 Y56.349
X69.886 Y56.382
X69. Y56.379
X68.114 Y56.338
X67.232 Y56.26
X66.353 Y56.145
X65.48 Y55.992
X64.615 Y55.802
X63.758 Y55.576
X62.911 Y55.314
X62.076 Y55.017
X61.254 Y54.687
X60.447 Y54.322
X59.655 Y53.924
X58.88 Y53.494
X58.125 Y53.03
X57.39 Y52.536
X56.676 Y52.011
X55.985 Y51.456
X55.317 Y50.874
X54.673 Y50.265
X54.055 Y49.63
X53.463 Y48.97
X52.9 Y48.287
X52.365 Y47.58
X51.86 Y46.852
X51.387 Y46.103
X50.944 Y45.335
X50.534 Y44.55
X50.156 Y43.748
X49.81 Y42.932
X49.499 Y42.103
X49.221 Y41.261
X48.978 Y40.409
X48.772 Y39.547
X48.601 Y38.678
X48.466 Y37.802
X48.368 Y36.921
X48.305 Y36.037
X48.278 Y35.152
X48.287 Y34.266
X48.332 Y33.381
X48.413 Y32.498
X48.53 Y31.62
X48.684 Y30.747
X48.874 Y29.882
X49.1 Y29.025
X49.36 Y28.178
X49.654 Y27.342
X49.981 Y26.518
X50.342 Y25.709
X50.735 Y24.915
X51.16 Y24.137
X51.617 Y23.378
X52.105 Y22.639
X52.624 Y21.92
X53.171 Y21.223
X53.746 Y20.549
X54.348 Y19.898
X54.975 Y19.272
X55.627 Y18.672
X56.303 Y18.099
X57.002 Y17.554
X57.723 Y17.039
X58.464 Y16.554
X59.225 Y16.1
X60.004 Y15.677
X60.799 Y15.286
X61.609 Y14.928
X62.433 Y14.602
X63.27 Y14.309
X64.118 Y14.051
X64.975 Y13.828
X65.842 Y13.641
X66.715 Y13.49
X67.593 Y13.375
X68.476 Y13.295
X69.361 Y13.251
X70.247 Y13.242
X71.133 Y13.269
X72.016 Y13.332
X72.897 Y13.43
X73.773 Y13.565
X74.643 Y13.736
X75.504 Y13.941
X76.357 Y14.182
X77.2 Y14.456
X78.031 Y14.763
X78.849 Y15.103
X79.654 Y15.475
X80.443 Y15.878
X81.215 Y16.313
X81.969 Y16.778
X82.704 Y17.273
X83.419 Y17.797
X84.112 Y18.349
X84.784 Y18.927
X85.433 Y19.53
X86.058 Y20.158
X86.659 Y20.81
X87.234 Y21.484
X87.782 Y22.18
X88.302 Y22.897
X88.794 Y23.634
X89.256 Y24.39
X89.689 Y25.163
X90.092 Y25.953
X90.465 Y26.757
X90.806 Y27.574
X91.116 Y28.405
X91.394 Y29.246
X91.639 Y30.098
X91.85 Y30.958
X92.027 Y31.827
X92.169 Y32.701
X92.278 Y33.581
X92.352 Y34.464
X92.392 Y35.349
X92.398 Y36.235
X92.37 Y37.121
X92.308 Y38.005
X92.211 Y38.885
X92.079 Y39.762
X91.912 Y40.632
X91.711 Y41.495
X91.476 Y42.349
X91.208 Y43.194
X90.908 Y44.028
X90.576 Y44.849
X90.212 Y45.657
X89.817 Y46.45
X89.391 Y47.227
X88.934 Y47.987
X88.448 Y48.727
X87.932 Y49.448
X87.389 Y50.148
X86.819 Y50.827
X86.224 Y51.483
X85.603 Y52.116
X84.959 Y52.724
X84.292 Y53.307
X83.602 Y53.863
X82.891 Y54.392
X82.159 Y54.892
X81.409 Y55.363
X80.641 Y55.805
X79.856 Y56.217
X79.056 Y56.598
X78.243 Y56.949
X77.416 Y57.269
X76.578 Y57.556
X75.729 Y57.812
X74.871 Y58.033
X74.005 Y58.221
X73.133 Y58.375
X72.255 Y58.495
X71.373 Y58.582
X70.488 Y58.636
X69.603 Y58.655
X68.717 Y58.642
X67.832 Y58.595
X66.949 Y58.514
X66.071 Y58.4
X65.197 Y58.251
X64.33 Y58.069
X63.47 Y57.853
X62.619 Y57.606
X61.778 Y57.327
X60.948 Y57.017
X60.13 Y56.676
X59.326 Y56.304
X58.536 Y55.903
X57.762 Y55.472
X57.005 Y55.011
X56.266 Y54.522
X55.546 Y54.005
X54.846 Y53.462
X54.167 Y52.893
X53.509 Y52.299
X52.874 Y51.681
X52.262 Y51.04
X51.675 Y50.377
X51.112 Y49.692
X50.576 Y48.986
X50.067 Y48.261
X49.586 Y47.517
X49.134 Y46.755
X48.709 Y45.977
X48.314 Y45.184
X47.949 Y44.377
X47.613 Y43.557
X47.307 Y42.725
X47.033 Y41.882
X46.79 Y41.03
X46.58 Y40.169
X46.403 Y39.301
X46.258 Y38.427
X46.145 Y37.548
X46.066 Y36.665
X46.018 Y35.78
X46.003 Y34.894
X46.02 Y34.008
X46.07 Y33.124
X46.152 Y32.241
X46.268 Y31.363
X46.417 Y30.489
X46.599 Y29.622
X46.813 Y28.762
X47.058 Y27.911
X47.334 Y27.069
X47.641 Y26.237
X47.978 Y25.418
X48.345 Y24.611
X48.741 Y23.818
X49.166 Y23.041
X49.62 Y22.28
X50.103 Y21.537
X50.613 Y20.813
X51.15 Y20.107
X51.712 Y19.422
X52.298 Y18.758
X52.909 Y18.116
X53.542 Y17.496
X54.197 Y16.9
X54.874 Y16.328
X55.573 Y15.782
X56.291 Y15.263
X57.028 Y14.771
X57.783 Y14.307
X58.554 Y13.871
X59.341 Y13.464
X60.142 Y13.085
X60.957 Y12.736
X61.783 Y12.417
X62.621 Y12.128
X63.469 Y11.87
X64.326 Y11.644
X65.191 Y11.451
X66.062 Y11.291
X66.939 Y11.162
X67.82 Y11.066
X68.703 Y11.002
X69.589 Y10.97
X70.475
X71.361 Y11.002
X72.244 Y11.067
X73.125 Y11.165
X74.002 Y11.295
X74.873 Y11.458
X75.737 Y11.653
X76.594 Y11.88
X77.442 Y12.137
X78.28 Y12.424
X79.107 Y12.741
X79.923 Y13.088
X80.725 Y13.463
X81.514 Y13.868
X82.287 Y14.3
X83.044 Y14.761
X83.784 Y15.25
X84.505 Y15.764
X85.208 Y16.304
X85.891 Y16.868
X86.554 Y17.456
X87.196 Y18.066
X87.817 Y18.699
X88.415 Y19.353
X88.989 Y20.028
X89.539 Y20.723
X90.063 Y21.437
X90.562 Y22.17
X91.034 Y22.919
X91.48 Y23.685
X91.898 Y24.466
X92.289 Y25.262
X92.653 Y26.07
X92.988 Y26.89
X93.294 Y27.722
X93.571 Y28.563
X93.817 Y29.415
X94.033 Y30.274
X94.217 Y31.141
X94.371 Y32.013
X94.494 Y32.891
X94.585 Y33.772
X94.646 Y34.656
X94.676 Y35.542
Y36.428
X94.644 Y37.314
X94.58 Y38.198
X94.485 Y39.079
X94.358 Y39.955
X94.199 Y40.827
X94.009 Y41.693
X93.788 Y42.551
X93.538 Y43.401
X93.257 Y44.242
X92.948 Y45.072
X92.717 Y45.629
X92.693 Y45.685
X92.666 Y45.74
X92.636 Y45.794
X90.569 Y49.374
X90.088 Y50.119
X89.603 Y50.86
X89.082 Y51.577
X88.528 Y52.269
X87.946 Y52.937
X87.336 Y53.58
X86.702 Y54.199
X86.046 Y54.794
X85.367 Y55.364
X84.668 Y55.909
X83.95 Y56.428
X83.214 Y56.921
X82.461 Y57.388
X81.692 Y57.828
X80.908 Y58.241
X80.11 Y58.626
X79.298 Y58.982
X78.475 Y59.31
X77.64 Y59.608
X76.796 Y59.877
X76.539 Y59.948
X76.415 Y59.977
X76.289 Y59.994
X76.162 Y60.
X64.967
X64.082 Y59.956
X63.2 Y59.868
X62.328 Y59.712
X61.467 Y59.5
X60.619 Y59.242
X59.785 Y58.944
X58.964 Y58.609
X58.158 Y58.242
X57.367 Y57.844
X56.591 Y57.416
X55.831 Y56.959
X55.088 Y56.476
X54.364 Y55.966
X53.657 Y55.431
X52.97 Y54.872
X52.411 Y54.384
X52.301 Y54.277
X52.203 Y54.158
X52.119 Y54.029
X45.485 Y42.539
X45.081 Y41.75
X44.747 Y40.981
X44.46 Y40.142
X44.233 Y39.286
X44.054 Y38.418
X43.92 Y37.542
X43.824 Y36.661
X43.765 Y35.777
X43.74 Y34.891
X43.748 Y34.005
X43.789 Y33.12
X43.862 Y32.237
X43.967 Y31.357
X44.102 Y30.481
X44.234 Y29.786
X44.271 Y29.633
X44.326 Y29.486
X44.397 Y29.346
X51.276 Y17.431
X51.757 Y16.687
X52.245 Y16.027
X52.828 Y15.359
X53.457 Y14.735
X54.121 Y14.149
X54.815 Y13.598
X55.533 Y13.079
X56.273 Y12.591
X57.031 Y12.132
X57.805 Y11.701
X58.595 Y11.298
X59.398 Y10.924
X60.213 Y10.577
X61.04 Y10.258
X61.562 Y10.077
X61.711 Y10.034
X61.865 Y10.009
X62.02 Y10.
X75.839
X76.724 Y10.044
X77.164 Y10.091
X78.041 Y10.222
X78.904 Y10.423
X79.752 Y10.678
X80.585 Y10.98
X81.403 Y11.321
X82.206 Y11.697
X82.992 Y12.105
X83.763 Y12.543
X84.517 Y13.008
X85.255 Y13.499
X85.975 Y14.015
X86.678 Y14.555
X87.215 Y14.996
X87.338 Y15.11
X87.446 Y15.238
X87.539 Y15.377
X95.328 Y28.868
X95.732 Y29.657
X96.041 Y30.397
X96.315 Y31.24
X96.528 Y32.1
X96.69 Y32.971
X96.808 Y33.849
X96.887 Y34.732
X96.93 Y35.617
X96.939 Y36.503
X96.915 Y37.389
X96.866 Y38.175
X96.836 Y38.388
X96.774 Y38.593
X96.681 Y38.787
X92.636 Y45.794
G3 X91.535 Y45.378 I-0.509 J-0.318
G1 X94.227 Y29.088
G3 X95.328 Y28.868 I0.592 J0.098
G1 X97.985 Y33.471
X98.258 Y34.004
X98.449 Y34.464
X98.519 Y34.68
X98.58 Y34.966
X98.579 Y35.259
X98.518 Y35.544
X98.399 Y35.811
G3 X97.308 Y35.635 I-0.509 J-0.318
G1 X96.893 Y33.931
G3 X97.985 Y33.471 I0.583 J-0.142
G1 X98.694 Y34.698
X98.72 Y34.749
X98.74 Y34.799
X98.767 Y34.899
X98.775 Y35.
X98.767 Y35.101
X98.74 Y35.201
X98.72 Y35.251
X98.694 Y35.302
X96.681 Y38.787
G3 X95.997 Y39.043 I-0.509 J-0.318
G1 X95.907 Y39.016 Z-11.193
X95.82 Y38.989 Z-11.171
X95.737 Y38.963 Z-11.135
X95.66 Y38.94 Z-11.085
X95.591 Y38.919 Z-11.024
X95.533 Y38.901 Z-10.953
X95.486 Y38.887 Z-10.872
X95.451 Y38.876 Z-10.785
X95.43 Y38.87 Z-10.694
X95.423 Y38.868 Z-10.6
G0 Z5.
X74.569 Y10.528
Z-10.
G1 Z-10.6 F1440.
X74.576 Y10.524 Z-10.694
X74.595 Y10.513 Z-10.785
X74.626 Y10.495 Z-10.872
X74.668 Y10.469 Z-10.953
X74.72 Y10.438 Z-11.024
X74.782 Y10.402 Z-11.085
X74.851 Y10.361 Z-11.135
X74.926 Y10.316 Z-11.171
X75.004 Y10.269 Z-11.193
X75.085 Y10.221 Z-11.2
G3 X75.839 Y10. I0.809 J1.36
G1 X81.476
X82.043 Y10.028
X82.556 Y10.096
X83.169 Y10.227
X83.878 Y10.439
X84.464 Y10.667
X84.742 Y10.814
X84.981 Y11.019
X85.168 Y11.272
G3 X84.464 Y12.128 I-0.53 J0.282
G1 X81.323 Y11.174
G3 X81.476 Y10. I0.174 J-0.574
G1 X84.093
X84.194 Y10.012
X84.295 Y10.039
X84.345 Y10.06
X84.395 Y10.087
X84.446 Y10.12
X84.496 Y10.162
X84.506 Y10.172
X84.553 Y10.222
X84.59 Y10.272
X84.697 Y10.456
X87.539 Y15.377
G3 X87.418 Y16.098 I-0.53 J0.282
G1 X87.349 Y16.162 Z-11.193
X87.282 Y16.224 Z-11.171
X87.219 Y16.284 Z-11.135
X87.16 Y16.338 Z-11.085
X87.108 Y16.387 Z-11.024
X87.063 Y16.429 Z-10.953
X87.027 Y16.463 Z-10.872
X87.001 Y16.487 Z-10.785
X86.985 Y16.502 Z-10.694
X86.979 Y16.507 Z-10.6
G0 Z5.
X90.746 Y48.011
Z-10.
G1 Z-10.6 F1440.
Y48.018 Z-10.694
Y48.04 Z-10.785
X90.747 Y48.076 Z-10.872
X90.748 Y48.126 Z-10.953
Y48.187 Z-11.024
X90.749 Y48.258 Z-11.085
X90.75 Y48.339 Z-11.135
X90.751 Y48.426 Z-11.171
X90.753 Y48.517 Z-11.193
X90.754 Y48.611 Z-11.2
G3 X90.569 Y49.374 I-1.582 J0.02
G1 X86.738 Y56.009
X86.347 Y56.614
X85.974 Y57.101
X85.473 Y57.656
X84.829 Y58.264
X84.138 Y58.819
X83.415 Y59.33
X82.665 Y59.802
X82.636 Y59.818
X82.418 Y59.918
X82.186 Y59.979
X81.946 Y60.
G3 X81.575 Y58.947 I0.021 J-0.6
G1 X85.816 Y55.273
G3 X86.738 Y56.009 I0.393 J0.454
G1 X84.649 Y59.627
X84.59 Y59.728
X84.553 Y59.778
X84.506 Y59.828
X84.496 Y59.838
X84.446 Y59.88
X84.395 Y59.913
X84.345 Y59.94
X84.295 Y59.961
X84.194 Y59.988
X84.093 Y60.
X76.162
G3 X75.599 Y59.535 I0.021 J-0.6
G1 X75.578 Y59.444 Z-11.193
X75.557 Y59.355 Z-11.171
X75.537 Y59.27 Z-11.135
X75.519 Y59.192 Z-11.085
X75.503 Y59.122 Z-11.024
X75.489 Y59.062 Z-10.953
X75.478 Y59.014 Z-10.872
X75.47 Y58.979 Z-10.785
X75.465 Y58.958 Z-10.694
X75.464 Y58.951 Z-10.6
G0 Z5.
X46.577 Y43.374
Z-10.
G1 Z-10.6 F1440.
X46.571 Y43.371 Z-10.694
X46.551 Y43.36 Z-10.785
X46.52 Y43.342 Z-10.872
X46.477 Y43.318 Z-10.953
X46.424 Y43.288 Z-11.024
X46.361 Y43.253 Z-11.085
X46.291 Y43.214 Z-11.135
X46.215 Y43.172 Z-11.171
X46.135 Y43.127 Z-11.193
X46.054 Y43.081 Z-11.2
G3 X45.485 Y42.539 I0.774 J-1.381
G1 X42.699 Y37.714
X42.422 Y37.173
X42.223 Y36.693
X42.035 Y36.111
X41.863 Y35.386
X41.729 Y34.51
X41.725 Y34.459
X41.732 Y34.181
X41.794 Y33.909
X41.909 Y33.656
G3 X43.002 Y33.839 I0.509 J0.318
G1 X43.793 Y37.261
G3 X42.699 Y37.714 I-0.585 J0.135
G1 X41.307 Y35.302
X41.28 Y35.251
X41.26 Y35.201
X41.234 Y35.101
X41.225 Y35.
X41.234 Y34.899
X41.26 Y34.799
X41.28 Y34.749
X41.307 Y34.698
X44.397 Y29.346
G3 X45.081 Y29.091 I0.509 J0.318
G1 X45.171 Y29.118 Z-11.193
X45.258 Y29.145 Z-11.171
X45.341 Y29.17 Z-11.135
X45.418 Y29.194 Z-11.085
X45.487 Y29.215 Z-11.024
X45.545 Y29.233 Z-10.953
X45.592 Y29.247 Z-10.872
X45.627 Y29.257 Z-10.785
X45.648 Y29.264 Z-10.694
X45.655 Y29.266 Z-10.6
G0 Z5.
X66.236 Y59.472
Z-10.
G1 Z-10.6 F1440.
X66.23 Y59.476 Z-10.694
X66.211 Y59.487 Z-10.785
X66.18 Y59.505 Z-10.872
X66.137 Y59.531 Z-10.953
X66.085 Y59.562 Z-11.024
X66.023 Y59.598 Z-11.085
X65.954 Y59.639 Z-11.135
X65.88 Y59.684 Z-11.171
X65.801 Y59.731 Z-11.193
X65.72 Y59.779 Z-11.2
G3 X64.967 Y60. I-0.809 J-1.36
G1 X58.927
X58.395 Y59.973
X57.859 Y59.903
X57.22 Y59.766
X56.482 Y59.545
X55.656 Y59.224
X55.304 Y59.055
X55.065 Y58.91
X54.859 Y58.72
X54.696 Y58.492
G3 X55.41 Y57.64 I0.53 J-0.282
G1 X59.09 Y58.829
G3 X58.927 Y60. I-0.185 J0.571
G1 X55.907
X55.806 Y59.988
X55.705 Y59.961
X55.655 Y59.94
X55.605 Y59.913
X55.554 Y59.88
X55.504 Y59.838
X55.494 Y59.828
X55.447 Y59.778
X55.41 Y59.728
X55.303 Y59.543
X52.119 Y54.029
G3 X52.24 Y53.309 I0.53 J-0.282
G1 X52.308 Y53.245 Z-11.193
X52.375 Y53.182 Z-11.171
X52.439 Y53.123 Z-11.135
X52.498 Y53.068 Z-11.085
X52.55 Y53.019 Z-11.024
X52.595 Y52.978 Z-10.953
X52.631 Y52.944 Z-10.872
X52.657 Y52.92 Z-10.785
X52.673 Y52.905 Z-10.694
X52.678 Y52.9 Z-10.6
G0 Z5.
X51.099 Y18.794
Z-10.
G1 Z-10.6 F1440.
X51.098 Y18.787 Z-10.694
Y18.765 Z-10.785
Y18.729 Z-10.872
X51.097 Y18.68 Z-10.953
X51.096 Y18.618 Z-11.024
X51.095 Y18.547 Z-11.085
X51.094 Y18.467 Z-11.135
X51.093 Y18.38 Z-11.171
X51.092 Y18.288 Z-11.193
X51.091 Y18.194 Z-11.2
G3 X51.276 Y17.431 I1.582 J-0.02
G1 X54.074 Y12.584
X54.349 Y12.158
X54.659 Y11.754
X55.067 Y11.302
X55.606 Y10.794
X56.213 Y10.308
X56.479 Y10.14
X56.776 Y10.035
X57.088 Y10.
G3 X57.474 Y11.041 I-0.021 J0.6
G1 X55.01 Y13.307
G3 X54.074 Y12.584 I-0.406 J-0.442
G1 X55.351 Y10.373
X55.41 Y10.272
X55.447 Y10.222
X55.494 Y10.172
X55.504 Y10.162
X55.554 Y10.12
X55.605 Y10.087
X55.655 Y10.06
X55.705 Y10.039
X55.806 Y10.012
X55.907 Y10.
X62.02
G3 X62.584 Y10.465 I-0.021 J0.6
G1 X62.605 Y10.556 Z-11.193
X62.625 Y10.645 Z-11.171
X62.645 Y10.73 Z-11.135
X62.663 Y10.808 Z-11.085
X62.679 Y10.878 Z-11.024
X62.693 Y10.938 Z-10.953
X62.704 Y10.986 Z-10.872
X62.712 Y11.021 Z-10.785
X62.717 Y11.042 Z-10.694
X62.719 Y11.049 Z-10.6
G0 Z15.

M9
M30
