(1001)
(T1  D=6. CR=0. - ZMIN=-2. - FLAT END MILL)
G90 G94 G91.1 G40 G49 G17
G21

(2D ADAPTIVE1 2)
M5
T1 M6
S10000 M3
G54
M8
G0 X-0.619 Y-6.9
G43 Z15. H1
Z5.
Z-0.8
G1 Z-1.4 F1440.
X-0.617 Y-6.893 Z-1.494
X-0.611 Y-6.871 Z-1.585
X-0.602 Y-6.836 Z-1.672
X-0.59 Y-6.789 Z-1.753
X-0.575 Y-6.73 Z-1.824
X-0.557 Y-6.66 Z-1.885
X-0.537 Y-6.582 Z-1.935
X-0.516 Y-6.498 Z-1.971
X-0.493 Y-6.41 Z-1.993
X-0.47 Y-6.319 Z-2.
G3 X0. Y-3.052 I-14.839 J3.801
G1 Y-2.902
X-0.177 Y-2.034
X-0.303 Y-1.157
X-0.392 Y-0.275
X-0.454 Y0.609
X-0.498 Y1.494
X-0.528 Y2.379
X-0.55 Y3.265
X-0.565 Y4.151
X-0.576 Y5.037
X-0.583 Y5.923
X-0.588 Y6.81
X-0.592 Y7.696
X-0.596 Y9.468
X-0.599 Y12.126
X-0.6 Y20.101
Y47.571
Y67.066
X-0.598 Y67.287
X-0.561 Y67.506
X-0.42 Y67.926
X0.085 Y68.654
X0.781 Y69.202
X1.571 Y69.604
X2.408 Y69.894
X3.27 Y70.102
X4.144 Y70.25
X5.024 Y70.354
X5.907 Y70.427
X6.791 Y70.479
X7.677 Y70.515
X8.562 Y70.541
X9.448 Y70.559
X10.334 Y70.571
X11.22 Y70.58
X12.107 Y70.586
X12.993 Y70.59
X14.765 Y70.595
X17.423 Y70.598
X23.626 Y70.6
X28.943
X79.452
X129.961
X137.271
X137.49 Y70.565
X137.911 Y70.427
X138.643 Y69.927
X139.194 Y69.233
X139.598 Y68.444
X139.89 Y67.608
X140.099 Y66.747
X140.247 Y65.873
X140.352 Y64.993
X140.426 Y64.11
X140.478 Y63.226
X140.515 Y62.34
X140.54 Y61.454
X140.558 Y60.569
X140.571 Y59.683
X140.58 Y58.796
X140.586 Y57.91
X140.59 Y57.024
X140.595 Y55.252
X140.598 Y52.594
X140.6 Y46.391
Y28.668
Y2.749
X140.565 Y2.53
X140.427 Y2.109
X139.934 Y1.373
X139.243 Y0.818
X138.456 Y0.411
X137.621 Y0.116
X136.76 Y-0.094
X135.887 Y-0.244
X135.007 Y-0.35
X134.124 Y-0.425
X133.239 Y-0.477
X132.354 Y-0.514
X131.468 Y-0.54
X130.582 Y-0.558
X129.696 Y-0.571
X128.81 Y-0.579
X127.924 Y-0.586
X127.038 Y-0.59
X125.266 Y-0.595
X122.607 Y-0.598
X117.291 Y-0.6
X66.782
X16.273
X5.196
X4.771 Y-0.476
X3.999 Y-0.041
X3.404 Y0.616
X2.959 Y1.382
X2.632 Y2.206
X2.395 Y3.06
X2.224 Y3.929
X2.101 Y4.807
X2.014 Y5.688
X1.951 Y6.572
X1.907 Y7.457
X1.876 Y8.343
X1.854 Y9.229
X1.838 Y10.115
X1.827 Y11.001
X1.819 Y11.887
X1.813 Y12.773
X1.809 Y13.659
X1.805 Y15.431
X1.802 Y18.09
X1.8 Y25.179
Y37.584
Y64.168
X1.891 Y64.602
X2.23 Y65.42
X2.801 Y66.098
X3.51 Y66.63
X4.296 Y67.038
X5.127 Y67.346
X5.983 Y67.575
X6.853 Y67.745
X7.73 Y67.869
X8.612 Y67.96
X9.495 Y68.027
X10.38 Y68.075
X11.266 Y68.11
X12.151 Y68.135
X13.037 Y68.153
X13.923 Y68.167
X14.809 Y68.176
X15.695 Y68.183
X16.582 Y68.188
X18.354 Y68.194
X21.012 Y68.198
X23.671 Y68.199
X42.279 Y68.2
X74.18
X124.689
X134.436
X135.275 Y67.915
X135.978 Y67.376
X136.536 Y66.688
X136.966 Y65.913
X137.292 Y65.089
X137.535 Y64.236
X137.715 Y63.369
X137.847 Y62.493
X137.944 Y61.612
X138.015 Y60.728
X138.066 Y59.844
X138.104 Y58.958
X138.131 Y58.073
X138.15 Y57.187
X138.164 Y56.301
X138.174 Y55.415
X138.182 Y54.529
X138.187 Y53.643
X138.191 Y52.756
X138.195 Y50.984
X138.198 Y48.326
X138.2 Y42.123
Y28.831
Y5.792
X138.1 Y5.36
X137.748 Y4.547
X137.169 Y3.877
X136.456 Y3.35
X135.667 Y2.947
X134.834 Y2.643
X133.978 Y2.417
X133.108 Y2.249
X132.23 Y2.126
X131.349 Y2.036
X130.465 Y1.971
X129.58 Y1.923
X128.695 Y1.889
X127.809 Y1.864
X126.923 Y1.846
X126.037 Y1.833
X125.151 Y1.824
X124.265 Y1.817
X123.379 Y1.812
X121.606 Y1.806
X118.948 Y1.802
X113.631 Y1.8
X112.745
X62.236
X11.727
X8.183
X7.326 Y2.026
X6.593 Y2.524
X6.004 Y3.186
X5.546 Y3.945
X5.197 Y4.759
X4.934 Y5.606
X4.739 Y6.47
X4.594 Y7.344
X4.487 Y8.224
X4.409 Y9.106
X4.352 Y9.991
X4.31 Y10.876
X4.28 Y11.761
X4.258 Y12.647
X4.242 Y13.533
X4.23 Y14.419
X4.222 Y15.305
X4.216 Y16.191
X4.211 Y17.078
X4.206 Y18.85
X4.202 Y21.508
X4.2 Y26.825
Y47.206
Y61.384
X4.352 Y62.257
X4.776 Y63.035
X5.384 Y63.679
X6.106 Y64.193
X6.897 Y64.592
X7.729 Y64.898
X8.584 Y65.129
X9.453 Y65.303
X10.33 Y65.433
X11.211 Y65.53
X12.094 Y65.601
X12.978 Y65.654
X13.864 Y65.693
X14.749 Y65.722
X15.635 Y65.743
X16.521 Y65.758
X17.407 Y65.77
X18.293 Y65.778
X19.179 Y65.784
X20.066 Y65.788
X21.838 Y65.794
X24.496 Y65.798
X29.813 Y65.8
X38.674
X48.873
X49.156 Y65.829
X49.428 Y65.915
X49.677 Y66.054
X49.893 Y66.241
X50.066 Y66.467
X50.134 Y66.579
X50.167 Y66.629
X50.268 Y66.78
X50.433 Y66.981
X50.569 Y67.129
X50.622 Y67.182
X50.863 Y67.383
X50.972 Y67.462
X51.173 Y67.593
X51.375 Y67.696
X51.577 Y67.786
X51.777 Y67.859
X51.979 Y67.914
X52.18 Y67.954
X52.382 Y67.978
X52.784 Y67.995
X52.986 Y68.
X87.014
X87.216 Y67.995
X87.618 Y67.978
X87.82 Y67.954
X88.021 Y67.914
X88.223 Y67.859
X88.424 Y67.785
X88.625 Y67.696
X88.827 Y67.593
X89.028 Y67.462
X89.137 Y67.383
X89.342 Y67.235
X89.645 Y67.052
X90.035 Y66.857
X90.546 Y66.651
X91.234 Y66.435
X92.098 Y66.239
X92.974 Y66.105
X93.855 Y66.012
X94.739 Y65.947
X95.624 Y65.903
X96.51 Y65.872
X97.395 Y65.85
X98.281 Y65.835
X99.167 Y65.824
X100.054 Y65.817
X100.94 Y65.812
X101.826 Y65.808
X103.598 Y65.804
X106.256 Y65.801
X114.232 Y65.8
X131.068
X131.953 Y65.763
X132.775 Y65.43
X133.468 Y64.878
X134.026 Y64.19
X134.464 Y63.42
X134.8 Y62.6
X135.056 Y61.752
X135.248 Y60.887
X135.392 Y60.012
X135.499 Y59.133
X135.579 Y58.25
X135.638 Y57.366
X135.681 Y56.481
X135.713 Y55.595
X135.736 Y54.71
X135.754 Y53.824
X135.766 Y52.938
X135.775 Y52.052
X135.782 Y51.165
X135.787 Y50.279
X135.793 Y48.507
X135.797 Y45.849
X135.799 Y41.418
X135.8 Y9.518
Y8.632
X135.653 Y7.758
X135.233 Y6.978
X134.627 Y6.331
X133.906 Y5.815
X133.116 Y5.414
X132.285 Y5.107
X131.43 Y4.874
X130.561 Y4.7
X129.685 Y4.569
X128.804 Y4.472
X127.921 Y4.4
X127.036 Y4.347
X126.151 Y4.307
X125.265 Y4.279
X124.379 Y4.257
X123.494 Y4.242
X122.607 Y4.231
X121.721 Y4.222
X120.835 Y4.216
X119.949 Y4.212
X118.177 Y4.206
X115.519 Y4.202
X110.202 Y4.2
X91.127
X90.844 Y4.171
X90.572 Y4.085
X90.323 Y3.946
X90.107 Y3.759
X89.934 Y3.533
X89.866 Y3.421
X89.833 Y3.371
X89.732 Y3.22
X89.567 Y3.019
X89.431 Y2.871
X89.378 Y2.818
X89.137 Y2.617
X89.028 Y2.538
X88.827 Y2.407
X88.625 Y2.304
X88.423 Y2.214
X88.223 Y2.141
X88.021 Y2.086
X87.82 Y2.046
X87.618 Y2.022
X87.216 Y2.005
X87.014 Y2.
X52.986
X52.784 Y2.005
X52.382 Y2.022
X52.18 Y2.046
X51.979 Y2.086
X51.777 Y2.141
X51.576 Y2.215
X51.375 Y2.304
X51.173 Y2.407
X50.972 Y2.538
X50.863 Y2.617
X50.658 Y2.765
X50.355 Y2.948
X49.965 Y3.143
X49.454 Y3.349
X48.766 Y3.565
X47.902 Y3.761
X47.026 Y3.895
X46.145 Y3.988
X45.261 Y4.053
X44.376 Y4.097
X43.49 Y4.128
X42.605 Y4.15
X41.719 Y4.165
X40.833 Y4.176
X39.946 Y4.183
X39.06 Y4.188
X38.174 Y4.192
X36.402 Y4.196
X33.744 Y4.199
X25.768 Y4.2
X10.704
X9.859 Y4.465
X9.129 Y4.968
X8.534 Y5.624
X8.064 Y6.376
X7.7 Y7.183
X7.422 Y8.025
X7.211 Y8.886
X7.053 Y9.757
X6.935 Y10.636
X6.847 Y11.517
X6.782 Y12.401
X6.734 Y13.286
X6.698 Y14.171
X6.672 Y15.057
X6.653 Y15.943
X6.639 Y16.829
X6.628 Y17.715
X6.621 Y18.601
X6.615 Y19.487
X6.611 Y20.373
X6.606 Y22.146
X6.602 Y24.804
X6.6 Y30.121
Y58.477
X6.643 Y59.362
X6.959 Y60.19
X7.489 Y60.9
X8.16 Y61.479
X8.918 Y61.938
X9.729 Y62.294
X10.572 Y62.568
X11.433 Y62.777
X12.305 Y62.935
X13.183 Y63.054
X14.065 Y63.142
X14.948 Y63.209
X15.833 Y63.258
X16.718 Y63.295
X17.604 Y63.323
X18.49 Y63.343
X19.376 Y63.358
X20.262 Y63.369
X21.148 Y63.377
X22.034 Y63.383
X22.92 Y63.388
X24.693 Y63.393
X27.351 Y63.397
X32.668 Y63.4
X46.846
X47.64 Y63.427
X47.654 Y63.428
X47.971 Y63.503
X48.263 Y63.649
X48.512 Y63.858
X48.707 Y64.119
X50.011 Y66.378
X50.066 Y66.467
G3 X49.965 Y67.191 I-0.522 J0.296
G1 X49.898 Y67.257 Z-1.993
X49.833 Y67.321 Z-1.971
X49.771 Y67.382 Z-1.935
X49.714 Y67.438 Z-1.885
X49.663 Y67.488 Z-1.824
X49.619 Y67.531 Z-1.753
X49.584 Y67.566 Z-1.672
X49.558 Y67.591 Z-1.585
X49.543 Y67.607 Z-1.494
X49.537 Y67.612 Z-1.4
G0 Z5.
X88.497 Y68.6
Z-0.8
G1 Z-1.4 F1440.
X88.5 Y68.593 Z-1.494
X88.507 Y68.573 Z-1.585
X88.519 Y68.539 Z-1.672
X88.535 Y68.492 Z-1.753
X88.556 Y68.435 Z-1.824
X88.58 Y68.367 Z-1.885
X88.607 Y68.292 Z-1.935
X88.636 Y68.21 Z-1.971
X88.667 Y68.123 Z-1.993
X88.698 Y68.035 Z-2.
G3 X89.137 Y67.383 I1.491 J0.53
G1 X89.378 Y67.182
X89.431 Y67.129
X89.567 Y66.981
X89.732 Y66.78
X89.833 Y66.629
X89.866 Y66.579
X89.989 Y66.378
X90.105 Y66.176
X90.226 Y65.99
X90.355 Y65.822
X90.524 Y65.634
X90.743 Y65.428
X91.002 Y65.22
X91.337 Y64.993
X91.741 Y64.764
X92.261 Y64.523
X92.931 Y64.275
X93.784 Y64.035
X94.653 Y63.861
X95.53 Y63.735
X96.411 Y63.643
X97.295 Y63.576
X98.179 Y63.528
X99.065 Y63.492
X99.951 Y63.467
X100.837 Y63.448
X101.723 Y63.435
X102.609 Y63.425
X103.495 Y63.418
X104.381 Y63.413
X105.267 Y63.409
X107.039 Y63.405
X109.698 Y63.402
X115.9 Y63.4
X128.306
X129.192 Y63.397
X130.039 Y63.135
X130.775 Y62.642
X131.379 Y61.994
X131.86 Y61.249
X132.235 Y60.446
X132.523 Y59.609
X132.743 Y58.75
X132.909 Y57.88
X133.035 Y57.003
X133.128 Y56.121
X133.199 Y55.238
X133.251 Y54.353
X133.29 Y53.468
X133.318 Y52.583
X133.34 Y51.697
X133.356 Y50.811
X133.367 Y49.925
X133.376 Y49.039
X133.382 Y48.152
X133.387 Y47.266
X133.393 Y45.494
X133.397 Y42.836
X133.399 Y38.405
X133.4 Y10.935
X133.174 Y10.079
X132.706 Y9.326
X132.076 Y8.703
X131.343 Y8.204
X130.547 Y7.815
X129.714 Y7.515
X128.858 Y7.286
X127.989 Y7.113
X127.112 Y6.982
X126.231 Y6.884
X125.348 Y6.811
X124.464 Y6.756
X123.579 Y6.716
X122.693 Y6.685
X121.807 Y6.663
X120.921 Y6.647
X120.035 Y6.634
X119.149 Y6.625
X118.263 Y6.619
X117.377 Y6.614
X115.605 Y6.607
X112.946 Y6.603
X108.516 Y6.601
X93.452 Y6.6
X92.566 Y6.585
X92.375 Y6.568
X92.112 Y6.519
X91.864 Y6.42
X91.638 Y6.276
X91.444 Y6.092
X91.289 Y5.874
X89.989 Y3.622
X89.934 Y3.533
G3 X90.035 Y2.809 I0.522 J-0.296
G1 X90.102 Y2.743 Z-1.993
X90.167 Y2.679 Z-1.971
X90.229 Y2.618 Z-1.935
X90.286 Y2.562 Z-1.885
X90.337 Y2.512 Z-1.824
X90.381 Y2.469 Z-1.753
X90.416 Y2.434 Z-1.672
X90.442 Y2.409 Z-1.585
X90.457 Y2.393 Z-1.494
X90.463 Y2.388 Z-1.4
G0 Z5.
X51.503 Y1.4
Z-0.8
G1 Z-1.4 F1440.
X51.5 Y1.407 Z-1.494
X51.493 Y1.427 Z-1.585
X51.481 Y1.461 Z-1.672
X51.465 Y1.508 Z-1.753
X51.444 Y1.565 Z-1.824
X51.42 Y1.633 Z-1.885
X51.393 Y1.708 Z-1.935
X51.364 Y1.79 Z-1.971
X51.333 Y1.877 Z-1.993
X51.302 Y1.965 Z-2.
G3 X50.863 Y2.617 I-1.491 J-0.53
G1 X50.622 Y2.818
X50.569 Y2.871
X50.433 Y3.019
X50.268 Y3.22
X50.167 Y3.371
X50.134 Y3.421
X50.011 Y3.622
X49.895 Y3.824
X49.774 Y4.01
X49.645 Y4.178
X49.476 Y4.366
X49.257 Y4.572
X48.998 Y4.78
X48.663 Y5.007
X48.259 Y5.236
X47.739 Y5.477
X47.069 Y5.725
X46.216 Y5.965
X45.347 Y6.139
X44.47 Y6.265
X43.589 Y6.357
X42.705 Y6.424
X41.821 Y6.472
X40.935 Y6.508
X40.049 Y6.533
X39.163 Y6.552
X38.277 Y6.565
X37.391 Y6.575
X36.505 Y6.582
X35.619 Y6.587
X34.733 Y6.591
X32.961 Y6.595
X30.302 Y6.598
X24.1 Y6.6
X13.466
X12.599 Y6.784
X11.829 Y7.221
X11.187 Y7.833
X10.673 Y8.554
X10.27 Y9.343
X9.958 Y10.173
X9.72 Y11.026
X9.539 Y11.894
X9.402 Y12.769
X9.299 Y13.649
X9.223 Y14.532
X9.165 Y15.416
X9.122 Y16.301
X9.091 Y17.187
X9.067 Y18.073
X9.049 Y18.959
X9.037 Y19.845
X9.027 Y20.731
X9.02 Y21.617
X9.015 Y22.503
X9.011 Y23.389
X9.006 Y25.161
X9.002 Y27.82
X9. Y33.137
Y56.176
X9.096 Y57.057
X9.456 Y57.867
X10.014 Y58.555
X10.7 Y59.116
X11.466 Y59.561
X12.281 Y59.908
X13.126 Y60.175
X13.988 Y60.379
X14.861 Y60.534
X15.739 Y60.651
X16.621 Y60.739
X17.505 Y60.805
X18.389 Y60.855
X19.275 Y60.892
X20.16 Y60.92
X21.046 Y60.94
X21.932 Y60.956
X22.818 Y60.967
X23.704 Y60.976
X24.59 Y60.982
X25.477 Y60.987
X27.249 Y60.993
X29.907 Y60.997
X34.338 Y60.999
X44.085 Y61.
X44.971 Y61.001
X45.857 Y61.013
X46.221 Y61.04
X46.489 Y61.086
X46.743 Y61.183
X46.974 Y61.328
X47.172 Y61.514
X47.331 Y61.736
X48.707 Y64.119
G3 X48.586 Y64.84 I-0.53 J0.282
G1 X48.518 Y64.904 Z-1.993
X48.451 Y64.966 Z-1.971
X48.387 Y65.026 Z-1.935
X48.328 Y65.08 Z-1.885
X48.276 Y65.129 Z-1.824
X48.231 Y65.171 Z-1.753
X48.195 Y65.204 Z-1.672
X48.169 Y65.229 Z-1.585
X48.153 Y65.244 Z-1.494
X48.148 Y65.249 Z-1.4
G0 Z5.
X89.928 Y67.54
Z-0.8
G1 Z-1.4 F1440.
Y67.532 Z-1.494
Y67.51 Z-1.585
X89.927 Y67.474 Z-1.672
X89.926 Y67.425 Z-1.753
Y67.364 Z-1.824
X89.925 Y67.292 Z-1.885
X89.924 Y67.212 Z-1.935
X89.923 Y67.125 Z-1.971
X89.921 Y67.034 Z-1.993
X89.92 Y66.94 Z-2.
G3 X90.105 Y66.176 I1.582 J-0.02
G1 X91.243 Y64.206
X91.435 Y63.908
X91.601 Y63.692
X91.79 Y63.482
X92.039 Y63.248
X92.34 Y63.007
X92.713 Y62.754
X93.17 Y62.495
X93.75 Y62.226
X94.489 Y61.953
X95.342 Y61.713
X96.209 Y61.533
X97.085 Y61.398
X97.965 Y61.297
X98.848 Y61.221
X99.733 Y61.165
X100.618 Y61.122
X101.503 Y61.091
X102.389 Y61.067
X103.275 Y61.05
X104.161 Y61.037
X105.047 Y61.027
X105.933 Y61.02
X106.819 Y61.015
X107.705 Y61.011
X109.478 Y61.006
X112.136 Y61.002
X117.453 Y61.
X126.314
X127.19 Y60.863
X127.983 Y60.469
X128.653 Y59.889
X129.195 Y59.188
X129.623 Y58.412
X129.956 Y57.591
X130.212 Y56.743
X130.407 Y55.878
X130.556 Y55.005
X130.667 Y54.126
X130.752 Y53.243
X130.815 Y52.36
X130.862 Y51.475
X130.897 Y50.589
X130.924 Y49.704
X130.943 Y48.818
X130.958 Y47.932
X130.969 Y47.046
X130.977 Y46.159
X130.983 Y45.273
X130.987 Y44.387
X130.993 Y42.615
X130.997 Y39.957
X131. Y34.64
Y13.373
X130.76 Y12.52
X130.29 Y11.769
X129.66 Y11.146
X128.928 Y10.646
X128.134 Y10.253
X127.302 Y9.948
X126.447 Y9.715
X125.579 Y9.537
X124.703 Y9.402
X123.823 Y9.301
X122.94 Y9.225
X122.055 Y9.168
X121.17 Y9.125
X120.285 Y9.093
X119.399 Y9.069
X118.513 Y9.051
X117.627 Y9.038
X116.741 Y9.028
X115.855 Y9.021
X114.969 Y9.015
X114.083 Y9.011
X112.31 Y9.006
X109.652 Y9.002
X104.335 Y9.
X95.474
X94.588 Y8.996
X93.745 Y8.963
X93.718 Y8.959
X93.403 Y8.884
X93.113 Y8.738
X92.865 Y8.529
X92.672 Y8.269
X91.289 Y5.874
G3 X91.41 Y5.153 I0.53 J-0.282
G1 X91.478 Y5.089 Z-1.993
X91.545 Y5.027 Z-1.971
X91.609 Y4.968 Z-1.935
X91.668 Y4.913 Z-1.885
X91.72 Y4.864 Z-1.824
X91.765 Y4.822 Z-1.753
X91.801 Y4.789 Z-1.672
X91.827 Y4.764 Z-1.585
X91.843 Y4.749 Z-1.494
X91.849 Y4.744 Z-1.4
G0 Z5.
X50.072 Y2.46
Z-0.8
G1 Z-1.4 F1440.
Y2.468 Z-1.494
Y2.49 Z-1.585
X50.073 Y2.526 Z-1.672
Y2.575 Z-1.753
X50.074 Y2.636 Z-1.824
X50.075 Y2.708 Z-1.885
X50.076 Y2.788 Z-1.935
X50.077 Y2.875 Z-1.971
X50.079 Y2.966 Z-1.993
X50.08 Y3.06 Z-2.
G3 X49.895 Y3.824 I-1.582 J0.02
G1 X48.757 Y5.794
X48.565 Y6.092
X48.399 Y6.308
X48.21 Y6.518
X47.961 Y6.752
X47.66 Y6.993
X47.287 Y7.246
X46.83 Y7.505
X46.25 Y7.774
X45.511 Y8.047
X44.658 Y8.287
X43.791 Y8.467
X42.915 Y8.602
X42.035 Y8.703
X41.152 Y8.779
X40.267 Y8.835
X39.382 Y8.878
X38.497 Y8.909
X37.611 Y8.933
X36.725 Y8.95
X35.839 Y8.963
X34.953 Y8.973
X34.067 Y8.98
X33.181 Y8.985
X32.295 Y8.989
X30.522 Y8.994
X27.864 Y8.998
X22.547 Y9.
X16.344
X15.461 Y9.066
X14.639 Y9.396
X13.933 Y9.932
X13.355 Y10.604
X12.896 Y11.362
X12.537 Y12.172
X12.26 Y13.014
X12.048 Y13.874
X11.887 Y14.746
X11.765 Y15.623
X11.673 Y16.505
X11.604 Y17.388
X11.552 Y18.273
X11.514 Y19.158
X11.484 Y20.044
X11.463 Y20.93
X11.447 Y21.816
X11.435 Y22.702
X11.426 Y23.588
X11.419 Y24.474
X11.414 Y25.36
X11.408 Y27.132
X11.403 Y29.791
X11.401 Y34.221
X11.4 Y53.716
X11.499 Y54.596
X11.854 Y55.408
X12.405 Y56.102
X13.087 Y56.669
X13.849 Y57.12
X14.662 Y57.473
X15.505 Y57.746
X16.366 Y57.955
X17.238 Y58.114
X18.116 Y58.235
X18.997 Y58.326
X19.88 Y58.395
X20.765 Y58.447
X21.65 Y58.485
X22.536 Y58.514
X23.422 Y58.536
X24.308 Y58.552
X25.194 Y58.565
X26.08 Y58.574
X26.966 Y58.58
X27.852 Y58.585
X29.624 Y58.592
X32.283 Y58.597
X36.713 Y58.599
X42.916 Y58.6
X43.802 Y58.604
X44.688 Y58.629
X44.876 Y58.648
X45.136 Y58.699
X45.381 Y58.799
X45.603 Y58.942
X45.795 Y59.125
X45.948 Y59.341
X47.331 Y61.736
G3 X47.21 Y62.456 I-0.53 J0.282
G1 X47.142 Y62.52 Z-1.993
X47.075 Y62.583 Z-1.971
X47.011 Y62.642 Z-1.935
X46.952 Y62.697 Z-1.885
X46.9 Y62.746 Z-1.824
X46.855 Y62.787 Z-1.753
X46.819 Y62.821 Z-1.672
X46.793 Y62.845 Z-1.585
X46.777 Y62.86 Z-1.494
X46.771 Y62.865 Z-1.4
G0 Z5.
X91.065 Y65.569
Z-0.8
G1 Z-1.4 F1440.
Y65.562 Z-1.494
Y65.54 Z-1.585
Y65.504 Z-1.672
X91.064 Y65.455 Z-1.753
X91.063 Y65.394 Z-1.824
X91.062 Y65.322 Z-1.885
X91.061 Y65.242 Z-1.935
X91.06 Y65.155 Z-1.971
X91.059 Y65.063 Z-1.993
X91.058 Y64.97 Z-2.
G3 X91.243 Y64.206 I1.582 J-0.02
G1 X92.544 Y61.953
X92.734 Y61.659
X92.904 Y61.437
X93.112 Y61.206
X93.365 Y60.968
X93.689 Y60.708
X94.072 Y60.448
X94.558 Y60.174
X95.168 Y59.89
X95.941 Y59.604
X96.794 Y59.364
X97.661 Y59.181
X98.537 Y59.042
X99.416 Y58.935
X100.299 Y58.854
X101.183 Y58.792
X102.067 Y58.745
X102.953 Y58.71
X103.839 Y58.683
X104.724 Y58.662
X105.61 Y58.647
X106.497 Y58.635
X107.383 Y58.626
X108.269 Y58.62
X109.155 Y58.615
X110.927 Y58.608
X113.585 Y58.603
X118.016 Y58.601
X123.333 Y58.6
X124.219 Y58.591
X125.069 Y58.342
X125.816 Y57.866
X126.438 Y57.235
X126.938 Y56.503
X127.331 Y55.709
X127.636 Y54.877
X127.871 Y54.022
X128.05 Y53.154
X128.186 Y52.279
X128.289 Y51.399
X128.367 Y50.516
X128.425 Y49.632
X128.469 Y48.747
X128.502 Y47.861
X128.527 Y46.975
X128.546 Y46.09
X128.56 Y45.203
X128.57 Y44.317
X128.578 Y43.431
X128.583 Y42.545
X128.588 Y41.659
X128.593 Y39.887
X128.597 Y37.229
X128.6 Y31.912
Y15.962
X128.407 Y15.097
X127.972 Y14.324
X127.367 Y13.677
X126.651 Y13.155
X125.867 Y12.742
X125.042 Y12.42
X124.191 Y12.172
X123.325 Y11.982
X122.451 Y11.838
X121.572 Y11.729
X120.689 Y11.647
X119.805 Y11.585
X118.921 Y11.538
X118.035 Y11.503
X117.149 Y11.477
X116.263 Y11.457
X115.377 Y11.443
X114.491 Y11.432
X113.605 Y11.424
X112.719 Y11.418
X111.833 Y11.413
X110.061 Y11.407
X107.402 Y11.403
X106.516 Y11.402
X100.313 Y11.4
X97.655
X96.769 Y11.399
X95.883 Y11.39
X95.2 Y11.358
X94.923 Y11.317
X94.66 Y11.222
X94.421 Y11.077
X94.215 Y10.886
X94.052 Y10.659
X92.672 Y8.269
G3 X92.793 Y7.549 I0.53 J-0.282
G1 X92.861 Y7.485 Z-1.993
X92.928 Y7.422 Z-1.971
X92.992 Y7.363 Z-1.935
X93.051 Y7.308 Z-1.885
X93.103 Y7.259 Z-1.824
X93.148 Y7.218 Z-1.753
X93.184 Y7.184 Z-1.672
X93.21 Y7.16 Z-1.585
X93.226 Y7.145 Z-1.494
X93.231 Y7.14 Z-1.4
G0 Z5.
X48.935 Y4.431
Z-0.8
G1 Z-1.4 F1440.
Y4.438 Z-1.494
Y4.46 Z-1.585
Y4.496 Z-1.672
X48.936 Y4.545 Z-1.753
X48.937 Y4.606 Z-1.824
X48.938 Y4.678 Z-1.885
X48.939 Y4.758 Z-1.935
X48.94 Y4.845 Z-1.971
X48.941 Y4.937 Z-1.993
X48.942 Y5.03 Z-2.
G3 X48.757 Y5.794 I-1.582 J0.02
G1 X47.456 Y8.047
X47.266 Y8.341
X47.096 Y8.563
X46.888 Y8.794
X46.635 Y9.032
X46.311 Y9.292
X45.928 Y9.552
X45.442 Y9.826
X44.832 Y10.11
X44.059 Y10.396
X43.206 Y10.636
X42.339 Y10.819
X41.463 Y10.958
X40.584 Y11.065
X39.701 Y11.146
X38.817 Y11.208
X37.933 Y11.255
X37.047 Y11.29
X36.161 Y11.317
X35.276 Y11.338
X34.39 Y11.353
X33.503 Y11.365
X32.617 Y11.374
X31.731 Y11.38
X30.845 Y11.385
X29.073 Y11.392
X26.415 Y11.397
X21.984 Y11.399
X19.326 Y11.4
X18.439 Y11.401
X17.571 Y11.575
X16.789 Y11.993
X16.131 Y12.586
X15.597 Y13.294
X15.175 Y14.073
X14.847 Y14.896
X14.593 Y15.745
X14.399 Y16.609
X14.251 Y17.483
X14.139 Y18.362
X14.055 Y19.244
X13.991 Y20.128
X13.943 Y21.013
X13.907 Y21.898
X13.88 Y22.784
X13.86 Y23.67
X13.844 Y24.556
X13.833 Y25.442
X13.825 Y26.328
X13.818 Y27.214
X13.814 Y28.1
X13.808 Y29.872
X13.803 Y32.531
X13.801 Y36.961
X13.8 Y51.139
X13.862 Y52.023
X14.179 Y52.851
X14.7 Y53.567
X15.362 Y54.157
X16.112 Y54.629
X16.917 Y55.
X17.755 Y55.287
X18.613 Y55.509
X19.482 Y55.678
X20.359 Y55.807
X21.24 Y55.904
X22.123 Y55.978
X23.007 Y56.033
X23.893 Y56.075
X24.778 Y56.106
X25.664 Y56.13
X26.55 Y56.148
X27.436 Y56.161
X28.322 Y56.171
X29.208 Y56.178
X30.094 Y56.184
X30.98 Y56.188
X32.752 Y56.193
X35.411 Y56.197
X40.728 Y56.2
X41.614 Y56.201
X42.5 Y56.208
X43.385 Y56.237
X43.504 Y56.25
X43.761 Y56.303
X44.003 Y56.403
X44.222 Y56.546
X44.411 Y56.728
X44.563 Y56.942
X45.948 Y59.341
G3 X45.828 Y60.062 I-0.53 J0.282
G1 X45.759 Y60.126 Z-1.993
X45.692 Y60.188 Z-1.971
X45.628 Y60.247 Z-1.935
X45.57 Y60.302 Z-1.885
X45.517 Y60.351 Z-1.824
X45.473 Y60.393 Z-1.753
X45.437 Y60.426 Z-1.672
X45.41 Y60.451 Z-1.585
X45.394 Y60.466 Z-1.494
X45.389 Y60.471 Z-1.4
G0 Z5.
X92.367 Y63.316
Z-0.8
G1 Z-1.4 F1440.
Y63.308 Z-1.494
X92.366 Y63.286 Z-1.585
Y63.25 Z-1.672
X92.365 Y63.201 Z-1.753
X92.364 Y63.14 Z-1.824
X92.363 Y63.068 Z-1.885
X92.362 Y62.988 Z-1.935
X92.361 Y62.901 Z-1.971
X92.36 Y62.81 Z-1.993
X92.359 Y62.716 Z-2.
G3 X92.544 Y61.953 I1.582 J-0.02
G1 X93.938 Y59.539
X94.063 Y59.345
X94.233 Y59.123
X94.451 Y58.881
X94.706 Y58.641
X95.041 Y58.373
X95.431 Y58.108
X95.931 Y57.825
X96.558 Y57.534
X97.351 Y57.24
X98.205 Y57.001
X99.071 Y56.816
X99.946 Y56.673
X100.825 Y56.564
X101.707 Y56.479
X102.591 Y56.414
X103.476 Y56.364
X104.361 Y56.325
X105.246 Y56.295
X106.132 Y56.273
X107.018 Y56.255
X107.904 Y56.242
X108.79 Y56.232
X109.676 Y56.224
X110.563 Y56.218
X111.449 Y56.214
X113.221 Y56.208
X115.879 Y56.203
X120.31 Y56.201
X121.196
X122.079 Y56.127
X122.902 Y55.798
X123.61 Y55.265
X124.192 Y54.597
X124.657 Y53.843
X125.022 Y53.035
X125.304 Y52.196
X125.522 Y51.336
X125.688 Y50.466
X125.814 Y49.589
X125.909 Y48.708
X125.982 Y47.825
X126.036 Y46.94
X126.077 Y46.055
X126.108 Y45.17
X126.131 Y44.284
X126.148 Y43.398
X126.161 Y42.512
X126.171 Y41.626
X126.178 Y40.74
X126.184 Y39.853
X126.188 Y38.967
X126.193 Y37.195
X126.195 Y36.309
X126.198 Y32.765
X126.2 Y23.903
Y18.587
X126.063 Y17.711
X125.677 Y16.914
X125.105 Y16.236
X124.412 Y15.684
X123.642 Y15.246
X122.825 Y14.903
X121.98 Y14.637
X121.117 Y14.434
X120.245 Y14.278
X119.367 Y14.16
X118.485 Y14.071
X117.601 Y14.003
X116.717 Y13.953
X115.831 Y13.914
X114.946 Y13.886
X114.06 Y13.864
X113.174 Y13.848
X112.288 Y13.836
X111.402 Y13.827
X110.516 Y13.82
X109.63 Y13.815
X107.857 Y13.808
X105.199 Y13.803
X100.768 Y13.801
X98.996 Y13.8
X98.11 Y13.798
X97.224 Y13.786
X96.437 Y13.748
X95.882 Y13.676
X95.822 Y13.654
X95.769 Y13.616
X95.73 Y13.565
X94.052 Y10.659
G3 X94.173 Y9.939 I0.53 J-0.282
G1 X94.241 Y9.875 Z-1.993
X94.308 Y9.812 Z-1.971
X94.372 Y9.753 Z-1.935
X94.431 Y9.698 Z-1.885
X94.483 Y9.65 Z-1.824
X94.528 Y9.608 Z-1.753
X94.564 Y9.574 Z-1.672
X94.59 Y9.55 Z-1.585
X94.606 Y9.535 Z-1.494
X94.611 Y9.53 Z-1.4
G0 Z5.
X47.633 Y6.684
Z-0.8
G1 Z-1.4 F1440.
Y6.692 Z-1.494
X47.634 Y6.714 Z-1.585
Y6.75 Z-1.672
X47.635 Y6.799 Z-1.753
X47.636 Y6.86 Z-1.824
X47.637 Y6.932 Z-1.885
X47.638 Y7.012 Z-1.935
X47.639 Y7.099 Z-1.971
X47.64 Y7.19 Z-1.993
X47.641 Y7.284 Z-2.
G3 X47.456 Y8.047 I-1.582 J0.02
G1 X46.062 Y10.461
X45.937 Y10.655
X45.767 Y10.877
X45.549 Y11.119
X45.294 Y11.359
X44.959 Y11.627
X44.569 Y11.892
X44.069 Y12.175
X43.442 Y12.466
X42.649 Y12.76
X41.795 Y12.999
X40.929 Y13.184
X40.054 Y13.327
X39.175 Y13.436
X38.293 Y13.521
X37.409 Y13.586
X36.524 Y13.636
X35.639 Y13.675
X34.754 Y13.705
X33.868 Y13.727
X32.982 Y13.745
X32.096 Y13.758
X31.21 Y13.768
X30.324 Y13.776
X29.437 Y13.782
X28.551 Y13.786
X26.779 Y13.792
X24.121 Y13.797
X21.462 Y13.799
X20.576 Y13.817
X19.73 Y14.079
X18.987 Y14.562
X18.369 Y15.197
X17.871 Y15.93
X17.479 Y16.724
X17.174 Y17.556
X16.939 Y18.411
X16.759 Y19.278
X16.622 Y20.154
X16.518 Y21.034
X16.439 Y21.917
X16.379 Y22.801
X16.335 Y23.686
X16.301 Y24.571
X16.276 Y25.457
X16.257 Y26.343
X16.242 Y27.229
X16.232 Y28.115
X16.224 Y29.001
X16.218 Y29.887
X16.213 Y30.773
X16.207 Y32.545
X16.203 Y35.204
X16.202 Y36.09
X16.2 Y42.293
Y48.496
X16.215 Y49.382
X16.469 Y50.231
X16.945 Y50.978
X17.575 Y51.601
X18.305 Y52.103
X19.098 Y52.499
X19.928 Y52.808
X20.782 Y53.047
X21.649 Y53.23
X22.524 Y53.369
X23.404 Y53.475
X24.286 Y53.555
X25.17 Y53.616
X26.055 Y53.662
X26.941 Y53.696
X27.826 Y53.722
X28.712 Y53.742
X29.598 Y53.756
X30.484 Y53.767
X31.37 Y53.775
X32.256 Y53.782
X33.143 Y53.786
X34.915 Y53.792
X37.573 Y53.797
X39.345 Y53.798
X40.232 Y53.801
X41.118 Y53.809
X42.003 Y53.838
X42.119 Y53.851
X42.376 Y53.904
X42.618 Y54.004
X42.837 Y54.147
X43.026 Y54.329
X43.178 Y54.542
X44.563 Y56.942
G3 X44.442 Y57.662 I-0.53 J0.282
G1 X44.374 Y57.726 Z-1.993
X44.307 Y57.789 Z-1.971
X44.243 Y57.848 Z-1.935
X44.184 Y57.903 Z-1.885
X44.132 Y57.952 Z-1.824
X44.087 Y57.993 Z-1.753
X44.051 Y58.027 Z-1.672
X44.025 Y58.051 Z-1.585
X44.009 Y58.066 Z-1.494
X44.004 Y58.071 Z-1.4
G0 Z5.
X46.24 Y9.098
Z-0.8
G1 Z-1.4 F1440.
Y9.105 Z-1.494
Y9.127 Z-1.585
X46.241 Y9.163 Z-1.672
Y9.212 Z-1.753
X46.242 Y9.274 Z-1.824
X46.243 Y9.345 Z-1.885
X46.244 Y9.425 Z-1.935
X46.245 Y9.512 Z-1.971
X46.246 Y9.604 Z-1.993
X46.248 Y9.698 Z-2.
G3 X46.062 Y10.461 I-1.582 J0.02
G1 X44.73 Y12.769
X44.578 Y13.004
X44.408 Y13.226
X44.186 Y13.472
X43.929 Y13.714
X43.591 Y13.985
X43.196 Y14.253
X42.689 Y14.54
X42.053 Y14.835
X41.245 Y15.134
X40.392 Y15.374
X39.526 Y15.56
X38.651 Y15.704
X37.772 Y15.816
X36.89 Y15.903
X36.007 Y15.97
X35.122 Y16.022
X34.237 Y16.063
X33.352 Y16.095
X32.466 Y16.119
X31.58 Y16.138
X30.694 Y16.152
X29.808 Y16.163
X28.922 Y16.172
X28.036 Y16.179
X27.15 Y16.184
X25.377 Y16.191
X23.605 Y16.195
X22.723 Y16.278
X21.902 Y16.612
X21.197 Y17.148
X20.616 Y17.817
X20.151 Y18.572
X19.786 Y19.379
X19.503 Y20.219
X19.285 Y21.078
X19.119 Y21.948
X18.992 Y22.825
X18.896 Y23.706
X18.823 Y24.589
X18.768 Y25.474
X18.726 Y26.359
X18.695 Y27.244
X18.671 Y28.13
X18.653 Y29.016
X18.64 Y29.902
X18.63 Y30.788
X18.622 Y31.674
X18.617 Y32.56
X18.613 Y33.446
X18.607 Y35.219
X18.603 Y37.877
X18.601 Y42.308
X18.6 Y45.852
X18.602 Y46.738
X18.786 Y47.605
X19.209 Y48.384
X19.804 Y49.04
X20.512 Y49.573
X21.29 Y49.997
X22.112 Y50.328
X22.96 Y50.584
X23.824 Y50.781
X24.697 Y50.932
X25.576 Y51.046
X26.458 Y51.133
X27.342 Y51.199
X28.226 Y51.249
X29.112 Y51.286
X29.997 Y51.314
X30.883 Y51.336
X31.769 Y51.352
X32.655 Y51.364
X33.541 Y51.373
X34.427 Y51.38
X35.314 Y51.385
X37.086 Y51.391
X37.972 Y51.394
X38.858 Y51.398
X39.744 Y51.408
X40.63 Y51.438
X40.736 Y51.45
X40.992 Y51.503
X41.233 Y51.603
X41.452 Y51.746
X41.64 Y51.928
X41.791 Y52.141
X43.178 Y54.542
G3 X43.057 Y55.263 I-0.53 J0.282
G1 X42.988 Y55.327 Z-1.993
X42.921 Y55.389 Z-1.971
X42.858 Y55.449 Z-1.935
X42.799 Y55.503 Z-1.885
X42.747 Y55.552 Z-1.824
X42.702 Y55.594 Z-1.753
X42.666 Y55.627 Z-1.672
X42.64 Y55.652 Z-1.585
X42.624 Y55.667 Z-1.494
X42.618 Y55.672 Z-1.4
G0 Z5.
X44.907 Y11.406
Z-0.8
G1 Z-1.4 F1440.
X44.908 Y11.413 Z-1.494
Y11.435 Z-1.585
Y11.471 Z-1.672
X44.909 Y11.52 Z-1.753
X44.91 Y11.581 Z-1.824
X44.911 Y11.653 Z-1.885
X44.912 Y11.733 Z-1.935
X44.913 Y11.82 Z-1.971
X44.914 Y11.912 Z-1.993
X44.915 Y12.006 Z-2.
G3 X44.73 Y12.769 I-1.582 J0.02
G1 X43.391 Y15.087
X43.209 Y15.369
X43.04 Y15.591
X42.816 Y15.839
X42.557 Y16.082
X42.218 Y16.355
X41.819 Y16.625
X41.306 Y16.915
X40.664 Y17.213
X39.848 Y17.515
X38.995 Y17.755
X38.128 Y17.942
X37.254 Y18.087
X36.375 Y18.2
X35.494 Y18.289
X34.61 Y18.358
X33.726 Y18.412
X32.841 Y18.454
X31.955 Y18.487
X31.069 Y18.512
X30.183 Y18.532
X29.298 Y18.547
X28.411 Y18.559
X27.525 Y18.569
X25.753 Y18.583
X24.882 Y18.745
X24.093 Y19.147
X23.423 Y19.728
X22.877 Y20.426
X22.443 Y21.198
X22.103 Y22.017
X21.84 Y22.863
X21.637 Y23.726
X21.483 Y24.598
X21.365 Y25.476
X21.275 Y26.358
X21.208 Y27.241
X21.156 Y28.126
X21.118 Y29.011
X21.089 Y29.897
X21.067 Y30.783
X21.05 Y31.669
X21.038 Y32.555
X21.028 Y33.441
X21.021 Y34.327
X21.016 Y35.213
X21.009 Y36.985
X21.005 Y38.758
X21.002 Y42.302
X21.001 Y44.074
X21.113 Y44.953
X21.474 Y45.763
X22.025 Y46.457
X22.704 Y47.025
X23.465 Y47.479
X24.277 Y47.836
X25.118 Y48.113
X25.978 Y48.326
X26.849 Y48.489
X27.727 Y48.614
X28.608 Y48.708
X29.491 Y48.78
X30.375 Y48.834
X31.261 Y48.875
X32.146 Y48.906
X33.032 Y48.929
X33.918 Y48.947
X34.804 Y48.96
X35.69 Y48.97
X37.462 Y48.986
X38.348 Y48.999
X39.234 Y49.031
X39.347 Y49.044
X39.603 Y49.097
X39.844 Y49.197
X40.063 Y49.34
X40.251 Y49.522
X40.402 Y49.735
X41.791 Y52.141
G3 X41.671 Y52.861 I-0.53 J0.282
G1 X41.602 Y52.925 Z-1.993
X41.535 Y52.988 Z-1.971
X41.471 Y53.047 Z-1.935
X41.413 Y53.102 Z-1.885
X41.36 Y53.151 Z-1.824
X41.316 Y53.192 Z-1.753
X41.28 Y53.226 Z-1.672
X41.253 Y53.251 Z-1.585
X41.237 Y53.266 Z-1.494
X41.232 Y53.271 Z-1.4
G0 Z5.
X43.569 Y13.724
Z-0.8
G1 Z-1.4 F1440.
Y13.731 Z-1.494
Y13.753 Z-1.585
X43.57 Y13.789 Z-1.672
Y13.839 Z-1.753
X43.571 Y13.9 Z-1.824
X43.572 Y13.971 Z-1.885
X43.573 Y14.052 Z-1.935
X43.574 Y14.139 Z-1.971
X43.575 Y14.23 Z-1.993
X43.577 Y14.324 Z-2.
G3 X43.391 Y15.087 I-1.582 J0.02
G1 X41.998 Y17.501
X41.842 Y17.742
X41.673 Y17.963
X41.447 Y18.213
X41.187 Y18.458
X40.846 Y18.731
X40.444 Y19.004
X39.928 Y19.296
X39.282 Y19.596
X38.459 Y19.901
X37.605 Y20.141
X36.739 Y20.328
X35.865 Y20.474
X34.987 Y20.588
X34.105 Y20.678
X33.222 Y20.748
X32.337 Y20.803
X31.452 Y20.846
X30.567 Y20.88
X29.681 Y20.907
X28.795 Y20.927
X27.909 Y20.953
X27.057 Y21.195
X26.301 Y21.658
X25.668 Y22.278
X25.155 Y23.
X24.748 Y23.787
X24.43 Y24.615
X24.185 Y25.466
X23.996 Y26.332
X23.851 Y27.206
X23.741 Y28.085
X23.658 Y28.968
X23.595 Y29.851
X23.547 Y30.736
X23.511 Y31.622
X23.483 Y32.507
X23.463 Y33.393
X23.447 Y34.279
X23.435 Y35.165
X23.427 Y36.051
X23.42 Y36.937
X23.415 Y37.823
X23.409 Y39.596
X23.405 Y41.368
X23.442 Y42.253
X23.722 Y43.094
X24.217 Y43.829
X24.859 Y44.44
X25.596 Y44.931
X26.393 Y45.32
X27.226 Y45.622
X28.08 Y45.856
X28.948 Y46.035
X29.824 Y46.172
X30.704 Y46.277
X31.586 Y46.356
X32.47 Y46.416
X33.355 Y46.461
X34.241 Y46.496
X35.126 Y46.522
X36.898 Y46.567
X37.783 Y46.603
X37.947 Y46.621
X38.203 Y46.675
X38.445 Y46.775
X38.664 Y46.918
X38.852 Y47.099
X39.004 Y47.313
X40.402 Y49.735
G3 X40.281 Y50.455 I-0.53 J0.282
G1 X40.213 Y50.519 Z-1.993
X40.146 Y50.582 Z-1.971
X40.082 Y50.641 Z-1.935
X40.023 Y50.696 Z-1.885
X39.971 Y50.745 Z-1.824
X39.926 Y50.786 Z-1.753
X39.89 Y50.82 Z-1.672
X39.864 Y50.844 Z-1.585
X39.848 Y50.859 Z-1.494
X39.843 Y50.864 Z-1.4
G0 Z5.
X42.175 Y16.138
Z-0.8
G1 Z-1.4 F1440.
Y16.145 Z-1.494
X42.176 Y16.167 Z-1.585
Y16.203 Z-1.672
X42.177 Y16.252 Z-1.753
X42.178 Y16.313 Z-1.824
X42.179 Y16.385 Z-1.885
X42.18 Y16.465 Z-1.935
X42.181 Y16.552 Z-1.971
X42.182 Y16.644 Z-1.993
X42.183 Y16.738 Z-2.
G3 X41.998 Y17.501 I-1.582 J0.02
G1 X40.604 Y19.915
X40.47 Y20.123
X40.3 Y20.344
X40.075 Y20.594
X39.813 Y20.84
X39.472 Y21.114
X39.068 Y21.388
X38.549 Y21.682
X37.9 Y21.983
X37.072 Y22.29
X36.219 Y22.53
X35.352 Y22.717
X34.479 Y22.864
X33.6 Y22.979
X32.718 Y23.069
X31.835 Y23.14
X30.951 Y23.196
X30.07 Y23.29
X29.243 Y23.61
X28.524 Y24.127
X27.926 Y24.782
X27.444 Y25.525
X27.063 Y26.325
X26.766 Y27.16
X26.536 Y28.016
X26.359 Y28.884
X26.224 Y29.76
X26.121 Y30.64
X26.043 Y31.523
X25.984 Y32.407
X25.939 Y33.292
X25.905 Y34.177
X25.879 Y35.063
X25.859 Y35.949
X25.845 Y36.835
X25.834 Y37.721
X25.825 Y38.607
X25.822 Y39.493
X25.997 Y40.362
X26.413 Y41.144
X27.001 Y41.807
X27.705 Y42.345
X28.481 Y42.773
X29.301 Y43.109
X30.148 Y43.368
X31.012 Y43.568
X31.884 Y43.721
X32.763 Y43.838
X33.644 Y43.927
X34.528 Y43.996
X35.412 Y44.054
X36.296 Y44.114
X36.53 Y44.142
X36.844 Y44.218
X37.132 Y44.365
X37.379 Y44.573
X37.571 Y44.832
X39.004 Y47.313
G3 X38.883 Y48.033 I-0.53 J0.282
G1 X38.814 Y48.097 Z-1.993
X38.747 Y48.159 Z-1.971
X38.684 Y48.219 Z-1.935
X38.625 Y48.274 Z-1.885
X38.573 Y48.322 Z-1.824
X38.528 Y48.364 Z-1.753
X38.492 Y48.398 Z-1.672
X38.466 Y48.422 Z-1.585
X38.45 Y48.437 Z-1.494
X38.444 Y48.442 Z-1.4
G0 Z5.
X40.782 Y18.551
Z-0.8
G1 Z-1.4 F1440.
Y18.559 Z-1.494
Y18.581 Z-1.585
X40.783 Y18.617 Z-1.672
Y18.666 Z-1.753
X40.784 Y18.727 Z-1.824
X40.785 Y18.799 Z-1.885
X40.786 Y18.879 Z-1.935
X40.787 Y18.966 Z-1.971
X40.788 Y19.058 Z-1.993
X40.79 Y19.151 Z-2.
G3 X40.604 Y19.915 I-1.582 J0.02
G1 X39.293 Y22.185
X39.083 Y22.512
X38.913 Y22.733
X38.687 Y22.983
X38.426 Y23.23
X38.084 Y23.504
X37.679 Y23.778
X37.16 Y24.072
X36.509 Y24.374
X35.678 Y24.682
X34.825 Y24.922
X33.959 Y25.109
X33.085 Y25.257
X32.225 Y25.47
X31.439 Y25.879
X30.762 Y26.452
X30.204 Y27.14
X29.753 Y27.903
X29.396 Y28.714
X29.117 Y29.555
X28.901 Y30.414
X28.734 Y31.284
X28.606 Y32.161
X28.508 Y33.042
X28.433 Y33.925
X28.377 Y34.809
X28.334 Y35.694
X28.301 Y36.58
X28.322 Y37.466
X28.597 Y38.308
X29.092 Y39.043
X29.734 Y39.653
X30.473 Y40.143
X31.27 Y40.529
X32.103 Y40.831
X32.958 Y41.064
X33.825 Y41.247
X34.698 Y41.398
X35.06 Y41.465
X35.35 Y41.551
X35.613 Y41.698
X35.84 Y41.898
X36.018 Y42.141
X37.571 Y44.832
G3 X37.451 Y45.552 I-0.53 J0.282
G1 X37.382 Y45.616 Z-1.993
X37.315 Y45.679 Z-1.971
X37.252 Y45.738 Z-1.935
X37.193 Y45.793 Z-1.885
X37.14 Y45.842 Z-1.824
X37.096 Y45.883 Z-1.753
X37.06 Y45.917 Z-1.672
X37.033 Y45.942 Z-1.585
X37.017 Y45.957 Z-1.494
X37.012 Y45.962 Z-1.4
G0 Z5.
X39.471 Y20.822
Z-0.8
G1 Z-1.4 F1440.
Y20.829 Z-1.494
Y20.851 Z-1.585
X39.472 Y20.887 Z-1.672
Y20.937 Z-1.753
X39.473 Y20.998 Z-1.824
X39.474 Y21.069 Z-1.885
X39.475 Y21.15 Z-1.935
X39.476 Y21.237 Z-1.971
X39.477 Y21.328 Z-1.993
X39.479 Y21.422 Z-2.
G3 X39.293 Y22.185 I-1.582 J0.02
G1 X37.884 Y24.627
X37.709 Y24.898
X37.539 Y25.12
X37.313 Y25.37
X37.05 Y25.618
X36.708 Y25.892
X36.3 Y26.168
X35.529 Y26.605
X34.726 Y26.979
X33.976 Y27.451
X33.314 Y28.04
X32.754 Y28.727
X32.293 Y29.484
X31.921 Y30.288
X31.624 Y31.123
X31.391 Y31.978
X31.208 Y32.845
X31.066 Y33.719
X30.959 Y34.599
X31.05 Y35.48
X31.42 Y36.286
X31.985 Y36.968
X32.675 Y37.524
X33.383 Y37.94
X33.578 Y38.08
X33.748 Y38.25
X33.885 Y38.447
X36.018 Y42.141
G3 X35.897 Y42.862 I-0.53 J0.282
G1 X35.829 Y42.926 Z-1.993
X35.762 Y42.988 Z-1.971
X35.698 Y43.048 Z-1.935
X35.64 Y43.102 Z-1.885
X35.587 Y43.151 Z-1.824
X35.542 Y43.193 Z-1.753
X35.506 Y43.227 Z-1.672
X35.48 Y43.251 Z-1.585
X35.464 Y43.266 Z-1.494
X35.459 Y43.271 Z-1.4
G0 Z5.
X38.061 Y23.263
Z-0.8
G1 Z-1.4 F1440.
X38.062 Y23.271 Z-1.494
Y23.293 Z-1.585
Y23.329 Z-1.672
X38.063 Y23.378 Z-1.753
X38.064 Y23.439 Z-1.824
X38.065 Y23.511 Z-1.885
X38.066 Y23.591 Z-1.935
X38.067 Y23.678 Z-1.971
X38.068 Y23.769 Z-1.993
X38.069 Y23.863 Z-2.
G3 X37.884 Y24.627 I-1.582 J0.02
G1 X33.051 Y32.997
X32.711 Y33.592
X32.649 Y33.725
X32.545 Y33.994
X32.471 Y34.195
X32.423 Y34.397
X32.39 Y34.598
X32.369 Y34.799
X32.36 Y35.
X32.369 Y35.201
X32.39 Y35.402
X32.423 Y35.603
X32.471 Y35.805
X32.545 Y36.006
X32.649 Y36.275
X32.711 Y36.408
X33.056 Y37.011
X33.885 Y38.447
G3 X33.765 Y39.168 I-0.53 J0.282
G1 X33.696 Y39.232 Z-1.993
X33.629 Y39.294 Z-1.971
X33.565 Y39.353 Z-1.935
X33.507 Y39.408 Z-1.885
X33.454 Y39.457 Z-1.824
X33.41 Y39.499 Z-1.753
X33.374 Y39.532 Z-1.672
X33.347 Y39.557 Z-1.585
X33.331 Y39.572 Z-1.494
X33.326 Y39.577 Z-1.4
G0 Z5.
X93.76 Y60.902
Z-0.8
G1 Z-1.4 F1440.
Y60.895 Z-1.494
Y60.873 Z-1.585
X93.759 Y60.837 Z-1.672
Y60.788 Z-1.753
X93.758 Y60.726 Z-1.824
X93.757 Y60.655 Z-1.885
X93.756 Y60.575 Z-1.935
X93.755 Y60.488 Z-1.971
X93.754 Y60.396 Z-1.993
X93.752 Y60.302 Z-2.
G3 X93.938 Y59.539 I1.582 J-0.02
G1 X95.27 Y57.231
X95.422 Y56.996
X95.592 Y56.774
X95.814 Y56.528
X96.071 Y56.286
X96.409 Y56.015
X96.804 Y55.747
X97.311 Y55.46
X97.947 Y55.165
X98.755 Y54.866
X99.608 Y54.626
X100.474 Y54.44
X101.349 Y54.296
X102.228 Y54.184
X103.109 Y54.097
X103.993 Y54.03
X104.878 Y53.978
X105.763 Y53.937
X106.648 Y53.905
X107.534 Y53.881
X108.42 Y53.862
X109.306 Y53.848
X110.192 Y53.837
X111.078 Y53.828
X111.964 Y53.821
X112.85 Y53.816
X114.623 Y53.809
X117.281 Y53.804
X119.053 Y53.802
X119.926 Y53.646
X120.716 Y53.246
X121.386 Y52.666
X121.933 Y51.968
X122.366 Y51.195
X122.705 Y50.377
X122.968 Y49.53
X123.169 Y48.667
X123.323 Y47.795
X123.44 Y46.916
X123.529 Y46.035
X123.596 Y45.151
X123.647 Y44.266
X123.685 Y43.381
X123.713 Y42.495
X123.735 Y41.61
X123.751 Y40.724
X123.763 Y39.838
X123.773 Y38.951
X123.78 Y38.065
X123.785 Y37.179
X123.791 Y35.407
X123.796 Y32.749
X123.799 Y30.09
X123.8 Y21.229
X123.723 Y20.346
X123.394 Y19.524
X122.864 Y18.813
X122.198 Y18.229
X121.445 Y17.762
X120.638 Y17.395
X119.799 Y17.11
X118.941 Y16.89
X118.071 Y16.722
X117.194 Y16.594
X116.313 Y16.497
X115.43 Y16.424
X114.546 Y16.368
X113.66 Y16.326
X112.775 Y16.295
X111.889 Y16.271
X111.003 Y16.253
X110.117 Y16.24
X109.231 Y16.23
X108.345 Y16.222
X107.459 Y16.217
X106.573 Y16.213
X104.8 Y16.207
X102.142 Y16.203
X100.37 Y16.201
X99.484 Y16.197
X98.598 Y16.185
X97.982 Y16.161
X97.703 Y16.121
X97.438 Y16.027
X97.197 Y15.881
X96.989 Y15.69
X96.825 Y15.462
X95.73 Y13.565
G3 X95.85 Y12.844 I0.53 J-0.282
G1 X95.919 Y12.78 Z-1.993
X95.986 Y12.718 Z-1.971
X96.049 Y12.659 Z-1.935
X96.108 Y12.604 Z-1.885
X96.16 Y12.555 Z-1.824
X96.205 Y12.513 Z-1.753
X96.241 Y12.48 Z-1.672
X96.267 Y12.455 Z-1.585
X96.284 Y12.44 Z-1.494
X96.289 Y12.435 Z-1.4
G0 Z5.
X95.093 Y58.594
Z-0.8
G1 Z-1.4 F1440.
X95.092 Y58.587 Z-1.494
Y58.565 Z-1.585
Y58.529 Z-1.672
X95.091 Y58.48 Z-1.753
X95.09 Y58.419 Z-1.824
X95.089 Y58.347 Z-1.885
X95.088 Y58.267 Z-1.935
X95.087 Y58.18 Z-1.971
X95.086 Y58.088 Z-1.993
X95.085 Y57.994 Z-2.
G3 X95.27 Y57.231 I1.582 J-0.02
G1 X96.609 Y54.913
X96.791 Y54.631
X96.96 Y54.409
X97.184 Y54.161
X97.443 Y53.918
X97.782 Y53.645
X98.181 Y53.375
X98.694 Y53.085
X99.336 Y52.787
X100.152 Y52.485
X101.005 Y52.245
X101.872 Y52.058
X102.746 Y51.913
X103.625 Y51.8
X104.506 Y51.711
X105.39 Y51.642
X106.274 Y51.588
X107.159 Y51.546
X108.045 Y51.513
X108.931 Y51.488
X109.817 Y51.468
X110.702 Y51.453
X111.589 Y51.441
X112.475 Y51.431
X113.361 Y51.424
X114.247 Y51.419
X116.019 Y51.411
X116.905 Y51.399
X117.759 Y51.162
X118.515 Y50.7
X119.148 Y50.08
X119.66 Y49.357
X120.065 Y48.569
X120.381 Y47.741
X120.625 Y46.889
X120.812 Y46.023
X120.955 Y45.149
X121.064 Y44.269
X121.147 Y43.387
X121.209 Y42.503
X121.256 Y41.618
X121.292 Y40.733
X121.319 Y39.847
X121.339 Y38.961
X121.354 Y38.075
X121.366 Y37.189
X121.374 Y36.303
X121.381 Y35.417
X121.385 Y34.531
X121.392 Y32.759
X121.397 Y30.1
X121.399 Y25.67
X121.4 Y23.897
X121.379 Y23.011
X121.12 Y22.164
X120.641 Y21.419
X120.009 Y20.798
X119.277 Y20.297
X118.484 Y19.902
X117.654 Y19.594
X116.8 Y19.355
X115.933 Y19.173
X115.058 Y19.033
X114.178 Y18.927
X113.296 Y18.847
X112.412 Y18.786
X111.527 Y18.74
X110.641 Y18.705
X109.756 Y18.679
X108.87 Y18.659
X107.984 Y18.645
X107.098 Y18.633
X106.212 Y18.625
X105.325 Y18.619
X104.439 Y18.614
X101.781 Y18.605
X100.895 Y18.6
X100.009 Y18.588
X99.355 Y18.557
X99.078 Y18.516
X98.815 Y18.421
X98.577 Y18.276
X98.372 Y18.086
X98.209 Y17.859
X96.825 Y15.462
G3 X96.945 Y14.741 I0.53 J-0.282
G1 X97.014 Y14.677 Z-1.993
X97.081 Y14.615 Z-1.971
X97.145 Y14.556 Z-1.935
X97.203 Y14.501 Z-1.885
X97.256 Y14.452 Z-1.824
X97.3 Y14.41 Z-1.753
X97.336 Y14.377 Z-1.672
X97.363 Y14.352 Z-1.585
X97.379 Y14.337 Z-1.494
X97.384 Y14.332 Z-1.4
G0 Z5.
X96.431 Y56.276
Z-0.8
G1 Z-1.4 F1440.
Y56.269 Z-1.494
Y56.247 Z-1.585
X96.43 Y56.211 Z-1.672
Y56.161 Z-1.753
X96.429 Y56.1 Z-1.824
X96.428 Y56.029 Z-1.885
X96.427 Y55.948 Z-1.935
X96.426 Y55.861 Z-1.971
X96.425 Y55.77 Z-1.993
X96.423 Y55.676 Z-2.
G3 X96.609 Y54.913 I1.582 J-0.02
G1 X98.002 Y52.499
X98.158 Y52.258
X98.327 Y52.037
X98.553 Y51.787
X98.813 Y51.542
X99.154 Y51.269
X99.556 Y50.996
X100.072 Y50.704
X100.718 Y50.404
X101.541 Y50.099
X102.395 Y49.859
X103.261 Y49.672
X104.135 Y49.526
X105.013 Y49.412
X105.895 Y49.322
X106.778 Y49.252
X107.663 Y49.197
X108.548 Y49.154
X109.433 Y49.12
X110.319 Y49.093
X111.205 Y49.073
X112.091 Y49.057
X112.977 Y49.044
X113.863 Y49.034
X114.747 Y48.971
X115.578 Y48.665
X116.3 Y48.151
X116.898 Y47.497
X117.378 Y46.752
X117.757 Y45.951
X118.051 Y45.115
X118.279 Y44.259
X118.453 Y43.39
X118.586 Y42.514
X118.687 Y41.633
X118.764 Y40.751
X118.822 Y39.866
X118.866 Y38.981
X118.899 Y38.096
X118.924 Y37.21
X118.943 Y36.324
X118.957 Y35.438
X118.968 Y34.552
X118.976 Y33.666
X118.982 Y32.78
X118.986 Y31.894
X118.992 Y30.122
X118.997 Y27.463
X118.998 Y26.577
X118.996 Y25.691
X118.818 Y24.823
X118.4 Y24.042
X117.809 Y23.381
X117.104 Y22.845
X116.327 Y22.418
X115.506 Y22.084
X114.658 Y21.826
X113.795 Y21.627
X112.922 Y21.475
X112.043 Y21.359
X111.162 Y21.271
X110.278 Y21.204
X109.393 Y21.154
X108.508 Y21.116
X107.622 Y21.087
X106.737 Y21.066
X105.851 Y21.049
X104.965 Y21.037
X104.078 Y21.028
X102.306 Y21.011
X101.42 Y20.996
X100.741 Y20.963
X100.465 Y20.921
X100.203 Y20.826
X99.965 Y20.681
X99.76 Y20.491
X99.598 Y20.264
X98.209 Y17.859
G3 X98.329 Y17.138 I0.53 J-0.282
G1 X98.398 Y17.074 Z-1.993
X98.465 Y17.012 Z-1.971
X98.529 Y16.953 Z-1.935
X98.587 Y16.898 Z-1.885
X98.64 Y16.849 Z-1.824
X98.684 Y16.807 Z-1.753
X98.72 Y16.774 Z-1.672
X98.747 Y16.749 Z-1.585
X98.763 Y16.734 Z-1.494
X98.768 Y16.729 Z-1.4
G0 Z5.
X97.825 Y53.862
Z-0.8
G1 Z-1.4 F1440.
Y53.855 Z-1.494
X97.824 Y53.833 Z-1.585
Y53.797 Z-1.672
X97.823 Y53.748 Z-1.753
X97.822 Y53.687 Z-1.824
X97.821 Y53.615 Z-1.885
X97.82 Y53.535 Z-1.935
X97.819 Y53.448 Z-1.971
X97.818 Y53.356 Z-1.993
X97.817 Y53.262 Z-2.
G3 X98.002 Y52.499 I1.582 J-0.02
G1 X99.396 Y50.085
X99.53 Y49.877
X99.7 Y49.656
X99.925 Y49.406
X100.187 Y49.16
X100.528 Y48.886
X100.932 Y48.612
X101.451 Y48.318
X102.1 Y48.017
X102.928 Y47.71
X103.781 Y47.47
X104.648 Y47.283
X105.521 Y47.136
X106.4 Y47.021
X107.282 Y46.931
X108.165 Y46.86
X109.049 Y46.804
X109.934 Y46.76
X110.82 Y46.725
X111.705 Y46.698
X112.581 Y46.562
X113.384 Y46.187
X114.07 Y45.626
X114.633 Y44.942
X115.084 Y44.179
X115.439 Y43.367
X115.714 Y42.525
X115.926 Y41.664
X116.089 Y40.793
X116.213 Y39.916
X116.307 Y39.035
X116.379 Y38.152
X116.433 Y37.267
X116.474 Y36.382
X116.505 Y35.496
X116.528 Y34.611
X116.546 Y33.725
X116.559 Y32.839
X116.569 Y31.953
X116.577 Y31.066
X116.583 Y30.18
X116.587 Y29.294
X116.59 Y28.408
X116.501 Y27.527
X116.16 Y26.708
X115.624 Y26.003
X114.954 Y25.424
X114.198 Y24.96
X113.391 Y24.595
X112.551 Y24.312
X111.693 Y24.093
X110.822 Y23.926
X109.946 Y23.798
X109.065 Y23.701
X108.182 Y23.627
X107.297 Y23.571
X106.412 Y23.529
X105.527 Y23.497
X104.641 Y23.472
X103.755 Y23.451
X102.869 Y23.426
X102.012 Y23.38
X101.44 Y23.303
X101.379 Y23.281
X101.327 Y23.243
X101.288 Y23.193
X99.598 Y20.264
G3 X99.718 Y19.544 I0.53 J-0.282
G1 X99.787 Y19.48 Z-1.993
X99.854 Y19.417 Z-1.971
X99.917 Y19.358 Z-1.935
X99.976 Y19.303 Z-1.885
X100.028 Y19.255 Z-1.824
X100.073 Y19.213 Z-1.753
X100.109 Y19.179 Z-1.672
X100.135 Y19.155 Z-1.585
X100.151 Y19.14 Z-1.494
X100.157 Y19.135 Z-1.4
G0 Z5.
X99.218 Y51.449
Z-0.8
G1 Z-1.4 F1440.
Y51.441 Z-1.494
Y51.419 Z-1.585
X99.217 Y51.383 Z-1.672
Y51.334 Z-1.753
X99.216 Y51.273 Z-1.824
X99.215 Y51.201 Z-1.885
X99.214 Y51.121 Z-1.935
X99.213 Y51.034 Z-1.971
X99.212 Y50.942 Z-1.993
X99.21 Y50.849 Z-2.
G3 X99.396 Y50.085 I1.582 J-0.02
G1 X100.707 Y47.815
X100.917 Y47.488
X101.087 Y47.267
X101.313 Y47.017
X101.574 Y46.77
X101.916 Y46.496
X102.321 Y46.222
X102.84 Y45.928
X103.491 Y45.626
X104.322 Y45.318
X105.175 Y45.078
X106.041 Y44.891
X106.915 Y44.744
X107.794 Y44.628
X108.675 Y44.537
X109.558 Y44.46
X110.413 Y44.226
X111.179 Y43.781
X111.826 Y43.176
X112.355 Y42.465
X112.777 Y41.686
X113.109 Y40.865
X113.367 Y40.017
X113.566 Y39.153
X113.718 Y38.28
X113.834 Y37.402
X113.923 Y36.52
X113.991 Y35.637
X114.042 Y34.752
X114.08 Y33.867
X114.11 Y32.981
X114.132 Y32.095
X114.149 Y31.209
X114.152 Y30.323
X113.926 Y29.466
X113.469 Y28.707
X112.852 Y28.071
X112.131 Y27.556
X111.344 Y27.149
X110.517 Y26.831
X109.665 Y26.585
X108.8 Y26.396
X107.925 Y26.252
X107.046 Y26.142
X106.164 Y26.057
X105.28 Y25.991
X104.396 Y25.934
X103.5 Y25.871
X103.242 Y25.819
X102.998 Y25.719
X102.777 Y25.576
X102.587 Y25.393
X102.435 Y25.179
X101.288 Y23.193
G3 X101.409 Y22.472 I0.53 J-0.282
G1 X101.477 Y22.408 Z-1.993
X101.544 Y22.346 Z-1.971
X101.608 Y22.286 Z-1.935
X101.667 Y22.231 Z-1.885
X101.719 Y22.183 Z-1.824
X101.764 Y22.141 Z-1.753
X101.8 Y22.107 Z-1.672
X101.826 Y22.083 Z-1.585
X101.842 Y22.068 Z-1.494
X101.847 Y22.063 Z-1.4
G0 Z5.
X100.529 Y49.178
Z-0.8
G1 Z-1.4 F1440.
Y49.171 Z-1.494
Y49.149 Z-1.585
X100.528 Y49.113 Z-1.672
Y49.063 Z-1.753
X100.527 Y49.002 Z-1.824
X100.526 Y48.931 Z-1.885
X100.525 Y48.85 Z-1.935
X100.524 Y48.763 Z-1.971
X100.523 Y48.672 Z-1.993
X100.521 Y48.578 Z-2.
G3 X100.707 Y47.815 I1.582 J-0.02
G1 X102.116 Y45.373
X102.291 Y45.102
X102.461 Y44.88
X102.687 Y44.63
X102.95 Y44.382
X103.292 Y44.108
X103.699 Y43.832
X104.22 Y43.537
X104.873 Y43.234
X105.704 Y42.926
X106.557 Y42.686
X107.419 Y42.48
X108.231 Y42.125
X108.948 Y41.604
X109.552 Y40.956
X110.045 Y40.22
X110.44 Y39.427
X110.752 Y38.597
X110.996 Y37.745
X111.185 Y36.88
X111.331 Y36.006
X111.443 Y35.127
X111.528 Y34.245
X111.594 Y33.361
X111.584 Y32.475
X111.302 Y31.635
X110.799 Y30.905
X110.15 Y30.302
X109.407 Y29.819
X108.606 Y29.44
X107.771 Y29.145
X106.915 Y28.916
X106.047 Y28.736
X105.173 Y28.588
X104.935 Y28.542
X104.649 Y28.455
X104.388 Y28.308
X104.164 Y28.109
X103.987 Y27.868
X102.435 Y25.179
G3 X102.555 Y24.458 I0.53 J-0.282
G1 X102.624 Y24.394 Z-1.993
X102.691 Y24.332 Z-1.971
X102.755 Y24.273 Z-1.935
X102.813 Y24.218 Z-1.885
X102.866 Y24.169 Z-1.824
X102.91 Y24.127 Z-1.753
X102.946 Y24.094 Z-1.672
X102.973 Y24.069 Z-1.585
X102.989 Y24.054 Z-1.494
X102.994 Y24.049 Z-1.4
G0 Z5.
X101.939 Y46.737
Z-0.8
G1 Z-1.4 F1440.
X101.938 Y46.729 Z-1.494
Y46.707 Z-1.585
Y46.671 Z-1.672
X101.937 Y46.622 Z-1.753
X101.936 Y46.561 Z-1.824
X101.935 Y46.489 Z-1.885
X101.934 Y46.409 Z-1.935
X101.933 Y46.322 Z-1.971
X101.932 Y46.231 Z-1.993
X101.931 Y46.137 Z-2.
G3 X102.116 Y45.373 I1.582 J-0.02
G1 X103.46 Y43.046
X103.678 Y42.709
X103.847 Y42.487
X104.074 Y42.237
X104.348 Y41.978
X105.039 Y41.424
X105.758 Y40.905
X106.419 Y40.315
X106.998 Y39.644
X107.487 Y38.905
X107.889 Y38.116
X108.216 Y37.292
X108.477 Y36.445
X108.684 Y35.583
X108.703 Y35.141
X108.573 Y34.264
X108.156 Y33.482
X107.554 Y32.832
X106.841 Y32.307
X106.745 Y32.253
X106.539 Y32.112
X106.362 Y31.936
X106.218 Y31.732
X103.987 Y27.868
G3 X104.108 Y27.147 I0.53 J-0.282
G1 X104.176 Y27.083 Z-1.993
X104.243 Y27.021 Z-1.971
X104.307 Y26.961 Z-1.935
X104.366 Y26.907 Z-1.885
X104.418 Y26.858 Z-1.824
X104.463 Y26.816 Z-1.753
X104.499 Y26.782 Z-1.672
X104.525 Y26.758 Z-1.585
X104.541 Y26.743 Z-1.494
X104.547 Y26.738 Z-1.4
G0 Z5.
X103.283 Y44.409
Z-0.8
G1 Z-1.4 F1440.
X103.282 Y44.401 Z-1.494
Y44.379 Z-1.585
Y44.343 Z-1.672
X103.281 Y44.294 Z-1.753
X103.28 Y44.233 Z-1.824
X103.279 Y44.161 Z-1.885
X103.278 Y44.081 Z-1.935
X103.277 Y43.994 Z-1.971
X103.276 Y43.903 Z-1.993
X103.275 Y43.809 Z-2.
G3 X103.46 Y43.046 I1.582 J-0.02
G1 X106.949 Y37.003
X107.289 Y36.408
X107.351 Y36.275
X107.455 Y36.006
X107.529 Y35.805
X107.577 Y35.603
X107.61 Y35.402
X107.631 Y35.201
X107.64 Y35.
X107.631 Y34.799
X107.61 Y34.598
X107.577 Y34.397
X107.529 Y34.195
X107.455 Y33.994
X107.351 Y33.725
X107.289 Y33.592
X106.944 Y32.989
X106.218 Y31.732
G3 X106.339 Y31.012 I0.53 J-0.282
G1 X106.408 Y30.948 Z-1.993
X106.475 Y30.885 Z-1.971
X106.538 Y30.826 Z-1.935
X106.597 Y30.771 Z-1.885
X106.649 Y30.722 Z-1.824
X106.694 Y30.681 Z-1.753
X106.73 Y30.647 Z-1.672
X106.756 Y30.623 Z-1.585
X106.772 Y30.608 Z-1.494
X106.778 Y30.603 Z-1.4
G0 Z15.

M9
M30
